(.../src/pcbgcode.repo/pcb-gcode.ulp)
(Copyright 2005 - 2012 by John Johnson)
(See readme.txt for licensing terms.)
(This file generated from the board:)
(.../docs/examples/04151_lcdi2c.brd)
(Current profile is .../pcbgcode-work/profiles/mach.pp  )
(This file generated 2/6/14 10:01 AM)
(Settings from pcb-machine.h)
(spindle on time = 3.0000)
(  Tool Size)
(0.0070  )
(spindle speed = 30000.0000)
(tool change at 0.0000  0.0000  1.0000  )
(feed rate xy = F20    )
(feed rate z  = F10    )
(Z Axis Settings)
(  High     Up        Down     Drill)
(0.5000  	0.1000  	-0.0070 	-0.0320 )
(Settings from pcb-defaults.h)
(isolate min = 0.0010)
(isolate max = 0.0200)
(isolate step = 0.0050)
(Generated top outlines, top drill, top stencil, bottom outlines, bottom drill, bottom stencil)
(Unit of measure: inch)
(Inch Mode)
G20
(Absolute Coordinates)
G90
S30000
G00 Z0.5000  
G00 X0.0000  Y0.0000  
M03
G04 P3.000000
G00 Z0.1000  
G00 X0.4463  Y0.8573  
G01 Z-0.0070 F10    
G01 X0.4463  Y0.9427  F20    
G01 X0.4456  Y0.9444  
G01 X0.4444  Y0.9456  
G01 X0.4427  Y0.9463  
G01 X0.3573  Y0.9463  
G01 X0.3556  Y0.9456  
G01 X0.3544  Y0.9444  
G01 X0.3537  Y0.9427  
G01 X0.3537  Y0.8573  
G01 X0.3544  Y0.8556  
G01 X0.3556  Y0.8544  
G01 X0.3573  Y0.8537  
G01 X0.3875  Y0.8537  
G01 X0.3875  Y0.6084  
G01 X0.3884  Y0.6052  
G01 X0.3900  Y0.6023  
G01 X0.4375  Y0.5548  
G01 X0.4375  Y0.4302  
G01 X0.4273  Y0.4200  
G01 X0.4250  Y0.4177  
G01 X0.4234  Y0.4148  
G01 X0.4225  Y0.4116  
G01 X0.4225  Y0.1334  
G01 X0.4234  Y0.1302  
G01 X0.4250  Y0.1273  
G01 X0.4600  Y0.0923  
G01 X0.4623  Y0.0900  
G01 X0.4652  Y0.0884  
G01 X0.4684  Y0.0875  
G01 X0.9096  Y0.0875  
G01 X0.9109  Y0.0874  
G01 X0.9113  Y0.0875  
G01 X0.9116  Y0.0875  
G01 X0.9129  Y0.0878  
G01 X0.9142  Y0.0881  
G01 X0.9145  Y0.0883  
G01 X0.9148  Y0.0884  
G01 X0.9159  Y0.0890  
G01 X0.9171  Y0.0896  
G01 X0.9174  Y0.0898  
G01 X0.9177  Y0.0900  
G01 X0.9186  Y0.0909  
G01 X1.0619  Y0.2187  
G01 X1.1377  Y0.2187  
G01 X1.1394  Y0.2194  
G01 X1.1406  Y0.2206  
G01 X1.1413  Y0.2223  
G01 X1.1413  Y0.3077  
G01 X1.1406  Y0.3094  
G01 X1.1394  Y0.3106  
G01 X1.1377  Y0.3113  
G01 X1.0523  Y0.3113  
G01 X1.0506  Y0.3106  
G01 X1.0494  Y0.3094  
G01 X1.0487  Y0.3077  
G01 X1.0487  Y0.2404  
G01 X0.9052  Y0.1125  
G01 X0.4752  Y0.1125  
G01 X0.4475  Y0.1402  
G01 X0.4475  Y0.4048  
G01 X0.4600  Y0.4173  
G01 X0.4616  Y0.4202  
G01 X0.4625  Y0.4234  
G01 X0.4625  Y0.5616  
G01 X0.4616  Y0.5648  
G01 X0.4600  Y0.5677  
G01 X0.4577  Y0.5700  
G01 X0.4125  Y0.6152  
G01 X0.4125  Y0.8537  
G01 X0.4427  Y0.8537  
G01 X0.4444  Y0.8544  
G01 X0.4456  Y0.8556  
G01 X0.4463  Y0.8573  
G00 Z0.1000  
G00 X1.8242  Y0.0525  
G01 Z-0.0070 F10    
G01 X1.8251  Y0.0524  F20    
G01 X1.8259  Y0.0525  
G01 X1.8266  Y0.0525  
G01 X1.8275  Y0.0527  
G01 X1.8284  Y0.0529  
G01 X1.8291  Y0.0532  
G01 X1.8298  Y0.0534  
G01 X1.8306  Y0.0538  
G01 X1.8314  Y0.0542  
G01 X1.8320  Y0.0546  
G01 X1.8327  Y0.0550  
G01 X1.8333  Y0.0556  
G01 X1.8340  Y0.0562  
G01 X1.8345  Y0.0568  
G01 X1.8350  Y0.0573  
G01 X1.8354  Y0.0581  
G01 X1.9095  Y0.1568  
G01 X1.9100  Y0.1573  
G01 X1.9104  Y0.1581  
G01 X1.9110  Y0.1588  
G01 X1.9113  Y0.1595  
G01 X1.9116  Y0.1602  
G01 X1.9119  Y0.1610  
G01 X1.9122  Y0.1619  
G01 X1.9123  Y0.1626  
G01 X1.9125  Y0.1634  
G01 X1.9125  Y0.1642  
G01 X1.9126  Y0.1651  
G01 X1.9125  Y0.1659  
G01 X1.9125  Y0.2937  
G01 X1.9427  Y0.2937  
G01 X1.9444  Y0.2944  
G01 X1.9456  Y0.2956  
G01 X1.9463  Y0.2973  
G01 X1.9463  Y0.3827  
G01 X1.9456  Y0.3844  
G01 X1.9444  Y0.3856  
G01 X1.9427  Y0.3863  
G01 X1.8573  Y0.3863  
G01 X1.8556  Y0.3856  
G01 X1.8544  Y0.3844  
G01 X1.8537  Y0.3827  
G01 X1.8537  Y0.2973  
G01 X1.8544  Y0.2956  
G01 X1.8556  Y0.2944  
G01 X1.8573  Y0.2937  
G01 X1.8875  Y0.2937  
G01 X1.8875  Y0.1692  
G01 X1.8187  Y0.0775  
G01 X0.4352  Y0.0775  
G01 X0.4025  Y0.1102  
G01 X0.4025  Y0.4537  
G01 X0.4327  Y0.4537  
G01 X0.4344  Y0.4544  
G01 X0.4356  Y0.4556  
G01 X0.4363  Y0.4573  
G01 X0.4363  Y0.5427  
G01 X0.4356  Y0.5444  
G01 X0.4344  Y0.5456  
G01 X0.4327  Y0.5463  
G01 X0.3473  Y0.5463  
G01 X0.3456  Y0.5456  
G01 X0.3444  Y0.5444  
G01 X0.3437  Y0.5427  
G01 X0.3437  Y0.4573  
G01 X0.3444  Y0.4556  
G01 X0.3456  Y0.4544  
G01 X0.3473  Y0.4537  
G01 X0.3775  Y0.4537  
G01 X0.3775  Y0.1034  
G01 X0.3784  Y0.1002  
G01 X0.3800  Y0.0973  
G01 X0.4223  Y0.0550  
G01 X0.4252  Y0.0534  
G01 X0.4284  Y0.0525  
G01 X0.4316  Y0.0525  
G01 X1.8242  Y0.0525  
G00 Z0.1000  
G00 X0.8376  Y0.6054  
G01 Z-0.0070 F10    
G01 X0.8376  Y0.6744  F20    
G01 X0.8363  Y0.6813  
G01 X0.8336  Y0.6878  
G01 X0.8297  Y0.6936  
G01 X0.8248  Y0.6985  
G01 X0.8189  Y0.7024  
G01 X0.8125  Y0.7051  
G01 X0.8056  Y0.7064  
G01 X0.7986  Y0.7064  
G01 X0.7918  Y0.7051  
G01 X0.7853  Y0.7024  
G01 X0.7795  Y0.6985  
G01 X0.7746  Y0.6936  
G01 X0.7707  Y0.6878  
G01 X0.7680  Y0.6813  
G01 X0.7666  Y0.6744  
G01 X0.7666  Y0.6054  
G01 X0.7680  Y0.5986  
G01 X0.7707  Y0.5921  
G01 X0.7746  Y0.5863  
G01 X0.7795  Y0.5814  
G01 X0.7853  Y0.5775  
G01 X0.7918  Y0.5748  
G01 X0.7986  Y0.5734  
G01 X0.8056  Y0.5734  
G01 X0.8125  Y0.5748  
G01 X0.8189  Y0.5775  
G01 X0.8248  Y0.5814  
G01 X0.8297  Y0.5863  
G01 X0.8336  Y0.5921  
G01 X0.8363  Y0.5986  
G01 X0.8376  Y0.6054  
G00 Z0.1000  
G00 X0.8060  Y0.8546  
G01 Z-0.0070 F10    
G01 X0.8060  Y0.7856  F20    
G01 X0.8074  Y0.7787  
G01 X0.8100  Y0.7722  
G01 X0.8139  Y0.7664  
G01 X0.8189  Y0.7615  
G01 X0.8247  Y0.7576  
G01 X0.8311  Y0.7549  
G01 X0.8380  Y0.7536  
G01 X0.8450  Y0.7536  
G01 X0.8519  Y0.7549  
G01 X0.8583  Y0.7576  
G01 X0.8641  Y0.7615  
G01 X0.8691  Y0.7664  
G01 X0.8730  Y0.7722  
G01 X0.8756  Y0.7787  
G01 X0.8770  Y0.7856  
G01 X0.8770  Y0.8546  
G01 X0.8756  Y0.8614  
G01 X0.8730  Y0.8679  
G01 X0.8691  Y0.8737  
G01 X0.8641  Y0.8786  
G01 X0.8583  Y0.8825  
G01 X0.8519  Y0.8852  
G01 X0.8450  Y0.8866  
G01 X0.8380  Y0.8866  
G01 X0.8311  Y0.8852  
G01 X0.8247  Y0.8825  
G01 X0.8189  Y0.8786  
G01 X0.8139  Y0.8737  
G01 X0.8100  Y0.8679  
G01 X0.8074  Y0.8614  
G01 X0.8060  Y0.8546  
G00 Z0.1000  
G00 X0.7589  Y0.6054  
G01 Z-0.0070 F10    
G01 X0.7589  Y0.6744  F20    
G01 X0.7575  Y0.6813  
G01 X0.7548  Y0.6878  
G01 X0.7510  Y0.6936  
G01 X0.7460  Y0.6985  
G01 X0.7402  Y0.7024  
G01 X0.7337  Y0.7051  
G01 X0.7269  Y0.7064  
G01 X0.7199  Y0.7064  
G01 X0.7130  Y0.7051  
G01 X0.7066  Y0.7024  
G01 X0.7008  Y0.6985  
G01 X0.6958  Y0.6936  
G01 X0.6919  Y0.6878  
G01 X0.6893  Y0.6813  
G01 X0.6879  Y0.6744  
G01 X0.6879  Y0.6054  
G01 X0.6893  Y0.5986  
G01 X0.6919  Y0.5921  
G01 X0.6958  Y0.5863  
G01 X0.7008  Y0.5814  
G01 X0.7066  Y0.5775  
G01 X0.7130  Y0.5748  
G01 X0.7199  Y0.5734  
G01 X0.7269  Y0.5734  
G01 X0.7337  Y0.5748  
G01 X0.7402  Y0.5775  
G01 X0.7460  Y0.5814  
G01 X0.7510  Y0.5863  
G01 X0.7548  Y0.5921  
G01 X0.7575  Y0.5986  
G01 X0.7589  Y0.6054  
G00 Z0.1000  
G00 X0.9164  Y0.6054  
G01 Z-0.0070 F10    
G01 X0.9164  Y0.6744  F20    
G01 X0.9150  Y0.6813  
G01 X0.9123  Y0.6878  
G01 X0.9084  Y0.6936  
G01 X0.9035  Y0.6985  
G01 X0.8977  Y0.7024  
G01 X0.8912  Y0.7051  
G01 X0.8844  Y0.7064  
G01 X0.8774  Y0.7064  
G01 X0.8705  Y0.7051  
G01 X0.8641  Y0.7024  
G01 X0.8582  Y0.6985  
G01 X0.8533  Y0.6936  
G01 X0.8494  Y0.6878  
G01 X0.8467  Y0.6813  
G01 X0.8454  Y0.6744  
G01 X0.8454  Y0.6054  
G01 X0.8467  Y0.5986  
G01 X0.8494  Y0.5921  
G01 X0.8533  Y0.5863  
G01 X0.8582  Y0.5814  
G01 X0.8641  Y0.5775  
G01 X0.8705  Y0.5748  
G01 X0.8774  Y0.5734  
G01 X0.8844  Y0.5734  
G01 X0.8912  Y0.5748  
G01 X0.8977  Y0.5775  
G01 X0.9035  Y0.5814  
G01 X0.9084  Y0.5863  
G01 X0.9123  Y0.5921  
G01 X0.9150  Y0.5986  
G01 X0.9164  Y0.6054  
G00 Z0.1000  
G00 X0.8847  Y0.8546  
G01 Z-0.0070 F10    
G01 X0.8847  Y0.7856  F20    
G01 X0.8861  Y0.7787  
G01 X0.8888  Y0.7722  
G01 X0.8927  Y0.7664  
G01 X0.8976  Y0.7615  
G01 X0.9034  Y0.7576  
G01 X0.9099  Y0.7549  
G01 X0.9167  Y0.7536  
G01 X0.9237  Y0.7536  
G01 X0.9306  Y0.7549  
G01 X0.9371  Y0.7576  
G01 X0.9429  Y0.7615  
G01 X0.9478  Y0.7664  
G01 X0.9517  Y0.7722  
G01 X0.9544  Y0.7787  
G01 X0.9557  Y0.7856  
G01 X0.9557  Y0.8546  
G01 X0.9544  Y0.8614  
G01 X0.9517  Y0.8679  
G01 X0.9478  Y0.8737  
G01 X0.9429  Y0.8786  
G01 X0.9371  Y0.8825  
G01 X0.9306  Y0.8852  
G01 X0.9237  Y0.8866  
G01 X0.9167  Y0.8866  
G01 X0.9099  Y0.8852  
G01 X0.9034  Y0.8825  
G01 X0.8976  Y0.8786  
G01 X0.8927  Y0.8737  
G01 X0.8888  Y0.8679  
G01 X0.8861  Y0.8614  
G01 X0.8847  Y0.8546  
G00 Z0.1000  
G00 X0.7273  Y0.8546  
G01 Z-0.0070 F10    
G01 X0.7273  Y0.7856  F20    
G01 X0.7286  Y0.7787  
G01 X0.7313  Y0.7722  
G01 X0.7352  Y0.7664  
G01 X0.7401  Y0.7615  
G01 X0.7459  Y0.7576  
G01 X0.7524  Y0.7549  
G01 X0.7593  Y0.7536  
G01 X0.7663  Y0.7536  
G01 X0.7731  Y0.7549  
G01 X0.7796  Y0.7576  
G01 X0.7854  Y0.7615  
G01 X0.7903  Y0.7664  
G01 X0.7942  Y0.7722  
G01 X0.7969  Y0.7787  
G01 X0.7983  Y0.7856  
G01 X0.7983  Y0.8546  
G01 X0.7969  Y0.8614  
G01 X0.7942  Y0.8679  
G01 X0.7903  Y0.8737  
G01 X0.7854  Y0.8786  
G01 X0.7796  Y0.8825  
G01 X0.7731  Y0.8852  
G01 X0.7663  Y0.8866  
G01 X0.7593  Y0.8866  
G01 X0.7524  Y0.8852  
G01 X0.7459  Y0.8825  
G01 X0.7401  Y0.8786  
G01 X0.7352  Y0.8737  
G01 X0.7313  Y0.8679  
G01 X0.7286  Y0.8614  
G01 X0.7273  Y0.8546  
G00 Z0.1000  
G00 X0.3295  Y0.9836  
G01 Z-0.0070 F10    
G01 X0.3295  Y1.0164  F20    
G01 X0.3064  Y1.0395  
G01 X0.2736  Y1.0395  
G01 X0.2505  Y1.0164  
G01 X0.2505  Y0.9836  
G01 X0.2736  Y0.9605  
G01 X0.3064  Y0.9605  
G01 X0.3295  Y0.9836  
G00 Z0.1000  
G00 X0.3295  Y0.8836  
G01 Z-0.0070 F10    
G01 X0.3295  Y0.9164  F20    
G01 X0.3064  Y0.9395  
G01 X0.2736  Y0.9395  
G01 X0.2505  Y0.9164  
G01 X0.2505  Y0.8836  
G01 X0.2736  Y0.8605  
G01 X0.3064  Y0.8605  
G01 X0.3295  Y0.8836  
G00 Z0.1000  
G00 X0.3295  Y0.7836  
G01 Z-0.0070 F10    
G01 X0.3295  Y0.8164  F20    
G01 X0.3064  Y0.8395  
G01 X0.2736  Y0.8395  
G01 X0.2505  Y0.8164  
G01 X0.2505  Y0.7836  
G01 X0.2736  Y0.7605  
G01 X0.3064  Y0.7605  
G01 X0.3295  Y0.7836  
G00 Z0.1000  
G00 X0.3295  Y0.6836  
G01 Z-0.0070 F10    
G01 X0.3295  Y0.7164  F20    
G01 X0.3064  Y0.7395  
G01 X0.2736  Y0.7395  
G01 X0.2505  Y0.7164  
G01 X0.2505  Y0.6836  
G01 X0.2736  Y0.6605  
G01 X0.3064  Y0.6605  
G01 X0.3295  Y0.6836  
G00 Z0.1000  
G00 X0.3295  Y0.5836  
G01 Z-0.0070 F10    
G01 X0.3295  Y0.6164  F20    
G01 X0.3064  Y0.6395  
G01 X0.2736  Y0.6395  
G01 X0.2505  Y0.6164  
G01 X0.2505  Y0.5836  
G01 X0.2736  Y0.5605  
G01 X0.3064  Y0.5605  
G01 X0.3295  Y0.5836  
G00 Z0.1000  
G00 X0.3295  Y0.4836  
G01 Z-0.0070 F10    
G01 X0.3295  Y0.5164  F20    
G01 X0.3064  Y0.5395  
G01 X0.2736  Y0.5395  
G01 X0.2505  Y0.5164  
G01 X0.2505  Y0.4836  
G01 X0.2736  Y0.4605  
G01 X0.3064  Y0.4605  
G01 X0.3295  Y0.4836  
G00 Z0.1000  
G00 X0.2295  Y0.9836  
G01 Z-0.0070 F10    
G01 X0.2295  Y1.0164  F20    
G01 X0.2064  Y1.0395  
G01 X0.1736  Y1.0395  
G01 X0.1505  Y1.0164  
G01 X0.1505  Y0.9836  
G01 X0.1736  Y0.9605  
G01 X0.2064  Y0.9605  
G01 X0.2295  Y0.9836  
G00 Z0.1000  
G00 X0.2295  Y0.8836  
G01 Z-0.0070 F10    
G01 X0.2295  Y0.9164  F20    
G01 X0.2064  Y0.9395  
G01 X0.1736  Y0.9395  
G01 X0.1505  Y0.9164  
G01 X0.1505  Y0.8836  
G01 X0.1736  Y0.8605  
G01 X0.2064  Y0.8605  
G01 X0.2295  Y0.8836  
G00 Z0.1000  
G00 X0.2295  Y0.7836  
G01 Z-0.0070 F10    
G01 X0.2295  Y0.8164  F20    
G01 X0.2064  Y0.8395  
G01 X0.1736  Y0.8395  
G01 X0.1505  Y0.8164  
G01 X0.1505  Y0.7836  
G01 X0.1736  Y0.7605  
G01 X0.2064  Y0.7605  
G01 X0.2295  Y0.7836  
G00 Z0.1000  
G00 X0.2295  Y0.6836  
G01 Z-0.0070 F10    
G01 X0.2295  Y0.7164  F20    
G01 X0.2064  Y0.7395  
G01 X0.1736  Y0.7395  
G01 X0.1505  Y0.7164  
G01 X0.1505  Y0.6836  
G01 X0.1736  Y0.6605  
G01 X0.2064  Y0.6605  
G01 X0.2295  Y0.6836  
G00 Z0.1000  
G00 X0.2295  Y0.5836  
G01 Z-0.0070 F10    
G01 X0.2295  Y0.6164  F20    
G01 X0.2064  Y0.6395  
G01 X0.1736  Y0.6395  
G01 X0.1505  Y0.6164  
G01 X0.1505  Y0.5836  
G01 X0.1736  Y0.5605  
G01 X0.2064  Y0.5605  
G01 X0.2295  Y0.5836  
G00 Z0.1000  
G00 X0.2295  Y0.4836  
G01 Z-0.0070 F10    
G01 X0.2295  Y0.5164  F20    
G01 X0.2064  Y0.5395  
G01 X0.1736  Y0.5395  
G01 X0.1505  Y0.5164  
G01 X0.1505  Y0.4836  
G01 X0.1736  Y0.4605  
G01 X0.2064  Y0.4605  
G01 X0.2295  Y0.4836  
G00 Z0.1000  
G00 X0.3295  Y0.3836  
G01 Z-0.0070 F10    
G01 X0.3295  Y0.4164  F20    
G01 X0.3064  Y0.4395  
G01 X0.2736  Y0.4395  
G01 X0.2505  Y0.4164  
G01 X0.2505  Y0.3836  
G01 X0.2736  Y0.3605  
G01 X0.3064  Y0.3605  
G01 X0.3295  Y0.3836  
G00 Z0.1000  
G00 X0.2295  Y0.3836  
G01 Z-0.0070 F10    
G01 X0.2295  Y0.4164  F20    
G01 X0.2064  Y0.4395  
G01 X0.1736  Y0.4395  
G01 X0.1505  Y0.4164  
G01 X0.1505  Y0.3836  
G01 X0.1736  Y0.3605  
G01 X0.2064  Y0.3605  
G01 X0.2295  Y0.3836  
G00 Z0.1000  
G00 X0.9495  Y0.3155  
G01 Z-0.0070 F10    
G01 X0.8805  Y0.3155  F20    
G01 X0.8736  Y0.3141  
G01 X0.8672  Y0.3115  
G01 X0.8614  Y0.3076  
G01 X0.8564  Y0.3026  
G01 X0.8525  Y0.2968  
G01 X0.8499  Y0.2904  
G01 X0.8485  Y0.2835  
G01 X0.8485  Y0.2765  
G01 X0.8499  Y0.2696  
G01 X0.8525  Y0.2632  
G01 X0.8564  Y0.2574  
G01 X0.8614  Y0.2524  
G01 X0.8672  Y0.2485  
G01 X0.8736  Y0.2459  
G01 X0.8805  Y0.2445  
G01 X0.9495  Y0.2445  
G01 X0.9564  Y0.2459  
G01 X0.9628  Y0.2485  
G01 X0.9686  Y0.2524  
G01 X0.9736  Y0.2574  
G01 X0.9775  Y0.2632  
G01 X0.9801  Y0.2696  
G01 X0.9815  Y0.2765  
G01 X0.9815  Y0.2835  
G01 X0.9801  Y0.2904  
G01 X0.9775  Y0.2968  
G01 X0.9736  Y0.3026  
G01 X0.9686  Y0.3076  
G01 X0.9628  Y0.3115  
G01 X0.9564  Y0.3141  
G01 X0.9495  Y0.3155  
G00 Z0.1000  
G00 X1.2495  Y0.2155  
G01 Z-0.0070 F10    
G01 X1.1805  Y0.2155  F20    
G01 X1.1736  Y0.2141  
G01 X1.1672  Y0.2115  
G01 X1.1614  Y0.2076  
G01 X1.1564  Y0.2026  
G01 X1.1525  Y0.1968  
G01 X1.1499  Y0.1904  
G01 X1.1485  Y0.1835  
G01 X1.1485  Y0.1765  
G01 X1.1499  Y0.1696  
G01 X1.1525  Y0.1632  
G01 X1.1564  Y0.1574  
G01 X1.1614  Y0.1524  
G01 X1.1672  Y0.1485  
G01 X1.1736  Y0.1459  
G01 X1.1805  Y0.1445  
G01 X1.2495  Y0.1445  
G01 X1.2564  Y0.1459  
G01 X1.2628  Y0.1485  
G01 X1.2686  Y0.1524  
G01 X1.2736  Y0.1574  
G01 X1.2775  Y0.1632  
G01 X1.2801  Y0.1696  
G01 X1.2815  Y0.1765  
G01 X1.2815  Y0.1835  
G01 X1.2801  Y0.1904  
G01 X1.2775  Y0.1968  
G01 X1.2736  Y0.2026  
G01 X1.2686  Y0.2076  
G01 X1.2628  Y0.2115  
G01 X1.2564  Y0.2141  
G01 X1.2495  Y0.2155  
G00 Z0.1000  
G00 X0.7495  Y0.2155  
G01 Z-0.0070 F10    
G01 X0.6805  Y0.2155  F20    
G01 X0.6736  Y0.2141  
G01 X0.6672  Y0.2115  
G01 X0.6614  Y0.2076  
G01 X0.6564  Y0.2026  
G01 X0.6525  Y0.1968  
G01 X0.6499  Y0.1904  
G01 X0.6485  Y0.1835  
G01 X0.6485  Y0.1765  
G01 X0.6499  Y0.1696  
G01 X0.6525  Y0.1632  
G01 X0.6564  Y0.1574  
G01 X0.6614  Y0.1524  
G01 X0.6672  Y0.1485  
G01 X0.6736  Y0.1459  
G01 X0.6805  Y0.1445  
G01 X0.7495  Y0.1445  
G01 X0.7564  Y0.1459  
G01 X0.7628  Y0.1485  
G01 X0.7686  Y0.1524  
G01 X0.7736  Y0.1574  
G01 X0.7775  Y0.1632  
G01 X0.7801  Y0.1696  
G01 X0.7815  Y0.1765  
G01 X0.7815  Y0.1835  
G01 X0.7801  Y0.1904  
G01 X0.7775  Y0.1968  
G01 X0.7736  Y0.2026  
G01 X0.7686  Y0.2076  
G01 X0.7628  Y0.2115  
G01 X0.7564  Y0.2141  
G01 X0.7495  Y0.2155  
G00 Z0.1000  
G00 X2.0045  Y0.1495  
G01 Z-0.0070 F10    
G01 X2.0045  Y0.0805  F20    
G01 X2.0059  Y0.0736  
G01 X2.0085  Y0.0672  
G01 X2.0124  Y0.0614  
G01 X2.0174  Y0.0564  
G01 X2.0232  Y0.0525  
G01 X2.0296  Y0.0499  
G01 X2.0365  Y0.0485  
G01 X2.0435  Y0.0485  
G01 X2.0504  Y0.0499  
G01 X2.0568  Y0.0525  
G01 X2.0626  Y0.0564  
G01 X2.0676  Y0.0614  
G01 X2.0715  Y0.0672  
G01 X2.0741  Y0.0736  
G01 X2.0755  Y0.0805  
G01 X2.0755  Y0.1495  
G01 X2.0741  Y0.1564  
G01 X2.0715  Y0.1628  
G01 X2.0676  Y0.1686  
G01 X2.0626  Y0.1736  
G01 X2.0568  Y0.1775  
G01 X2.0504  Y0.1801  
G01 X2.0435  Y0.1815  
G01 X2.0365  Y0.1815  
G01 X2.0296  Y0.1801  
G01 X2.0232  Y0.1775  
G01 X2.0174  Y0.1736  
G01 X2.0124  Y0.1686  
G01 X2.0085  Y0.1628  
G01 X2.0059  Y0.1564  
G01 X2.0045  Y0.1495  
G00 Z0.1000  
G00 X2.1045  Y0.1495  
G01 Z-0.0070 F10    
G01 X2.1045  Y0.0805  F20    
G01 X2.1059  Y0.0736  
G01 X2.1085  Y0.0672  
G01 X2.1124  Y0.0614  
G01 X2.1174  Y0.0564  
G01 X2.1232  Y0.0525  
G01 X2.1296  Y0.0499  
G01 X2.1365  Y0.0485  
G01 X2.1435  Y0.0485  
G01 X2.1504  Y0.0499  
G01 X2.1568  Y0.0525  
G01 X2.1626  Y0.0564  
G01 X2.1676  Y0.0614  
G01 X2.1715  Y0.0672  
G01 X2.1741  Y0.0736  
G01 X2.1755  Y0.0805  
G01 X2.1755  Y0.1495  
G01 X2.1741  Y0.1564  
G01 X2.1715  Y0.1628  
G01 X2.1676  Y0.1686  
G01 X2.1626  Y0.1736  
G01 X2.1568  Y0.1775  
G01 X2.1504  Y0.1801  
G01 X2.1435  Y0.1815  
G01 X2.1365  Y0.1815  
G01 X2.1296  Y0.1801  
G01 X2.1232  Y0.1775  
G01 X2.1174  Y0.1736  
G01 X2.1124  Y0.1686  
G01 X2.1085  Y0.1628  
G01 X2.1059  Y0.1564  
G01 X2.1045  Y0.1495  
G00 Z0.1000  
G00 X2.2045  Y0.1495  
G01 Z-0.0070 F10    
G01 X2.2045  Y0.0805  F20    
G01 X2.2059  Y0.0736  
G01 X2.2085  Y0.0672  
G01 X2.2124  Y0.0614  
G01 X2.2174  Y0.0564  
G01 X2.2232  Y0.0525  
G01 X2.2296  Y0.0499  
G01 X2.2365  Y0.0485  
G01 X2.2435  Y0.0485  
G01 X2.2504  Y0.0499  
G01 X2.2568  Y0.0525  
G01 X2.2626  Y0.0564  
G01 X2.2676  Y0.0614  
G01 X2.2715  Y0.0672  
G01 X2.2741  Y0.0736  
G01 X2.2755  Y0.0805  
G01 X2.2755  Y0.1495  
G01 X2.2741  Y0.1564  
G01 X2.2715  Y0.1628  
G01 X2.2676  Y0.1686  
G01 X2.2626  Y0.1736  
G01 X2.2568  Y0.1775  
G01 X2.2504  Y0.1801  
G01 X2.2435  Y0.1815  
G01 X2.2365  Y0.1815  
G01 X2.2296  Y0.1801  
G01 X2.2232  Y0.1775  
G01 X2.2174  Y0.1736  
G01 X2.2124  Y0.1686  
G01 X2.2085  Y0.1628  
G01 X2.2059  Y0.1564  
G01 X2.2045  Y0.1495  
G00 Z0.1000  
G00 X2.2045  Y0.4495  
G01 Z-0.0070 F10    
G01 X2.2045  Y0.3805  F20    
G01 X2.2059  Y0.3736  
G01 X2.2085  Y0.3672  
G01 X2.2124  Y0.3614  
G01 X2.2174  Y0.3564  
G01 X2.2232  Y0.3525  
G01 X2.2296  Y0.3499  
G01 X2.2365  Y0.3485  
G01 X2.2435  Y0.3485  
G01 X2.2504  Y0.3499  
G01 X2.2568  Y0.3525  
G01 X2.2626  Y0.3564  
G01 X2.2676  Y0.3614  
G01 X2.2715  Y0.3672  
G01 X2.2741  Y0.3736  
G01 X2.2755  Y0.3805  
G01 X2.2755  Y0.4495  
G01 X2.2741  Y0.4564  
G01 X2.2715  Y0.4628  
G01 X2.2676  Y0.4686  
G01 X2.2626  Y0.4736  
G01 X2.2568  Y0.4775  
G01 X2.2504  Y0.4801  
G01 X2.2435  Y0.4815  
G01 X2.2365  Y0.4815  
G01 X2.2296  Y0.4801  
G01 X2.2232  Y0.4775  
G01 X2.2174  Y0.4736  
G01 X2.2124  Y0.4686  
G01 X2.2085  Y0.4628  
G01 X2.2059  Y0.4564  
G01 X2.2045  Y0.4495  
G00 Z0.1000  
G00 X2.1045  Y0.4495  
G01 Z-0.0070 F10    
G01 X2.1045  Y0.3805  F20    
G01 X2.1059  Y0.3736  
G01 X2.1085  Y0.3672  
G01 X2.1124  Y0.3614  
G01 X2.1174  Y0.3564  
G01 X2.1232  Y0.3525  
G01 X2.1296  Y0.3499  
G01 X2.1365  Y0.3485  
G01 X2.1435  Y0.3485  
G01 X2.1504  Y0.3499  
G01 X2.1568  Y0.3525  
G01 X2.1626  Y0.3564  
G01 X2.1676  Y0.3614  
G01 X2.1715  Y0.3672  
G01 X2.1741  Y0.3736  
G01 X2.1755  Y0.3805  
G01 X2.1755  Y0.4495  
G01 X2.1741  Y0.4564  
G01 X2.1715  Y0.4628  
G01 X2.1676  Y0.4686  
G01 X2.1626  Y0.4736  
G01 X2.1568  Y0.4775  
G01 X2.1504  Y0.4801  
G01 X2.1435  Y0.4815  
G01 X2.1365  Y0.4815  
G01 X2.1296  Y0.4801  
G01 X2.1232  Y0.4775  
G01 X2.1174  Y0.4736  
G01 X2.1124  Y0.4686  
G01 X2.1085  Y0.4628  
G01 X2.1059  Y0.4564  
G01 X2.1045  Y0.4495  
G00 Z0.1000  
G00 X2.0045  Y0.4495  
G01 Z-0.0070 F10    
G01 X2.0045  Y0.3805  F20    
G01 X2.0059  Y0.3736  
G01 X2.0085  Y0.3672  
G01 X2.0124  Y0.3614  
G01 X2.0174  Y0.3564  
G01 X2.0232  Y0.3525  
G01 X2.0296  Y0.3499  
G01 X2.0365  Y0.3485  
G01 X2.0435  Y0.3485  
G01 X2.0504  Y0.3499  
G01 X2.0568  Y0.3525  
G01 X2.0626  Y0.3564  
G01 X2.0676  Y0.3614  
G01 X2.0715  Y0.3672  
G01 X2.0741  Y0.3736  
G01 X2.0755  Y0.3805  
G01 X2.0755  Y0.4495  
G01 X2.0741  Y0.4564  
G01 X2.0715  Y0.4628  
G01 X2.0676  Y0.4686  
G01 X2.0626  Y0.4736  
G01 X2.0568  Y0.4775  
G01 X2.0504  Y0.4801  
G01 X2.0435  Y0.4815  
G01 X2.0365  Y0.4815  
G01 X2.0296  Y0.4801  
G01 X2.0232  Y0.4775  
G01 X2.0174  Y0.4736  
G01 X2.0124  Y0.4686  
G01 X2.0085  Y0.4628  
G01 X2.0059  Y0.4564  
G01 X2.0045  Y0.4495  
G00 Z0.1000  
G00 X2.4145  Y0.8424  
G01 Z-0.0070 F10    
G01 X2.4145  Y0.8876  F20    
G01 X2.3826  Y0.9195  
G01 X2.3374  Y0.9195  
G01 X2.3055  Y0.8876  
G01 X2.3055  Y0.8424  
G01 X2.3374  Y0.8105  
G01 X2.3826  Y0.8105  
G01 X2.4145  Y0.8424  
G00 Z0.1000  
G00 X2.4145  Y1.1424  
G01 Z-0.0070 F10    
G01 X2.4145  Y1.1876  F20    
G01 X2.3826  Y1.2195  
G01 X2.3374  Y1.2195  
G01 X2.3055  Y1.1876  
G01 X2.3055  Y1.1424  
G01 X2.3374  Y1.1105  
G01 X2.3826  Y1.1105  
G01 X2.4145  Y1.1424  
G00 Z0.1000  
G00 X1.0555  Y1.1403  
G01 Z-0.0070 F10    
G01 X1.0555  Y1.1697  F20    
G01 X1.0347  Y1.1905  
G01 X1.0053  Y1.1905  
G01 X0.9845  Y1.1697  
G01 X0.9845  Y1.1403  
G01 X1.0053  Y1.1195  
G01 X1.0347  Y1.1195  
G01 X1.0555  Y1.1403  
G00 Z0.1000  
G00 X1.1055  Y1.2153  
G01 Z-0.0070 F10    
G01 X1.1055  Y1.2447  F20    
G01 X1.0847  Y1.2655  
G01 X1.0553  Y1.2655  
G01 X1.0345  Y1.2447  
G01 X1.0345  Y1.2153  
G01 X1.0553  Y1.1945  
G01 X1.0847  Y1.1945  
G01 X1.1055  Y1.2153  
G00 Z0.1000  
G00 X1.1555  Y1.1403  
G01 Z-0.0070 F10    
G01 X1.1555  Y1.1697  F20    
G01 X1.1347  Y1.1905  
G01 X1.1053  Y1.1905  
G01 X1.0845  Y1.1697  
G01 X1.0845  Y1.1403  
G01 X1.1053  Y1.1195  
G01 X1.1347  Y1.1195  
G01 X1.1555  Y1.1403  
G00 Z0.1000  
G00 X0.8825  Y1.1313  
G01 Z-0.0070 F10    
G01 X0.8825  Y1.1387  F20    
G01 X0.8813  Y1.1461  
G01 X0.8790  Y1.1532  
G01 X0.8756  Y1.1599  
G01 X0.8712  Y1.1659  
G01 X0.8659  Y1.1712  
G01 X0.8599  Y1.1756  
G01 X0.8532  Y1.1790  
G01 X0.8461  Y1.1813  
G01 X0.8387  Y1.1825  
G01 X0.8313  Y1.1825  
G01 X0.8239  Y1.1813  
G01 X0.8168  Y1.1790  
G01 X0.8101  Y1.1756  
G01 X0.8041  Y1.1712  
G01 X0.7988  Y1.1659  
G01 X0.7944  Y1.1599  
G01 X0.7910  Y1.1532  
G01 X0.7887  Y1.1461  
G01 X0.7875  Y1.1387  
G01 X0.7875  Y1.1313  
G01 X0.7887  Y1.1239  
G01 X0.7910  Y1.1168  
G01 X0.7944  Y1.1101  
G01 X0.7988  Y1.1041  
G01 X0.8041  Y1.0988  
G01 X0.8101  Y1.0944  
G01 X0.8168  Y1.0910  
G01 X0.8239  Y1.0887  
G01 X0.8313  Y1.0875  
G01 X0.8387  Y1.0875  
G01 X0.8461  Y1.0887  
G01 X0.8532  Y1.0910  
G01 X0.8599  Y1.0944  
G01 X0.8659  Y1.0988  
G01 X0.8712  Y1.1041  
G01 X0.8756  Y1.1101  
G01 X0.8790  Y1.1168  
G01 X0.8813  Y1.1239  
G01 X0.8825  Y1.1313  
G00 Z0.1000  
G00 X0.8825  Y1.2153  
G01 Z-0.0070 F10    
G01 X0.8825  Y1.2547  F20    
G01 X0.8547  Y1.2825  
G01 X0.8153  Y1.2825  
G01 X0.7875  Y1.2547  
G01 X0.7875  Y1.2153  
G01 X0.8153  Y1.1875  
G01 X0.8547  Y1.1875  
G01 X0.8825  Y1.2153  
G00 Z0.1000  
G00 X1.3975  Y1.1213  
G01 Z-0.0070 F10    
G01 X1.3975  Y1.1287  F20    
G01 X1.3963  Y1.1361  
G01 X1.3940  Y1.1432  
G01 X1.3906  Y1.1499  
G01 X1.3862  Y1.1559  
G01 X1.3809  Y1.1612  
G01 X1.3749  Y1.1656  
G01 X1.3682  Y1.1690  
G01 X1.3611  Y1.1713  
G01 X1.3537  Y1.1725  
G01 X1.3463  Y1.1725  
G01 X1.3389  Y1.1713  
G01 X1.3318  Y1.1690  
G01 X1.3251  Y1.1656  
G01 X1.3191  Y1.1612  
G01 X1.3138  Y1.1559  
G01 X1.3094  Y1.1499  
G01 X1.3060  Y1.1432  
G01 X1.3037  Y1.1361  
G01 X1.3025  Y1.1287  
G01 X1.3025  Y1.1213  
G01 X1.3037  Y1.1139  
G01 X1.3060  Y1.1068  
G01 X1.3094  Y1.1001  
G01 X1.3138  Y1.0941  
G01 X1.3191  Y1.0888  
G01 X1.3251  Y1.0844  
G01 X1.3318  Y1.0810  
G01 X1.3389  Y1.0787  
G01 X1.3463  Y1.0775  
G01 X1.3537  Y1.0775  
G01 X1.3611  Y1.0787  
G01 X1.3682  Y1.0810  
G01 X1.3749  Y1.0844  
G01 X1.3809  Y1.0888  
G01 X1.3862  Y1.0941  
G01 X1.3906  Y1.1001  
G01 X1.3940  Y1.1068  
G01 X1.3963  Y1.1139  
G01 X1.3975  Y1.1213  
G00 Z0.1000  
G00 X1.3975  Y1.2053  
G01 Z-0.0070 F10    
G01 X1.3975  Y1.2447  F20    
G01 X1.3697  Y1.2725  
G01 X1.3303  Y1.2725  
G01 X1.3025  Y1.2447  
G01 X1.3025  Y1.2053  
G01 X1.3303  Y1.1775  
G01 X1.3697  Y1.1775  
G01 X1.3975  Y1.2053  
G00 Z0.1000  
G00 X1.7963  Y0.4523  
G01 Z-0.0070 F10    
G01 X1.7963  Y0.4825  F20    
G01 X2.1066  Y0.4825  
G01 X2.1098  Y0.4834  
G01 X2.1127  Y0.4850  
G01 X2.2277  Y0.6000  
G01 X2.2300  Y0.6023  
G01 X2.2316  Y0.6052  
G01 X2.2325  Y0.6084  
G01 X2.2325  Y0.6437  
G01 X2.2477  Y0.6437  
G01 X2.2494  Y0.6444  
G01 X2.2506  Y0.6456  
G01 X2.2513  Y0.6473  
G01 X2.2513  Y0.7327  
G01 X2.2506  Y0.7344  
G01 X2.2494  Y0.7356  
G01 X2.2477  Y0.7363  
G01 X2.1623  Y0.7363  
G01 X2.1606  Y0.7356  
G01 X2.1594  Y0.7344  
G01 X2.1587  Y0.7327  
G01 X2.1587  Y0.6473  
G01 X2.1594  Y0.6456  
G01 X2.1606  Y0.6444  
G01 X2.1623  Y0.6437  
G01 X2.2075  Y0.6437  
G01 X2.2075  Y0.6152  
G01 X2.0998  Y0.5075  
G01 X1.7963  Y0.5075  
G01 X1.7963  Y0.5377  
G01 X1.7956  Y0.5394  
G01 X1.7944  Y0.5406  
G01 X1.7927  Y0.5413  
G01 X1.7073  Y0.5413  
G01 X1.7056  Y0.5406  
G01 X1.7044  Y0.5394  
G01 X1.7037  Y0.5377  
G01 X1.7037  Y0.4523  
G01 X1.7044  Y0.4506  
G01 X1.7056  Y0.4494  
G01 X1.7073  Y0.4487  
G01 X1.7927  Y0.4487  
G01 X1.7944  Y0.4494  
G01 X1.7956  Y0.4506  
G01 X1.7963  Y0.4523  
G00 Z0.1000  
G00 X1.5613  Y1.1873  
G01 Z-0.0070 F10    
G01 X1.5613  Y1.2175  F20    
G01 X1.6987  Y1.2175  
G01 X1.6987  Y1.1873  
G01 X1.6994  Y1.1856  
G01 X1.7006  Y1.1844  
G01 X1.7023  Y1.1837  
G01 X1.7877  Y1.1837  
G01 X1.7894  Y1.1844  
G01 X1.7906  Y1.1856  
G01 X1.7913  Y1.1873  
G01 X1.7913  Y1.2175  
G01 X2.0448  Y1.2175  
G01 X2.0975  Y1.1648  
G01 X2.0975  Y0.9813  
G01 X2.0673  Y0.9813  
G01 X2.0656  Y0.9806  
G01 X2.0644  Y0.9794  
G01 X2.0637  Y0.9777  
G01 X2.0637  Y0.8923  
G01 X2.0644  Y0.8906  
G01 X2.0656  Y0.8894  
G01 X2.0673  Y0.8887  
G01 X2.1527  Y0.8887  
G01 X2.1544  Y0.8894  
G01 X2.1556  Y0.8906  
G01 X2.1563  Y0.8923  
G01 X2.1563  Y0.9777  
G01 X2.1556  Y0.9794  
G01 X2.1544  Y0.9806  
G01 X2.1527  Y0.9813  
G01 X2.1225  Y0.9813  
G01 X2.1225  Y1.1716  
G01 X2.1216  Y1.1748  
G01 X2.1200  Y1.1777  
G01 X2.0600  Y1.2377  
G01 X2.0577  Y1.2400  
G01 X2.0548  Y1.2416  
G01 X2.0516  Y1.2425  
G01 X1.7913  Y1.2425  
G01 X1.7913  Y1.2727  
G01 X1.7906  Y1.2744  
G01 X1.7894  Y1.2756  
G01 X1.7877  Y1.2763  
G01 X1.7023  Y1.2763  
G01 X1.7006  Y1.2756  
G01 X1.6994  Y1.2744  
G01 X1.6987  Y1.2727  
G01 X1.6987  Y1.2425  
G01 X1.5613  Y1.2425  
G01 X1.5613  Y1.2727  
G01 X1.5606  Y1.2744  
G01 X1.5594  Y1.2756  
G01 X1.5577  Y1.2763  
G01 X1.4723  Y1.2763  
G01 X1.4706  Y1.2756  
G01 X1.4694  Y1.2744  
G01 X1.4687  Y1.2727  
G01 X1.4687  Y1.1873  
G01 X1.4694  Y1.1856  
G01 X1.4706  Y1.1844  
G01 X1.4723  Y1.1837  
G01 X1.5577  Y1.1837  
G01 X1.5594  Y1.1844  
G01 X1.5606  Y1.1856  
G01 X1.5613  Y1.1873  
G00 Z0.1000  
G00 X0.4563  Y1.1473  
G01 Z-0.0070 F10    
G01 X0.4563  Y1.2327  F20    
G01 X0.4556  Y1.2344  
G01 X0.4544  Y1.2356  
G01 X0.4527  Y1.2363  
G01 X0.3673  Y1.2363  
G01 X0.3656  Y1.2356  
G01 X0.3644  Y1.2344  
G01 X0.3637  Y1.2327  
G01 X0.3637  Y1.1473  
G01 X0.3644  Y1.1456  
G01 X0.3656  Y1.1444  
G01 X0.3673  Y1.1437  
G01 X0.3925  Y1.1437  
G01 X0.3925  Y1.0684  
G01 X0.3934  Y1.0652  
G01 X0.3950  Y1.0623  
G01 X0.3973  Y1.0600  
G01 X0.4023  Y1.0550  
G01 X0.4052  Y1.0534  
G01 X0.4084  Y1.0525  
G01 X0.6337  Y1.0525  
G01 X0.6337  Y1.0223  
G01 X0.6344  Y1.0206  
G01 X0.6356  Y1.0194  
G01 X0.6373  Y1.0187  
G01 X0.7227  Y1.0187  
G01 X0.7244  Y1.0194  
G01 X0.7256  Y1.0206  
G01 X0.7263  Y1.0223  
G01 X0.7263  Y1.1077  
G01 X0.7256  Y1.1094  
G01 X0.7244  Y1.1106  
G01 X0.7227  Y1.1113  
G01 X0.6373  Y1.1113  
G01 X0.6356  Y1.1106  
G01 X0.6344  Y1.1094  
G01 X0.6337  Y1.1077  
G01 X0.6337  Y1.0775  
G01 X0.4175  Y1.0775  
G01 X0.4175  Y1.1437  
G01 X0.4527  Y1.1437  
G01 X0.4544  Y1.1444  
G01 X0.4556  Y1.1456  
G01 X0.4563  Y1.1473  
G00 Z0.1000  
G00 X1.0663  Y1.0173  
G01 Z-0.0070 F10    
G01 X1.0663  Y1.0475  F20    
G01 X1.2787  Y1.0475  
G01 X1.2787  Y0.9823  
G01 X1.2794  Y0.9806  
G01 X1.2806  Y0.9794  
G01 X1.2823  Y0.9787  
G01 X1.3677  Y0.9787  
G01 X1.3694  Y0.9794  
G01 X1.3706  Y0.9806  
G01 X1.3713  Y0.9823  
G01 X1.3713  Y1.0677  
G01 X1.3706  Y1.0694  
G01 X1.3694  Y1.0706  
G01 X1.3677  Y1.0713  
G01 X1.2954  Y1.0713  
G01 X1.2948  Y1.0716  
G01 X1.2916  Y1.0725  
G01 X1.0663  Y1.0725  
G01 X1.0663  Y1.1027  
G01 X1.0656  Y1.1044  
G01 X1.0644  Y1.1056  
G01 X1.0627  Y1.1063  
G01 X0.9773  Y1.1063  
G01 X0.9756  Y1.1056  
G01 X0.9744  Y1.1044  
G01 X0.9737  Y1.1027  
G01 X0.9737  Y1.0173  
G01 X0.9744  Y1.0156  
G01 X0.9756  Y1.0144  
G01 X0.9773  Y1.0137  
G01 X1.0627  Y1.0137  
G01 X1.0644  Y1.0144  
G01 X1.0656  Y1.0156  
G01 X1.0663  Y1.0173  
G00 Z0.1000  
G00 X1.2463  Y0.9573  
G01 Z-0.0070 F10    
G01 X1.2463  Y1.0427  F20    
G01 X1.2456  Y1.0444  
G01 X1.2444  Y1.0456  
G01 X1.2427  Y1.0463  
G01 X1.1573  Y1.0463  
G01 X1.1556  Y1.0456  
G01 X1.1544  Y1.0444  
G01 X1.1537  Y1.0427  
G01 X1.1537  Y1.0125  
G01 X0.5563  Y1.0125  
G01 X0.5563  Y1.0177  
G01 X0.5556  Y1.0194  
G01 X0.5544  Y1.0206  
G01 X0.5527  Y1.0213  
G01 X0.4673  Y1.0213  
G01 X0.4656  Y1.0206  
G01 X0.4644  Y1.0194  
G01 X0.4637  Y1.0177  
G01 X0.4637  Y0.9323  
G01 X0.4644  Y0.9306  
G01 X0.4656  Y0.9294  
G01 X0.4673  Y0.9287  
G01 X0.5527  Y0.9287  
G01 X0.5544  Y0.9294  
G01 X0.5556  Y0.9306  
G01 X0.5563  Y0.9323  
G01 X0.5563  Y0.9875  
G01 X1.1537  Y0.9875  
G01 X1.1537  Y0.9573  
G01 X1.1544  Y0.9556  
G01 X1.1556  Y0.9544  
G01 X1.1573  Y0.9537  
G01 X1.2427  Y0.9537  
G01 X1.2444  Y0.9544  
G01 X1.2456  Y0.9556  
G01 X1.2463  Y0.9573  
G00 Z0.1000  
G00 X1.4363  Y0.1373  
G01 Z-0.0070 F10    
G01 X1.4363  Y0.2227  F20    
G01 X1.4356  Y0.2244  
G01 X1.4344  Y0.2256  
G01 X1.4327  Y0.2263  
G01 X1.4025  Y0.2263  
G01 X1.4025  Y0.4337  
G01 X1.4327  Y0.4337  
G01 X1.4344  Y0.4344  
G01 X1.4356  Y0.4356  
G01 X1.4363  Y0.4373  
G01 X1.4363  Y0.5227  
G01 X1.4356  Y0.5244  
G01 X1.4344  Y0.5256  
G01 X1.4327  Y0.5263  
G01 X1.3473  Y0.5263  
G01 X1.3456  Y0.5256  
G01 X1.3444  Y0.5244  
G01 X1.3437  Y0.5227  
G01 X1.3437  Y0.4373  
G01 X1.3444  Y0.4356  
G01 X1.3456  Y0.4344  
G01 X1.3473  Y0.4337  
G01 X1.3775  Y0.4337  
G01 X1.3775  Y0.2263  
G01 X1.3473  Y0.2263  
G01 X1.3456  Y0.2256  
G01 X1.3444  Y0.2244  
G01 X1.3437  Y0.2227  
G01 X1.3437  Y0.1373  
G01 X1.3444  Y0.1356  
G01 X1.3456  Y0.1344  
G01 X1.3473  Y0.1337  
G01 X1.4327  Y0.1337  
G01 X1.4344  Y0.1344  
G01 X1.4356  Y0.1356  
G01 X1.4363  Y0.1373  
G00 Z0.1000  
G00 X0.5563  Y0.1923  
G01 Z-0.0070 F10    
G01 X0.5563  Y0.2777  F20    
G01 X0.5556  Y0.2794  
G01 X0.5544  Y0.2806  
G01 X0.5527  Y0.2813  
G01 X0.5325  Y0.2813  
G01 X0.5325  Y0.4787  
G01 X0.5627  Y0.4787  
G01 X0.5644  Y0.4794  
G01 X0.5656  Y0.4806  
G01 X0.5663  Y0.4823  
G01 X0.5663  Y0.5677  
G01 X0.5656  Y0.5694  
G01 X0.5644  Y0.5706  
G01 X0.5627  Y0.5713  
G01 X0.4773  Y0.5713  
G01 X0.4756  Y0.5706  
G01 X0.4744  Y0.5694  
G01 X0.4737  Y0.5677  
G01 X0.4737  Y0.4823  
G01 X0.4744  Y0.4806  
G01 X0.4756  Y0.4794  
G01 X0.4773  Y0.4787  
G01 X0.5075  Y0.4787  
G01 X0.5075  Y0.2813  
G01 X0.4673  Y0.2813  
G01 X0.4656  Y0.2806  
G01 X0.4644  Y0.2794  
G01 X0.4637  Y0.2777  
G01 X0.4637  Y0.1923  
G01 X0.4644  Y0.1906  
G01 X0.4656  Y0.1894  
G01 X0.4673  Y0.1887  
G01 X0.5527  Y0.1887  
G01 X0.5544  Y0.1894  
G01 X0.5556  Y0.1906  
G01 X0.5563  Y0.1923  
G00 Z0.1000  
G00 X1.0713  Y1.0425  
G01 Z-0.0070 F10    
G01 X1.1487  Y1.0425  F20    
G01 X1.1487  Y1.0175  
G01 X1.0713  Y1.0175  
G01 X1.0713  Y1.0425  
G00 Z0.1000  
G00 X0.4372  Y0.0825  
G01 Z-0.0070 F10    
G01 X0.4075  Y0.1122  F20    
G01 X0.4075  Y0.4487  
G01 X0.4325  Y0.4487  
G01 X0.4325  Y0.4322  
G01 X0.4243  Y0.4240  
G01 X0.4210  Y0.4207  
G01 X0.4187  Y0.4168  
G01 X0.4175  Y0.4123  
G01 X0.4175  Y0.1327  
G01 X0.4187  Y0.1282  
G01 X0.4210  Y0.1243  
G01 X0.4560  Y0.0893  
G01 X0.4593  Y0.0860  
G01 X0.4632  Y0.0837  
G01 X0.4677  Y0.0825  
G01 X0.9095  Y0.0825  
G01 X0.4372  Y0.0825  
G00 Z0.1000  
G00 X1.8239  Y0.0475  
G01 Z-0.0070 F10    
G01 X1.8252  Y0.0474  F20    
G01 X1.8262  Y0.0475  
G01 X1.8273  Y0.0475  
G01 X1.8285  Y0.0478  
G01 X1.8298  Y0.0480  
G01 X1.8307  Y0.0484  
G01 X1.8318  Y0.0487  
G01 X1.8328  Y0.0493  
G01 X1.8340  Y0.0498  
G01 X1.8348  Y0.0505  
G01 X1.8357  Y0.0510  
G01 X1.8366  Y0.0519  
G01 X1.8376  Y0.0527  
G01 X1.8383  Y0.0535  
G01 X1.8390  Y0.0543  
G01 X1.8396  Y0.0553  
G01 X1.9133  Y0.1535  
G01 X1.9140  Y0.1543  
G01 X1.9146  Y0.1553  
G01 X1.9154  Y0.1563  
G01 X1.9158  Y0.1573  
G01 X1.9163  Y0.1582  
G01 X1.9166  Y0.1595  
G01 X1.9171  Y0.1606  
G01 X1.9172  Y0.1617  
G01 X1.9175  Y0.1627  
G01 X1.9175  Y0.1639  
G01 X1.9176  Y0.1652  
G01 X1.9175  Y0.1662  
G01 X1.9175  Y0.2887  
G01 X1.9437  Y0.2887  
G01 X1.9472  Y0.2901  
G01 X1.9499  Y0.2928  
G01 X1.9513  Y0.2963  
G01 X1.9513  Y0.3837  
G01 X1.9499  Y0.3872  
G01 X1.9472  Y0.3899  
G01 X1.9437  Y0.3913  
G01 X1.8563  Y0.3913  
G01 X1.8528  Y0.3899  
G01 X1.8501  Y0.3872  
G01 X1.8487  Y0.3837  
G01 X1.8487  Y0.2963  
G01 X1.8501  Y0.2928  
G01 X1.8528  Y0.2901  
G01 X1.8563  Y0.2887  
G01 X1.8825  Y0.2887  
G01 X1.8825  Y0.1708  
G01 X1.8162  Y0.0825  
G01 X0.9118  Y0.0825  
G01 X0.9123  Y0.0825  
G01 X0.9140  Y0.0830  
G01 X0.9158  Y0.0833  
G01 X0.9163  Y0.0836  
G01 X0.9168  Y0.0837  
G01 X0.9183  Y0.0846  
G01 X0.9199  Y0.0854  
G01 X0.9203  Y0.0857  
G01 X0.9207  Y0.0860  
G01 X0.9220  Y0.0873  
G01 X1.0638  Y0.2137  
G01 X1.1387  Y0.2137  
G01 X1.1422  Y0.2151  
G01 X1.1449  Y0.2178  
G01 X1.1463  Y0.2213  
G01 X1.1463  Y0.3087  
G01 X1.1449  Y0.3122  
G01 X1.1422  Y0.3149  
G01 X1.1387  Y0.3163  
G01 X1.0513  Y0.3163  
G01 X1.0478  Y0.3149  
G01 X1.0451  Y0.3122  
G01 X1.0437  Y0.3087  
G01 X1.0437  Y0.2427  
G01 X0.9033  Y0.1175  
G01 X0.4772  Y0.1175  
G01 X0.4525  Y0.1422  
G01 X0.4525  Y0.4028  
G01 X0.4640  Y0.4143  
G01 X0.4663  Y0.4182  
G01 X0.4675  Y0.4227  
G01 X0.4675  Y0.5623  
G01 X0.4663  Y0.5668  
G01 X0.4640  Y0.5707  
G01 X0.4607  Y0.5740  
G01 X0.4175  Y0.6172  
G01 X0.4175  Y0.8487  
G01 X0.4437  Y0.8487  
G01 X0.4472  Y0.8501  
G01 X0.4499  Y0.8528  
G01 X0.4513  Y0.8563  
G01 X0.4513  Y0.9437  
G01 X0.4499  Y0.9472  
G01 X0.4472  Y0.9499  
G01 X0.4437  Y0.9513  
G01 X0.3563  Y0.9513  
G01 X0.3528  Y0.9499  
G01 X0.3501  Y0.9472  
G01 X0.3487  Y0.9437  
G01 X0.3487  Y0.8563  
G01 X0.3501  Y0.8528  
G01 X0.3528  Y0.8501  
G01 X0.3563  Y0.8487  
G01 X0.3825  Y0.8487  
G01 X0.3825  Y0.6077  
G01 X0.3837  Y0.6032  
G01 X0.3860  Y0.5993  
G01 X0.4325  Y0.5528  
G01 X0.4325  Y0.5513  
G01 X0.3463  Y0.5513  
G01 X0.3428  Y0.5499  
G01 X0.3401  Y0.5472  
G01 X0.3387  Y0.5437  
G01 X0.3387  Y0.4563  
G01 X0.3401  Y0.4528  
G01 X0.3428  Y0.4501  
G01 X0.3463  Y0.4487  
G01 X0.3725  Y0.4487  
G01 X0.3725  Y0.1027  
G01 X0.3737  Y0.0982  
G01 X0.3760  Y0.0943  
G01 X0.4193  Y0.0510  
G01 X0.4232  Y0.0487  
G01 X0.4277  Y0.0475  
G01 X0.4323  Y0.0475  
G01 X1.8239  Y0.0475  
G00 Z0.1000  
G00 X0.4613  Y1.1463  
G01 Z-0.0070 F10    
G01 X0.4613  Y1.2337  F20    
G01 X0.4599  Y1.2372  
G01 X0.4572  Y1.2399  
G01 X0.4537  Y1.2413  
G01 X0.3663  Y1.2413  
G01 X0.3628  Y1.2399  
G01 X0.3601  Y1.2372  
G01 X0.3587  Y1.2337  
G01 X0.3587  Y1.1463  
G01 X0.3601  Y1.1428  
G01 X0.3628  Y1.1401  
G01 X0.3663  Y1.1387  
G01 X0.3875  Y1.1387  
G01 X0.3875  Y1.0677  
G01 X0.3887  Y1.0632  
G01 X0.3910  Y1.0593  
G01 X0.3943  Y1.0560  
G01 X0.3993  Y1.0510  
G01 X0.4032  Y1.0487  
G01 X0.4077  Y1.0475  
G01 X0.6287  Y1.0475  
G01 X0.6287  Y1.0213  
G01 X0.6301  Y1.0178  
G01 X0.6304  Y1.0175  
G01 X0.5613  Y1.0175  
G01 X0.5613  Y1.0187  
G01 X0.5599  Y1.0222  
G01 X0.5572  Y1.0249  
G01 X0.5537  Y1.0263  
G01 X0.4663  Y1.0263  
G01 X0.4628  Y1.0249  
G01 X0.4601  Y1.0222  
G01 X0.4587  Y1.0187  
G01 X0.4587  Y0.9313  
G01 X0.4601  Y0.9278  
G01 X0.4628  Y0.9251  
G01 X0.4663  Y0.9237  
G01 X0.5537  Y0.9237  
G01 X0.5572  Y0.9251  
G01 X0.5599  Y0.9278  
G01 X0.5613  Y0.9313  
G01 X0.5613  Y0.9825  
G01 X1.1487  Y0.9825  
G01 X1.1487  Y0.9563  
G01 X1.1501  Y0.9528  
G01 X1.1528  Y0.9501  
G01 X1.1563  Y0.9487  
G01 X1.2437  Y0.9487  
G01 X1.2472  Y0.9501  
G01 X1.2499  Y0.9528  
G01 X1.2513  Y0.9563  
G01 X1.2513  Y1.0425  
G01 X1.2737  Y1.0425  
G01 X1.2737  Y0.9813  
G01 X1.2751  Y0.9778  
G01 X1.2778  Y0.9751  
G01 X1.2813  Y0.9737  
G01 X1.3687  Y0.9737  
G01 X1.3722  Y0.9751  
G01 X1.3749  Y0.9778  
G01 X1.3763  Y0.9813  
G01 X1.3763  Y1.0687  
G01 X1.3749  Y1.0722  
G01 X1.3722  Y1.0749  
G01 X1.3693  Y1.0761  
G01 X1.3702  Y1.0763  
G01 X1.3775  Y1.0801  
G01 X1.3842  Y1.0850  
G01 X1.3900  Y1.0908  
G01 X1.3949  Y1.0975  
G01 X1.3987  Y1.1048  
G01 X1.4012  Y1.1127  
G01 X1.4025  Y1.1209  
G01 X1.4025  Y1.1291  
G01 X1.4012  Y1.1373  
G01 X1.3987  Y1.1452  
G01 X1.3949  Y1.1525  
G01 X1.3900  Y1.1592  
G01 X1.3842  Y1.1650  
G01 X1.3775  Y1.1699  
G01 X1.3720  Y1.1727  
G01 X1.4025  Y1.2033  
G01 X1.4025  Y1.2467  
G01 X1.3717  Y1.2775  
G01 X1.3283  Y1.2775  
G01 X1.2975  Y1.2467  
G01 X1.2975  Y1.2033  
G01 X1.3280  Y1.1727  
G01 X1.3225  Y1.1699  
G01 X1.3158  Y1.1650  
G01 X1.3100  Y1.1592  
G01 X1.3051  Y1.1525  
G01 X1.3013  Y1.1452  
G01 X1.2988  Y1.1373  
G01 X1.2975  Y1.1291  
G01 X1.2975  Y1.1209  
G01 X1.2988  Y1.1127  
G01 X1.3013  Y1.1048  
G01 X1.3051  Y1.0975  
G01 X1.3100  Y1.0908  
G01 X1.3158  Y1.0850  
G01 X1.3225  Y1.0801  
G01 X1.3298  Y1.0763  
G01 X1.3300  Y1.0763  
G01 X1.2967  Y1.0763  
G01 X1.2923  Y1.0775  
G01 X1.0713  Y1.0775  
G01 X1.0713  Y1.1037  
G01 X1.0699  Y1.1072  
G01 X1.0672  Y1.1099  
G01 X1.0637  Y1.1113  
G01 X0.9763  Y1.1113  
G01 X0.9728  Y1.1099  
G01 X0.9701  Y1.1072  
G01 X0.9687  Y1.1037  
G01 X0.9687  Y1.0175  
G01 X0.7296  Y1.0175  
G01 X0.7299  Y1.0178  
G01 X0.7313  Y1.0213  
G01 X0.7313  Y1.1087  
G01 X0.7299  Y1.1122  
G01 X0.7272  Y1.1149  
G01 X0.7237  Y1.1163  
G01 X0.6363  Y1.1163  
G01 X0.6328  Y1.1149  
G01 X0.6301  Y1.1122  
G01 X0.6287  Y1.1087  
G01 X0.6287  Y1.0825  
G01 X0.4225  Y1.0825  
G01 X0.4225  Y1.1387  
G01 X0.4537  Y1.1387  
G01 X0.4572  Y1.1401  
G01 X0.4599  Y1.1428  
G01 X0.4613  Y1.1463  
G00 Z0.1000  
G00 X1.5663  Y1.1863  
G01 Z-0.0070 F10    
G01 X1.5663  Y1.2125  F20    
G01 X1.6937  Y1.2125  
G01 X1.6937  Y1.1863  
G01 X1.6951  Y1.1828  
G01 X1.6978  Y1.1801  
G01 X1.7013  Y1.1787  
G01 X1.7887  Y1.1787  
G01 X1.7922  Y1.1801  
G01 X1.7949  Y1.1828  
G01 X1.7963  Y1.1863  
G01 X1.7963  Y1.2125  
G01 X2.0428  Y1.2125  
G01 X2.0925  Y1.1628  
G01 X2.0925  Y0.9863  
G01 X2.0663  Y0.9863  
G01 X2.0628  Y0.9849  
G01 X2.0601  Y0.9822  
G01 X2.0587  Y0.9787  
G01 X2.0587  Y0.8913  
G01 X2.0601  Y0.8878  
G01 X2.0628  Y0.8851  
G01 X2.0663  Y0.8837  
G01 X2.1537  Y0.8837  
G01 X2.1572  Y0.8851  
G01 X2.1599  Y0.8878  
G01 X2.1613  Y0.8913  
G01 X2.1613  Y0.9787  
G01 X2.1599  Y0.9822  
G01 X2.1572  Y0.9849  
G01 X2.1537  Y0.9863  
G01 X2.1275  Y0.9863  
G01 X2.1275  Y1.1723  
G01 X2.1263  Y1.1768  
G01 X2.1240  Y1.1807  
G01 X2.0640  Y1.2407  
G01 X2.0607  Y1.2440  
G01 X2.0568  Y1.2463  
G01 X2.0523  Y1.2475  
G01 X1.7963  Y1.2475  
G01 X1.7963  Y1.2737  
G01 X1.7949  Y1.2772  
G01 X1.7922  Y1.2799  
G01 X1.7887  Y1.2813  
G01 X1.7013  Y1.2813  
G01 X1.6978  Y1.2799  
G01 X1.6951  Y1.2772  
G01 X1.6937  Y1.2737  
G01 X1.6937  Y1.2475  
G01 X1.5663  Y1.2475  
G01 X1.5663  Y1.2737  
G01 X1.5649  Y1.2772  
G01 X1.5622  Y1.2799  
G01 X1.5587  Y1.2813  
G01 X1.4713  Y1.2813  
G01 X1.4678  Y1.2799  
G01 X1.4651  Y1.2772  
G01 X1.4637  Y1.2737  
G01 X1.4637  Y1.1863  
G01 X1.4651  Y1.1828  
G01 X1.4678  Y1.1801  
G01 X1.4713  Y1.1787  
G01 X1.5587  Y1.1787  
G01 X1.5622  Y1.1801  
G01 X1.5649  Y1.1828  
G01 X1.5663  Y1.1863  
G00 Z0.1000  
G00 X1.8013  Y0.4513  
G01 Z-0.0070 F10    
G01 X1.8013  Y0.4775  F20    
G01 X2.0142  Y0.4775  
G01 X2.0085  Y0.4718  
G01 X2.0041  Y0.4652  
G01 X2.0011  Y0.4578  
G01 X1.9995  Y0.4500  
G01 X1.9995  Y0.3800  
G01 X2.0011  Y0.3722  
G01 X2.0041  Y0.3648  
G01 X2.0085  Y0.3582  
G01 X2.0142  Y0.3525  
G01 X2.0208  Y0.3481  
G01 X2.0282  Y0.3451  
G01 X2.0360  Y0.3435  
G01 X2.0440  Y0.3435  
G01 X2.0518  Y0.3451  
G01 X2.0592  Y0.3481  
G01 X2.0658  Y0.3525  
G01 X2.0715  Y0.3582  
G01 X2.0759  Y0.3648  
G01 X2.0789  Y0.3722  
G01 X2.0805  Y0.3800  
G01 X2.0805  Y0.4500  
G01 X2.0789  Y0.4578  
G01 X2.0759  Y0.4652  
G01 X2.0715  Y0.4718  
G01 X2.0658  Y0.4775  
G01 X2.1073  Y0.4775  
G01 X2.1118  Y0.4787  
G01 X2.1157  Y0.4810  
G01 X2.2307  Y0.5960  
G01 X2.2340  Y0.5993  
G01 X2.2363  Y0.6032  
G01 X2.2375  Y0.6077  
G01 X2.2375  Y0.6387  
G01 X2.2487  Y0.6387  
G01 X2.2522  Y0.6401  
G01 X2.2549  Y0.6428  
G01 X2.2563  Y0.6463  
G01 X2.2563  Y0.7337  
G01 X2.2549  Y0.7372  
G01 X2.2522  Y0.7399  
G01 X2.2487  Y0.7413  
G01 X2.1613  Y0.7413  
G01 X2.1578  Y0.7399  
G01 X2.1551  Y0.7372  
G01 X2.1537  Y0.7337  
G01 X2.1537  Y0.6463  
G01 X2.1551  Y0.6428  
G01 X2.1578  Y0.6401  
G01 X2.1613  Y0.6387  
G01 X2.2025  Y0.6387  
G01 X2.2025  Y0.6172  
G01 X2.0978  Y0.5125  
G01 X1.8013  Y0.5125  
G01 X1.8013  Y0.5387  
G01 X1.7999  Y0.5422  
G01 X1.7972  Y0.5449  
G01 X1.7937  Y0.5463  
G01 X1.7063  Y0.5463  
G01 X1.7028  Y0.5449  
G01 X1.7001  Y0.5422  
G01 X1.6987  Y0.5387  
G01 X1.6987  Y0.4513  
G01 X1.7001  Y0.4478  
G01 X1.7028  Y0.4451  
G01 X1.7063  Y0.4437  
G01 X1.7937  Y0.4437  
G01 X1.7972  Y0.4451  
G01 X1.7999  Y0.4478  
G01 X1.8013  Y0.4513  
G00 Z0.1000  
G00 X0.8875  Y1.1309  
G01 Z-0.0070 F10    
G01 X0.8875  Y1.1391  F20    
G01 X0.8862  Y1.1473  
G01 X0.8837  Y1.1552  
G01 X0.8799  Y1.1625  
G01 X0.8750  Y1.1692  
G01 X0.8692  Y1.1750  
G01 X0.8625  Y1.1799  
G01 X0.8570  Y1.1827  
G01 X0.8875  Y1.2133  
G01 X0.8875  Y1.2567  
G01 X0.8567  Y1.2875  
G01 X0.8133  Y1.2875  
G01 X0.7825  Y1.2567  
G01 X0.7825  Y1.2133  
G01 X0.8130  Y1.1827  
G01 X0.8075  Y1.1799  
G01 X0.8008  Y1.1750  
G01 X0.7950  Y1.1692  
G01 X0.7901  Y1.1625  
G01 X0.7863  Y1.1552  
G01 X0.7838  Y1.1473  
G01 X0.7825  Y1.1391  
G01 X0.7825  Y1.1309  
G01 X0.7838  Y1.1227  
G01 X0.7863  Y1.1148  
G01 X0.7901  Y1.1075  
G01 X0.7950  Y1.1008  
G01 X0.8008  Y1.0950  
G01 X0.8075  Y1.0901  
G01 X0.8148  Y1.0863  
G01 X0.8227  Y1.0838  
G01 X0.8309  Y1.0825  
G01 X0.8391  Y1.0825  
G01 X0.8473  Y1.0838  
G01 X0.8552  Y1.0863  
G01 X0.8625  Y1.0901  
G01 X0.8692  Y1.0950  
G01 X0.8750  Y1.1008  
G01 X0.8799  Y1.1075  
G01 X0.8837  Y1.1148  
G01 X0.8862  Y1.1227  
G01 X0.8875  Y1.1309  
G00 Z0.1000  
G00 X1.1605  Y1.1382  
G01 Z-0.0070 F10    
G01 X1.1605  Y1.1718  F20    
G01 X1.1368  Y1.1955  
G01 X1.1032  Y1.1955  
G01 X1.0795  Y1.1718  
G01 X1.0795  Y1.1382  
G01 X1.1032  Y1.1145  
G01 X1.1368  Y1.1145  
G01 X1.1605  Y1.1382  
G00 Z0.1000  
G00 X1.0605  Y1.1382  
G01 Z-0.0070 F10    
G01 X1.0605  Y1.1718  F20    
G01 X1.0368  Y1.1955  
G01 X1.0032  Y1.1955  
G01 X0.9795  Y1.1718  
G01 X0.9795  Y1.1382  
G01 X1.0032  Y1.1145  
G01 X1.0368  Y1.1145  
G01 X1.0605  Y1.1382  
G00 Z0.1000  
G00 X2.4195  Y1.1404  
G01 Z-0.0070 F10    
G01 X2.4195  Y1.1896  F20    
G01 X2.3846  Y1.2245  
G01 X2.3354  Y1.2245  
G01 X2.3005  Y1.1896  
G01 X2.3005  Y1.1404  
G01 X2.3354  Y1.1055  
G01 X2.3846  Y1.1055  
G01 X2.4195  Y1.1404  
G00 Z0.1000  
G00 X2.4195  Y0.8404  
G01 Z-0.0070 F10    
G01 X2.4195  Y0.8896  F20    
G01 X2.3846  Y0.9245  
G01 X2.3354  Y0.9245  
G01 X2.3005  Y0.8896  
G01 X2.3005  Y0.8404  
G01 X2.3354  Y0.8055  
G01 X2.3846  Y0.8055  
G01 X2.4195  Y0.8404  
G00 Z0.1000  
G00 X2.0995  Y0.4500  
G01 Z-0.0070 F10    
G01 X2.0995  Y0.3800  F20    
G01 X2.1011  Y0.3722  
G01 X2.1041  Y0.3648  
G01 X2.1085  Y0.3582  
G01 X2.1142  Y0.3525  
G01 X2.1208  Y0.3481  
G01 X2.1282  Y0.3451  
G01 X2.1360  Y0.3435  
G01 X2.1440  Y0.3435  
G01 X2.1518  Y0.3451  
G01 X2.1592  Y0.3481  
G01 X2.1658  Y0.3525  
G01 X2.1715  Y0.3582  
G01 X2.1759  Y0.3648  
G01 X2.1789  Y0.3722  
G01 X2.1805  Y0.3800  
G01 X2.1805  Y0.4500  
G01 X2.1789  Y0.4578  
G01 X2.1759  Y0.4652  
G01 X2.1715  Y0.4718  
G01 X2.1658  Y0.4775  
G01 X2.1592  Y0.4819  
G01 X2.1518  Y0.4849  
G01 X2.1440  Y0.4865  
G01 X2.1360  Y0.4865  
G01 X2.1282  Y0.4849  
G01 X2.1208  Y0.4819  
G01 X2.1142  Y0.4775  
G01 X2.1085  Y0.4718  
G01 X2.1041  Y0.4652  
G01 X2.1011  Y0.4578  
G01 X2.0995  Y0.4500  
G00 Z0.1000  
G00 X2.1995  Y0.4500  
G01 Z-0.0070 F10    
G01 X2.1995  Y0.3800  F20    
G01 X2.2011  Y0.3722  
G01 X2.2041  Y0.3648  
G01 X2.2085  Y0.3582  
G01 X2.2142  Y0.3525  
G01 X2.2208  Y0.3481  
G01 X2.2282  Y0.3451  
G01 X2.2360  Y0.3435  
G01 X2.2440  Y0.3435  
G01 X2.2518  Y0.3451  
G01 X2.2592  Y0.3481  
G01 X2.2658  Y0.3525  
G01 X2.2715  Y0.3582  
G01 X2.2759  Y0.3648  
G01 X2.2789  Y0.3722  
G01 X2.2805  Y0.3800  
G01 X2.2805  Y0.4500  
G01 X2.2789  Y0.4578  
G01 X2.2759  Y0.4652  
G01 X2.2715  Y0.4718  
G01 X2.2658  Y0.4775  
G01 X2.2592  Y0.4819  
G01 X2.2518  Y0.4849  
G01 X2.2440  Y0.4865  
G01 X2.2360  Y0.4865  
G01 X2.2282  Y0.4849  
G01 X2.2208  Y0.4819  
G01 X2.2142  Y0.4775  
G01 X2.2085  Y0.4718  
G01 X2.2041  Y0.4652  
G01 X2.2011  Y0.4578  
G01 X2.1995  Y0.4500  
G00 Z0.1000  
G00 X2.1995  Y0.1500  
G01 Z-0.0070 F10    
G01 X2.1995  Y0.0800  F20    
G01 X2.2011  Y0.0722  
G01 X2.2041  Y0.0648  
G01 X2.2085  Y0.0582  
G01 X2.2142  Y0.0525  
G01 X2.2208  Y0.0481  
G01 X2.2282  Y0.0451  
G01 X2.2360  Y0.0435  
G01 X2.2440  Y0.0435  
G01 X2.2518  Y0.0451  
G01 X2.2592  Y0.0481  
G01 X2.2658  Y0.0525  
G01 X2.2715  Y0.0582  
G01 X2.2759  Y0.0648  
G01 X2.2789  Y0.0722  
G01 X2.2805  Y0.0800  
G01 X2.2805  Y0.1500  
G01 X2.2789  Y0.1578  
G01 X2.2759  Y0.1652  
G01 X2.2715  Y0.1718  
G01 X2.2658  Y0.1775  
G01 X2.2592  Y0.1819  
G01 X2.2518  Y0.1849  
G01 X2.2440  Y0.1865  
G01 X2.2360  Y0.1865  
G01 X2.2282  Y0.1849  
G01 X2.2208  Y0.1819  
G01 X2.2142  Y0.1775  
G01 X2.2085  Y0.1718  
G01 X2.2041  Y0.1652  
G01 X2.2011  Y0.1578  
G01 X2.1995  Y0.1500  
G00 Z0.1000  
G00 X2.0995  Y0.1500  
G01 Z-0.0070 F10    
G01 X2.0995  Y0.0800  F20    
G01 X2.1011  Y0.0722  
G01 X2.1041  Y0.0648  
G01 X2.1085  Y0.0582  
G01 X2.1142  Y0.0525  
G01 X2.1208  Y0.0481  
G01 X2.1282  Y0.0451  
G01 X2.1360  Y0.0435  
G01 X2.1440  Y0.0435  
G01 X2.1518  Y0.0451  
G01 X2.1592  Y0.0481  
G01 X2.1658  Y0.0525  
G01 X2.1715  Y0.0582  
G01 X2.1759  Y0.0648  
G01 X2.1789  Y0.0722  
G01 X2.1805  Y0.0800  
G01 X2.1805  Y0.1500  
G01 X2.1789  Y0.1578  
G01 X2.1759  Y0.1652  
G01 X2.1715  Y0.1718  
G01 X2.1658  Y0.1775  
G01 X2.1592  Y0.1819  
G01 X2.1518  Y0.1849  
G01 X2.1440  Y0.1865  
G01 X2.1360  Y0.1865  
G01 X2.1282  Y0.1849  
G01 X2.1208  Y0.1819  
G01 X2.1142  Y0.1775  
G01 X2.1085  Y0.1718  
G01 X2.1041  Y0.1652  
G01 X2.1011  Y0.1578  
G01 X2.0995  Y0.1500  
G00 Z0.1000  
G00 X1.9995  Y0.1500  
G01 Z-0.0070 F10    
G01 X1.9995  Y0.0800  F20    
G01 X2.0011  Y0.0722  
G01 X2.0041  Y0.0648  
G01 X2.0085  Y0.0582  
G01 X2.0142  Y0.0525  
G01 X2.0208  Y0.0481  
G01 X2.0282  Y0.0451  
G01 X2.0360  Y0.0435  
G01 X2.0440  Y0.0435  
G01 X2.0518  Y0.0451  
G01 X2.0592  Y0.0481  
G01 X2.0658  Y0.0525  
G01 X2.0715  Y0.0582  
G01 X2.0759  Y0.0648  
G01 X2.0789  Y0.0722  
G01 X2.0805  Y0.0800  
G01 X2.0805  Y0.1500  
G01 X2.0789  Y0.1578  
G01 X2.0759  Y0.1652  
G01 X2.0715  Y0.1718  
G01 X2.0658  Y0.1775  
G01 X2.0592  Y0.1819  
G01 X2.0518  Y0.1849  
G01 X2.0440  Y0.1865  
G01 X2.0360  Y0.1865  
G01 X2.0282  Y0.1849  
G01 X2.0208  Y0.1819  
G01 X2.0142  Y0.1775  
G01 X2.0085  Y0.1718  
G01 X2.0041  Y0.1652  
G01 X2.0011  Y0.1578  
G01 X1.9995  Y0.1500  
G00 Z0.1000  
G00 X0.7500  Y0.2205  
G01 Z-0.0070 F10    
G01 X0.6800  Y0.2205  F20    
G01 X0.6722  Y0.2189  
G01 X0.6648  Y0.2159  
G01 X0.6582  Y0.2115  
G01 X0.6525  Y0.2058  
G01 X0.6481  Y0.1992  
G01 X0.6451  Y0.1918  
G01 X0.6435  Y0.1840  
G01 X0.6435  Y0.1760  
G01 X0.6451  Y0.1682  
G01 X0.6481  Y0.1608  
G01 X0.6525  Y0.1542  
G01 X0.6582  Y0.1485  
G01 X0.6648  Y0.1441  
G01 X0.6722  Y0.1411  
G01 X0.6800  Y0.1395  
G01 X0.7500  Y0.1395  
G01 X0.7578  Y0.1411  
G01 X0.7652  Y0.1441  
G01 X0.7718  Y0.1485  
G01 X0.7775  Y0.1542  
G01 X0.7819  Y0.1608  
G01 X0.7849  Y0.1682  
G01 X0.7865  Y0.1760  
G01 X0.7865  Y0.1840  
G01 X0.7849  Y0.1918  
G01 X0.7819  Y0.1992  
G01 X0.7775  Y0.2058  
G01 X0.7718  Y0.2115  
G01 X0.7652  Y0.2159  
G01 X0.7578  Y0.2189  
G01 X0.7500  Y0.2205  
G00 Z0.1000  
G00 X1.2500  Y0.2205  
G01 Z-0.0070 F10    
G01 X1.1800  Y0.2205  F20    
G01 X1.1722  Y0.2189  
G01 X1.1648  Y0.2159  
G01 X1.1582  Y0.2115  
G01 X1.1525  Y0.2058  
G01 X1.1481  Y0.1992  
G01 X1.1451  Y0.1918  
G01 X1.1435  Y0.1840  
G01 X1.1435  Y0.1760  
G01 X1.1451  Y0.1682  
G01 X1.1481  Y0.1608  
G01 X1.1525  Y0.1542  
G01 X1.1582  Y0.1485  
G01 X1.1648  Y0.1441  
G01 X1.1722  Y0.1411  
G01 X1.1800  Y0.1395  
G01 X1.2500  Y0.1395  
G01 X1.2578  Y0.1411  
G01 X1.2652  Y0.1441  
G01 X1.2718  Y0.1485  
G01 X1.2775  Y0.1542  
G01 X1.2819  Y0.1608  
G01 X1.2849  Y0.1682  
G01 X1.2865  Y0.1760  
G01 X1.2865  Y0.1840  
G01 X1.2849  Y0.1918  
G01 X1.2819  Y0.1992  
G01 X1.2775  Y0.2058  
G01 X1.2718  Y0.2115  
G01 X1.2652  Y0.2159  
G01 X1.2578  Y0.2189  
G01 X1.2500  Y0.2205  
G00 Z0.1000  
G00 X0.9500  Y0.3205  
G01 Z-0.0070 F10    
G01 X0.8800  Y0.3205  F20    
G01 X0.8722  Y0.3189  
G01 X0.8648  Y0.3159  
G01 X0.8582  Y0.3115  
G01 X0.8525  Y0.3058  
G01 X0.8481  Y0.2992  
G01 X0.8451  Y0.2918  
G01 X0.8435  Y0.2840  
G01 X0.8435  Y0.2760  
G01 X0.8451  Y0.2682  
G01 X0.8481  Y0.2608  
G01 X0.8525  Y0.2542  
G01 X0.8582  Y0.2485  
G01 X0.8648  Y0.2441  
G01 X0.8722  Y0.2411  
G01 X0.8800  Y0.2395  
G01 X0.9500  Y0.2395  
G01 X0.9578  Y0.2411  
G01 X0.9652  Y0.2441  
G01 X0.9718  Y0.2485  
G01 X0.9775  Y0.2542  
G01 X0.9819  Y0.2608  
G01 X0.9849  Y0.2682  
G01 X0.9865  Y0.2760  
G01 X0.9865  Y0.2840  
G01 X0.9849  Y0.2918  
G01 X0.9819  Y0.2992  
G01 X0.9775  Y0.3058  
G01 X0.9718  Y0.3115  
G01 X0.9652  Y0.3159  
G01 X0.9578  Y0.3189  
G01 X0.9500  Y0.3205  
G00 Z0.1000  
G00 X0.2345  Y0.3816  
G01 Z-0.0070 F10    
G01 X0.2345  Y0.4184  F20    
G01 X0.2084  Y0.4445  
G01 X0.1716  Y0.4445  
G01 X0.1455  Y0.4184  
G01 X0.1455  Y0.3816  
G01 X0.1716  Y0.3555  
G01 X0.2084  Y0.3555  
G01 X0.2345  Y0.3816  
G00 Z0.1000  
G00 X0.3345  Y0.3816  
G01 Z-0.0070 F10    
G01 X0.3345  Y0.4184  F20    
G01 X0.3084  Y0.4445  
G01 X0.2716  Y0.4445  
G01 X0.2455  Y0.4184  
G01 X0.2455  Y0.3816  
G01 X0.2716  Y0.3555  
G01 X0.3084  Y0.3555  
G01 X0.3345  Y0.3816  
G00 Z0.1000  
G00 X0.2345  Y0.4816  
G01 Z-0.0070 F10    
G01 X0.2345  Y0.5184  F20    
G01 X0.2084  Y0.5445  
G01 X0.1716  Y0.5445  
G01 X0.1455  Y0.5184  
G01 X0.1455  Y0.4816  
G01 X0.1716  Y0.4555  
G01 X0.2084  Y0.4555  
G01 X0.2345  Y0.4816  
G00 Z0.1000  
G00 X0.2345  Y0.5816  
G01 Z-0.0070 F10    
G01 X0.2345  Y0.6184  F20    
G01 X0.2084  Y0.6445  
G01 X0.1716  Y0.6445  
G01 X0.1455  Y0.6184  
G01 X0.1455  Y0.5816  
G01 X0.1716  Y0.5555  
G01 X0.2084  Y0.5555  
G01 X0.2345  Y0.5816  
G00 Z0.1000  
G00 X0.2345  Y0.6816  
G01 Z-0.0070 F10    
G01 X0.2345  Y0.7184  F20    
G01 X0.2084  Y0.7445  
G01 X0.1716  Y0.7445  
G01 X0.1455  Y0.7184  
G01 X0.1455  Y0.6816  
G01 X0.1716  Y0.6555  
G01 X0.2084  Y0.6555  
G01 X0.2345  Y0.6816  
G00 Z0.1000  
G00 X0.2345  Y0.7816  
G01 Z-0.0070 F10    
G01 X0.2345  Y0.8184  F20    
G01 X0.2084  Y0.8445  
G01 X0.1716  Y0.8445  
G01 X0.1455  Y0.8184  
G01 X0.1455  Y0.7816  
G01 X0.1716  Y0.7555  
G01 X0.2084  Y0.7555  
G01 X0.2345  Y0.7816  
G00 Z0.1000  
G00 X0.2345  Y0.8816  
G01 Z-0.0070 F10    
G01 X0.2345  Y0.9184  F20    
G01 X0.2084  Y0.9445  
G01 X0.1716  Y0.9445  
G01 X0.1455  Y0.9184  
G01 X0.1455  Y0.8816  
G01 X0.1716  Y0.8555  
G01 X0.2084  Y0.8555  
G01 X0.2345  Y0.8816  
G00 Z0.1000  
G00 X0.2345  Y0.9816  
G01 Z-0.0070 F10    
G01 X0.2345  Y1.0184  F20    
G01 X0.2084  Y1.0445  
G01 X0.1716  Y1.0445  
G01 X0.1455  Y1.0184  
G01 X0.1455  Y0.9816  
G01 X0.1716  Y0.9555  
G01 X0.2084  Y0.9555  
G01 X0.2345  Y0.9816  
G00 Z0.1000  
G00 X0.3345  Y0.4816  
G01 Z-0.0070 F10    
G01 X0.3345  Y0.5184  F20    
G01 X0.3084  Y0.5445  
G01 X0.2716  Y0.5445  
G01 X0.2455  Y0.5184  
G01 X0.2455  Y0.4816  
G01 X0.2716  Y0.4555  
G01 X0.3084  Y0.4555  
G01 X0.3345  Y0.4816  
G00 Z0.1000  
G00 X0.3345  Y0.5816  
G01 Z-0.0070 F10    
G01 X0.3345  Y0.6184  F20    
G01 X0.3084  Y0.6445  
G01 X0.2716  Y0.6445  
G01 X0.2455  Y0.6184  
G01 X0.2455  Y0.5816  
G01 X0.2716  Y0.5555  
G01 X0.3084  Y0.5555  
G01 X0.3345  Y0.5816  
G00 Z0.1000  
G00 X0.3345  Y0.6816  
G01 Z-0.0070 F10    
G01 X0.3345  Y0.7184  F20    
G01 X0.3084  Y0.7445  
G01 X0.2716  Y0.7445  
G01 X0.2455  Y0.7184  
G01 X0.2455  Y0.6816  
G01 X0.2716  Y0.6555  
G01 X0.3084  Y0.6555  
G01 X0.3345  Y0.6816  
G00 Z0.1000  
G00 X0.3345  Y0.7816  
G01 Z-0.0070 F10    
G01 X0.3345  Y0.8184  F20    
G01 X0.3084  Y0.8445  
G01 X0.2716  Y0.8445  
G01 X0.2455  Y0.8184  
G01 X0.2455  Y0.7816  
G01 X0.2716  Y0.7555  
G01 X0.3084  Y0.7555  
G01 X0.3345  Y0.7816  
G00 Z0.1000  
G00 X0.3345  Y0.8816  
G01 Z-0.0070 F10    
G01 X0.3345  Y0.9184  F20    
G01 X0.3084  Y0.9445  
G01 X0.2716  Y0.9445  
G01 X0.2455  Y0.9184  
G01 X0.2455  Y0.8816  
G01 X0.2716  Y0.8555  
G01 X0.3084  Y0.8555  
G01 X0.3345  Y0.8816  
G00 Z0.1000  
G00 X0.3345  Y0.9816  
G01 Z-0.0070 F10    
G01 X0.3345  Y1.0184  F20    
G01 X0.3084  Y1.0445  
G01 X0.2716  Y1.0445  
G01 X0.2455  Y1.0184  
G01 X0.2455  Y0.9816  
G01 X0.2716  Y0.9555  
G01 X0.3084  Y0.9555  
G01 X0.3345  Y0.9816  
G00 Z0.1000  
G00 X0.8026  Y0.7772  
G01 Z-0.0070 F10    
G01 X0.8056  Y0.7699  F20    
G01 X0.8100  Y0.7632  
G01 X0.8157  Y0.7576  
G01 X0.8223  Y0.7532  
G01 X0.8297  Y0.7501  
G01 X0.8375  Y0.7486  
G01 X0.8455  Y0.7486  
G01 X0.8533  Y0.7501  
G01 X0.8607  Y0.7532  
G01 X0.8673  Y0.7576  
G01 X0.8730  Y0.7632  
G01 X0.8774  Y0.7699  
G01 X0.8804  Y0.7772  
G01 X0.8809  Y0.7794  
G01 X0.8813  Y0.7772  
G01 X0.8843  Y0.7699  
G01 X0.8888  Y0.7632  
G01 X0.8944  Y0.7576  
G01 X0.9011  Y0.7532  
G01 X0.9084  Y0.7501  
G01 X0.9162  Y0.7486  
G01 X0.9242  Y0.7486  
G01 X0.9320  Y0.7501  
G01 X0.9394  Y0.7532  
G01 X0.9461  Y0.7576  
G01 X0.9517  Y0.7632  
G01 X0.9561  Y0.7699  
G01 X0.9592  Y0.7772  
G01 X0.9607  Y0.7851  
G01 X0.9607  Y0.8550  
G01 X0.9592  Y0.8629  
G01 X0.9561  Y0.8702  
G01 X0.9517  Y0.8769  
G01 X0.9461  Y0.8825  
G01 X0.9394  Y0.8869  
G01 X0.9320  Y0.8900  
G01 X0.9242  Y0.8916  
G01 X0.9162  Y0.8916  
G01 X0.9084  Y0.8900  
G01 X0.9011  Y0.8869  
G01 X0.8944  Y0.8825  
G01 X0.8888  Y0.8769  
G01 X0.8843  Y0.8702  
G01 X0.8813  Y0.8629  
G01 X0.8809  Y0.8607  
G01 X0.8804  Y0.8629  
G01 X0.8774  Y0.8702  
G01 X0.8730  Y0.8769  
G01 X0.8673  Y0.8825  
G01 X0.8607  Y0.8869  
G01 X0.8533  Y0.8900  
G01 X0.8455  Y0.8916  
G01 X0.8375  Y0.8916  
G01 X0.8297  Y0.8900  
G01 X0.8223  Y0.8869  
G01 X0.8157  Y0.8825  
G01 X0.8100  Y0.8769  
G01 X0.8056  Y0.8702  
G01 X0.8026  Y0.8629  
G01 X0.8021  Y0.8607  
G01 X0.8017  Y0.8629  
G01 X0.7986  Y0.8702  
G01 X0.7942  Y0.8769  
G01 X0.7886  Y0.8825  
G01 X0.7819  Y0.8869  
G01 X0.7746  Y0.8900  
G01 X0.7667  Y0.8916  
G01 X0.7588  Y0.8916  
G01 X0.7509  Y0.8900  
G01 X0.7436  Y0.8869  
G01 X0.7369  Y0.8825  
G01 X0.7313  Y0.8769  
G01 X0.7269  Y0.8702  
G01 X0.7238  Y0.8629  
G01 X0.7223  Y0.8550  
G01 X0.7223  Y0.7851  
G01 X0.7238  Y0.7772  
G01 X0.7269  Y0.7699  
G01 X0.7313  Y0.7632  
G01 X0.7369  Y0.7576  
G01 X0.7436  Y0.7532  
G01 X0.7509  Y0.7501  
G01 X0.7588  Y0.7486  
G01 X0.7667  Y0.7486  
G01 X0.7746  Y0.7501  
G01 X0.7819  Y0.7532  
G01 X0.7886  Y0.7576  
G01 X0.7942  Y0.7632  
G01 X0.7986  Y0.7699  
G01 X0.8017  Y0.7772  
G01 X0.8021  Y0.7794  
G01 X0.8026  Y0.7772  
G00 Z0.1000  
G00 X0.8411  Y0.6828  
G01 Z-0.0070 F10    
G01 X0.8380  Y0.6901  F20    
G01 X0.8336  Y0.6968  
G01 X0.8279  Y0.7024  
G01 X0.8213  Y0.7068  
G01 X0.8139  Y0.7099  
G01 X0.8061  Y0.7114  
G01 X0.7981  Y0.7114  
G01 X0.7903  Y0.7099  
G01 X0.7829  Y0.7068  
G01 X0.7763  Y0.7024  
G01 X0.7707  Y0.6968  
G01 X0.7662  Y0.6901  
G01 X0.7632  Y0.6828  
G01 X0.7628  Y0.6806  
G01 X0.7623  Y0.6828  
G01 X0.7593  Y0.6901  
G01 X0.7548  Y0.6968  
G01 X0.7492  Y0.7024  
G01 X0.7426  Y0.7068  
G01 X0.7352  Y0.7099  
G01 X0.7274  Y0.7114  
G01 X0.7194  Y0.7114  
G01 X0.7116  Y0.7099  
G01 X0.7042  Y0.7068  
G01 X0.6976  Y0.7024  
G01 X0.6919  Y0.6968  
G01 X0.6875  Y0.6901  
G01 X0.6844  Y0.6828  
G01 X0.6829  Y0.6749  
G01 X0.6829  Y0.6050  
G01 X0.6844  Y0.5971  
G01 X0.6875  Y0.5898  
G01 X0.6919  Y0.5831  
G01 X0.6976  Y0.5775  
G01 X0.7042  Y0.5731  
G01 X0.7116  Y0.5700  
G01 X0.7194  Y0.5684  
G01 X0.7274  Y0.5684  
G01 X0.7352  Y0.5700  
G01 X0.7426  Y0.5731  
G01 X0.7492  Y0.5775  
G01 X0.7548  Y0.5831  
G01 X0.7593  Y0.5898  
G01 X0.7623  Y0.5971  
G01 X0.7628  Y0.5993  
G01 X0.7632  Y0.5971  
G01 X0.7662  Y0.5898  
G01 X0.7707  Y0.5831  
G01 X0.7763  Y0.5775  
G01 X0.7829  Y0.5731  
G01 X0.7903  Y0.5700  
G01 X0.7981  Y0.5684  
G01 X0.8061  Y0.5684  
G01 X0.8139  Y0.5700  
G01 X0.8213  Y0.5731  
G01 X0.8279  Y0.5775  
G01 X0.8336  Y0.5831  
G01 X0.8380  Y0.5898  
G01 X0.8411  Y0.5971  
G01 X0.8415  Y0.5993  
G01 X0.8419  Y0.5971  
G01 X0.8450  Y0.5898  
G01 X0.8494  Y0.5831  
G01 X0.8550  Y0.5775  
G01 X0.8617  Y0.5731  
G01 X0.8691  Y0.5700  
G01 X0.8769  Y0.5684  
G01 X0.8849  Y0.5684  
G01 X0.8927  Y0.5700  
G01 X0.9001  Y0.5731  
G01 X0.9067  Y0.5775  
G01 X0.9123  Y0.5831  
G01 X0.9168  Y0.5898  
G01 X0.9198  Y0.5971  
G01 X0.9214  Y0.6050  
G01 X0.9214  Y0.6749  
G01 X0.9198  Y0.6828  
G01 X0.9168  Y0.6901  
G01 X0.9123  Y0.6968  
G01 X0.9067  Y0.7024  
G01 X0.9001  Y0.7068  
G01 X0.8927  Y0.7099  
G01 X0.8849  Y0.7114  
G01 X0.8769  Y0.7114  
G01 X0.8691  Y0.7099  
G01 X0.8617  Y0.7068  
G01 X0.8550  Y0.7024  
G01 X0.8494  Y0.6968  
G01 X0.8450  Y0.6901  
G01 X0.8419  Y0.6828  
G01 X0.8415  Y0.6806  
G01 X0.8411  Y0.6828  
G00 Z0.1000  
G00 X1.1105  Y1.2132  
G01 Z-0.0070 F10    
G01 X1.1105  Y1.2468  F20    
G01 X1.0868  Y1.2705  
G01 X1.0532  Y1.2705  
G01 X1.0295  Y1.2468  
G01 X1.0295  Y1.2132  
G01 X1.0532  Y1.1895  
G01 X1.0868  Y1.1895  
G01 X1.1105  Y1.2132  
G00 Z0.1000  
G00 X1.4413  Y0.1363  
G01 Z-0.0070 F10    
G01 X1.4413  Y0.2237  F20    
G01 X1.4399  Y0.2272  
G01 X1.4372  Y0.2299  
G01 X1.4337  Y0.2313  
G01 X1.4075  Y0.2313  
G01 X1.4075  Y0.4287  
G01 X1.4337  Y0.4287  
G01 X1.4372  Y0.4301  
G01 X1.4399  Y0.4328  
G01 X1.4413  Y0.4363  
G01 X1.4413  Y0.5237  
G01 X1.4399  Y0.5272  
G01 X1.4372  Y0.5299  
G01 X1.4337  Y0.5313  
G01 X1.3463  Y0.5313  
G01 X1.3428  Y0.5299  
G01 X1.3401  Y0.5272  
G01 X1.3387  Y0.5237  
G01 X1.3387  Y0.4363  
G01 X1.3401  Y0.4328  
G01 X1.3428  Y0.4301  
G01 X1.3463  Y0.4287  
G01 X1.3725  Y0.4287  
G01 X1.3725  Y0.2313  
G01 X1.3463  Y0.2313  
G01 X1.3428  Y0.2299  
G01 X1.3401  Y0.2272  
G01 X1.3387  Y0.2237  
G01 X1.3387  Y0.1363  
G01 X1.3401  Y0.1328  
G01 X1.3428  Y0.1301  
G01 X1.3463  Y0.1287  
G01 X1.4337  Y0.1287  
G01 X1.4372  Y0.1301  
G01 X1.4399  Y0.1328  
G01 X1.4413  Y0.1363  
G00 Z0.1000  
G00 X0.5613  Y0.1913  
G01 Z-0.0070 F10    
G01 X0.5613  Y0.2787  F20    
G01 X0.5599  Y0.2822  
G01 X0.5572  Y0.2849  
G01 X0.5537  Y0.2863  
G01 X0.5375  Y0.2863  
G01 X0.5375  Y0.4737  
G01 X0.5637  Y0.4737  
G01 X0.5672  Y0.4751  
G01 X0.5699  Y0.4778  
G01 X0.5713  Y0.4813  
G01 X0.5713  Y0.5687  
G01 X0.5699  Y0.5722  
G01 X0.5672  Y0.5749  
G01 X0.5637  Y0.5763  
G01 X0.4763  Y0.5763  
G01 X0.4728  Y0.5749  
G01 X0.4701  Y0.5722  
G01 X0.4687  Y0.5687  
G01 X0.4687  Y0.4813  
G01 X0.4701  Y0.4778  
G01 X0.4728  Y0.4751  
G01 X0.4763  Y0.4737  
G01 X0.5025  Y0.4737  
G01 X0.5025  Y0.2863  
G01 X0.4663  Y0.2863  
G01 X0.4628  Y0.2849  
G01 X0.4601  Y0.2822  
G01 X0.4587  Y0.2787  
G01 X0.4587  Y0.1913  
G01 X0.4601  Y0.1878  
G01 X0.4628  Y0.1851  
G01 X0.4663  Y0.1837  
G01 X0.5537  Y0.1837  
G01 X0.5572  Y0.1851  
G01 X0.5599  Y0.1878  
G01 X0.5613  Y0.1913  
G00 Z0.1000  
G00 X0.4680  Y0.4112  
G01 Z-0.0070 F10    
G01 X0.4710  Y0.4163  F20    
G01 X0.4725  Y0.4220  
G01 X0.4725  Y0.4697  
G01 X0.4763  Y0.4687  
G01 X0.4975  Y0.4687  
G01 X0.4975  Y0.2913  
G01 X0.4663  Y0.2913  
G01 X0.4626  Y0.2903  
G01 X0.4593  Y0.2884  
G01 X0.4575  Y0.2866  
G01 X0.4575  Y0.4007  
G01 X0.4680  Y0.4112  
G00 Z0.1000  
G00 X0.4393  Y0.0875  
G01 Z-0.0070 F10    
G01 X0.4125  Y0.1143  F20    
G01 X0.4125  Y0.4437  
G01 X0.4275  Y0.4437  
G01 X0.4275  Y0.4343  
G01 X0.4212  Y0.4280  
G01 X0.4170  Y0.4238  
G01 X0.4140  Y0.4187  
G01 X0.4125  Y0.4130  
G01 X0.4125  Y0.1320  
G01 X0.4140  Y0.1263  
G01 X0.4170  Y0.1212  
G01 X0.4507  Y0.0875  
G01 X0.4393  Y0.0875  
G00 Z0.1000  
G00 X1.0763  Y1.0375  
G01 Z-0.0070 F10    
G01 X1.1437  Y1.0375  F20    
G01 X1.1437  Y1.0225  
G01 X1.0763  Y1.0225  
G01 X1.0763  Y1.0375  
G00 Z0.1000  
G00 X1.4463  Y0.1363  
G01 Z-0.0070 F10    
G01 X1.4463  Y0.2237  F20    
G01 X1.4453  Y0.2274  
G01 X1.4434  Y0.2307  
G01 X1.4407  Y0.2334  
G01 X1.4374  Y0.2353  
G01 X1.4337  Y0.2363  
G01 X1.4125  Y0.2363  
G01 X1.4125  Y0.4237  
G01 X1.4337  Y0.4237  
G01 X1.4374  Y0.4247  
G01 X1.4407  Y0.4266  
G01 X1.4434  Y0.4293  
G01 X1.4453  Y0.4326  
G01 X1.4463  Y0.4363  
G01 X1.4463  Y0.5237  
G01 X1.4453  Y0.5274  
G01 X1.4434  Y0.5307  
G01 X1.4407  Y0.5334  
G01 X1.4374  Y0.5353  
G01 X1.4337  Y0.5363  
G01 X1.3463  Y0.5363  
G01 X1.3426  Y0.5353  
G01 X1.3393  Y0.5334  
G01 X1.3366  Y0.5307  
G01 X1.3347  Y0.5274  
G01 X1.3337  Y0.5237  
G01 X1.3337  Y0.4363  
G01 X1.3347  Y0.4326  
G01 X1.3366  Y0.4293  
G01 X1.3393  Y0.4266  
G01 X1.3426  Y0.4247  
G01 X1.3463  Y0.4237  
G01 X1.3675  Y0.4237  
G01 X1.3675  Y0.2363  
G01 X1.3463  Y0.2363  
G01 X1.3426  Y0.2353  
G01 X1.3393  Y0.2334  
G01 X1.3366  Y0.2307  
G01 X1.3347  Y0.2274  
G01 X1.3337  Y0.2237  
G01 X1.3337  Y0.1363  
G01 X1.3347  Y0.1326  
G01 X1.3366  Y0.1293  
G01 X1.3393  Y0.1266  
G01 X1.3426  Y0.1247  
G01 X1.3463  Y0.1237  
G01 X1.4337  Y0.1237  
G01 X1.4374  Y0.1247  
G01 X1.4407  Y0.1266  
G01 X1.4434  Y0.1293  
G01 X1.4453  Y0.1326  
G01 X1.4463  Y0.1363  
G00 Z0.1000  
G00 X0.8410  Y0.6948  
G01 Z-0.0070 F10    
G01 X0.8368  Y0.7006  F20    
G01 X0.8318  Y0.7057  
G01 X0.8260  Y0.7099  
G01 X0.8196  Y0.7131  
G01 X0.8128  Y0.7153  
G01 X0.8057  Y0.7164  
G01 X0.7985  Y0.7164  
G01 X0.7915  Y0.7153  
G01 X0.7847  Y0.7131  
G01 X0.7783  Y0.7099  
G01 X0.7725  Y0.7057  
G01 X0.7674  Y0.7006  
G01 X0.7632  Y0.6948  
G01 X0.7628  Y0.6939  
G01 X0.7623  Y0.6948  
G01 X0.7581  Y0.7006  
G01 X0.7530  Y0.7057  
G01 X0.7472  Y0.7099  
G01 X0.7409  Y0.7131  
G01 X0.7340  Y0.7153  
G01 X0.7270  Y0.7164  
G01 X0.7198  Y0.7164  
G01 X0.7127  Y0.7153  
G01 X0.7059  Y0.7131  
G01 X0.6995  Y0.7099  
G01 X0.6937  Y0.7057  
G01 X0.6887  Y0.7006  
G01 X0.6845  Y0.6948  
G01 X0.6812  Y0.6884  
G01 X0.6790  Y0.6816  
G01 X0.6779  Y0.6745  
G01 X0.6779  Y0.6054  
G01 X0.6790  Y0.5983  
G01 X0.6812  Y0.5915  
G01 X0.6845  Y0.5851  
G01 X0.6887  Y0.5793  
G01 X0.6937  Y0.5742  
G01 X0.6995  Y0.5700  
G01 X0.7059  Y0.5668  
G01 X0.7127  Y0.5646  
G01 X0.7198  Y0.5634  
G01 X0.7270  Y0.5634  
G01 X0.7340  Y0.5646  
G01 X0.7409  Y0.5668  
G01 X0.7472  Y0.5700  
G01 X0.7530  Y0.5742  
G01 X0.7581  Y0.5793  
G01 X0.7623  Y0.5851  
G01 X0.7628  Y0.5860  
G01 X0.7632  Y0.5851  
G01 X0.7674  Y0.5793  
G01 X0.7725  Y0.5742  
G01 X0.7783  Y0.5700  
G01 X0.7847  Y0.5668  
G01 X0.7915  Y0.5646  
G01 X0.7985  Y0.5634  
G01 X0.8057  Y0.5634  
G01 X0.8128  Y0.5646  
G01 X0.8196  Y0.5668  
G01 X0.8260  Y0.5700  
G01 X0.8318  Y0.5742  
G01 X0.8368  Y0.5793  
G01 X0.8410  Y0.5851  
G01 X0.8415  Y0.5860  
G01 X0.8420  Y0.5851  
G01 X0.8462  Y0.5793  
G01 X0.8512  Y0.5742  
G01 X0.8570  Y0.5700  
G01 X0.8634  Y0.5668  
G01 X0.8702  Y0.5646  
G01 X0.8773  Y0.5634  
G01 X0.8844  Y0.5634  
G01 X0.8915  Y0.5646  
G01 X0.8983  Y0.5668  
G01 X0.9047  Y0.5700  
G01 X0.9105  Y0.5742  
G01 X0.9156  Y0.5793  
G01 X0.9198  Y0.5851  
G01 X0.9230  Y0.5915  
G01 X0.9252  Y0.5983  
G01 X0.9264  Y0.6054  
G01 X0.9264  Y0.6745  
G01 X0.9252  Y0.6816  
G01 X0.9230  Y0.6884  
G01 X0.9198  Y0.6948  
G01 X0.9156  Y0.7006  
G01 X0.9105  Y0.7057  
G01 X0.9047  Y0.7099  
G01 X0.8983  Y0.7131  
G01 X0.8915  Y0.7153  
G01 X0.8844  Y0.7164  
G01 X0.8773  Y0.7164  
G01 X0.8702  Y0.7153  
G01 X0.8634  Y0.7131  
G01 X0.8570  Y0.7099  
G01 X0.8512  Y0.7057  
G01 X0.8462  Y0.7006  
G01 X0.8420  Y0.6948  
G01 X0.8415  Y0.6939  
G01 X0.8410  Y0.6948  
G00 Z0.1000  
G00 X0.8026  Y0.7652  
G01 Z-0.0070 F10    
G01 X0.8068  Y0.7594  F20    
G01 X0.8119  Y0.7543  
G01 X0.8176  Y0.7501  
G01 X0.8240  Y0.7469  
G01 X0.8308  Y0.7447  
G01 X0.8379  Y0.7436  
G01 X0.8451  Y0.7436  
G01 X0.8522  Y0.7447  
G01 X0.8590  Y0.7469  
G01 X0.8653  Y0.7501  
G01 X0.8711  Y0.7543  
G01 X0.8762  Y0.7594  
G01 X0.8804  Y0.7652  
G01 X0.8809  Y0.7661  
G01 X0.8813  Y0.7652  
G01 X0.8855  Y0.7594  
G01 X0.8906  Y0.7543  
G01 X0.8964  Y0.7501  
G01 X0.9028  Y0.7469  
G01 X0.9096  Y0.7447  
G01 X0.9167  Y0.7436  
G01 X0.9238  Y0.7436  
G01 X0.9309  Y0.7447  
G01 X0.9377  Y0.7469  
G01 X0.9441  Y0.7501  
G01 X0.9499  Y0.7543  
G01 X0.9549  Y0.7594  
G01 X0.9592  Y0.7652  
G01 X0.9624  Y0.7716  
G01 X0.9646  Y0.7784  
G01 X0.9657  Y0.7855  
G01 X0.9657  Y0.8546  
G01 X0.9646  Y0.8617  
G01 X0.9624  Y0.8685  
G01 X0.9592  Y0.8749  
G01 X0.9549  Y0.8807  
G01 X0.9499  Y0.8858  
G01 X0.9441  Y0.8900  
G01 X0.9377  Y0.8932  
G01 X0.9309  Y0.8954  
G01 X0.9238  Y0.8966  
G01 X0.9167  Y0.8966  
G01 X0.9096  Y0.8954  
G01 X0.9028  Y0.8932  
G01 X0.8964  Y0.8900  
G01 X0.8906  Y0.8858  
G01 X0.8855  Y0.8807  
G01 X0.8813  Y0.8749  
G01 X0.8809  Y0.8740  
G01 X0.8804  Y0.8749  
G01 X0.8762  Y0.8807  
G01 X0.8711  Y0.8858  
G01 X0.8653  Y0.8900  
G01 X0.8590  Y0.8932  
G01 X0.8522  Y0.8954  
G01 X0.8451  Y0.8966  
G01 X0.8379  Y0.8966  
G01 X0.8308  Y0.8954  
G01 X0.8240  Y0.8932  
G01 X0.8176  Y0.8900  
G01 X0.8119  Y0.8858  
G01 X0.8068  Y0.8807  
G01 X0.8026  Y0.8749  
G01 X0.8021  Y0.8740  
G01 X0.8017  Y0.8749  
G01 X0.7975  Y0.8807  
G01 X0.7924  Y0.8858  
G01 X0.7866  Y0.8900  
G01 X0.7802  Y0.8932  
G01 X0.7734  Y0.8954  
G01 X0.7663  Y0.8966  
G01 X0.7592  Y0.8966  
G01 X0.7521  Y0.8954  
G01 X0.7453  Y0.8932  
G01 X0.7389  Y0.8900  
G01 X0.7331  Y0.8858  
G01 X0.7281  Y0.8807  
G01 X0.7238  Y0.8749  
G01 X0.7206  Y0.8685  
G01 X0.7184  Y0.8617  
G01 X0.7173  Y0.8546  
G01 X0.7173  Y0.7855  
G01 X0.7184  Y0.7784  
G01 X0.7206  Y0.7716  
G01 X0.7238  Y0.7652  
G01 X0.7281  Y0.7594  
G01 X0.7331  Y0.7543  
G01 X0.7389  Y0.7501  
G01 X0.7453  Y0.7469  
G01 X0.7521  Y0.7447  
G01 X0.7592  Y0.7436  
G01 X0.7663  Y0.7436  
G01 X0.7734  Y0.7447  
G01 X0.7802  Y0.7469  
G01 X0.7866  Y0.7501  
G01 X0.7924  Y0.7543  
G01 X0.7975  Y0.7594  
G01 X0.8017  Y0.7652  
G01 X0.8021  Y0.7661  
G01 X0.8026  Y0.7652  
G00 Z0.1000  
G00 X0.3395  Y0.9795  
G01 Z-0.0070 F10    
G01 X0.3395  Y1.0205  F20    
G01 X0.3105  Y1.0495  
G01 X0.2695  Y1.0495  
G01 X0.2405  Y1.0205  
G01 X0.2405  Y0.9795  
G01 X0.2695  Y0.9505  
G01 X0.3105  Y0.9505  
G01 X0.3395  Y0.9795  
G00 Z0.1000  
G00 X0.3395  Y0.8795  
G01 Z-0.0070 F10    
G01 X0.3395  Y0.9205  F20    
G01 X0.3105  Y0.9495  
G01 X0.2695  Y0.9495  
G01 X0.2405  Y0.9205  
G01 X0.2405  Y0.8795  
G01 X0.2695  Y0.8505  
G01 X0.3105  Y0.8505  
G01 X0.3395  Y0.8795  
G00 Z0.1000  
G00 X0.3395  Y0.7795  
G01 Z-0.0070 F10    
G01 X0.3395  Y0.8205  F20    
G01 X0.3105  Y0.8495  
G01 X0.2695  Y0.8495  
G01 X0.2405  Y0.8205  
G01 X0.2405  Y0.7795  
G01 X0.2695  Y0.7505  
G01 X0.3105  Y0.7505  
G01 X0.3395  Y0.7795  
G00 Z0.1000  
G00 X0.3395  Y0.6795  
G01 Z-0.0070 F10    
G01 X0.3395  Y0.7205  F20    
G01 X0.3105  Y0.7495  
G01 X0.2695  Y0.7495  
G01 X0.2405  Y0.7205  
G01 X0.2405  Y0.6795  
G01 X0.2695  Y0.6505  
G01 X0.3105  Y0.6505  
G01 X0.3395  Y0.6795  
G00 Z0.1000  
G00 X0.3395  Y0.5795  
G01 Z-0.0070 F10    
G01 X0.3395  Y0.6205  F20    
G01 X0.3105  Y0.6495  
G01 X0.2695  Y0.6495  
G01 X0.2405  Y0.6205  
G01 X0.2405  Y0.5795  
G01 X0.2695  Y0.5505  
G01 X0.3105  Y0.5505  
G01 X0.3395  Y0.5795  
G00 Z0.1000  
G00 X0.2395  Y0.9795  
G01 Z-0.0070 F10    
G01 X0.2395  Y1.0205  F20    
G01 X0.2105  Y1.0495  
G01 X0.1695  Y1.0495  
G01 X0.1405  Y1.0205  
G01 X0.1405  Y0.9795  
G01 X0.1695  Y0.9505  
G01 X0.2105  Y0.9505  
G01 X0.2395  Y0.9795  
G00 Z0.1000  
G00 X0.2395  Y0.8795  
G01 Z-0.0070 F10    
G01 X0.2395  Y0.9205  F20    
G01 X0.2105  Y0.9495  
G01 X0.1695  Y0.9495  
G01 X0.1405  Y0.9205  
G01 X0.1405  Y0.8795  
G01 X0.1695  Y0.8505  
G01 X0.2105  Y0.8505  
G01 X0.2395  Y0.8795  
G00 Z0.1000  
G00 X0.2395  Y0.7795  
G01 Z-0.0070 F10    
G01 X0.2395  Y0.8205  F20    
G01 X0.2105  Y0.8495  
G01 X0.1695  Y0.8495  
G01 X0.1405  Y0.8205  
G01 X0.1405  Y0.7795  
G01 X0.1695  Y0.7505  
G01 X0.2105  Y0.7505  
G01 X0.2395  Y0.7795  
G00 Z0.1000  
G00 X0.2395  Y0.6795  
G01 Z-0.0070 F10    
G01 X0.2395  Y0.7205  F20    
G01 X0.2105  Y0.7495  
G01 X0.1695  Y0.7495  
G01 X0.1405  Y0.7205  
G01 X0.1405  Y0.6795  
G01 X0.1695  Y0.6505  
G01 X0.2105  Y0.6505  
G01 X0.2395  Y0.6795  
G00 Z0.1000  
G00 X0.2395  Y0.5795  
G01 Z-0.0070 F10    
G01 X0.2395  Y0.6205  F20    
G01 X0.2105  Y0.6495  
G01 X0.1695  Y0.6495  
G01 X0.1405  Y0.6205  
G01 X0.1405  Y0.5795  
G01 X0.1695  Y0.5505  
G01 X0.2105  Y0.5505  
G01 X0.2395  Y0.5795  
G00 Z0.1000  
G00 X0.2395  Y0.4795  
G01 Z-0.0070 F10    
G01 X0.2395  Y0.5205  F20    
G01 X0.2105  Y0.5495  
G01 X0.1695  Y0.5495  
G01 X0.1405  Y0.5205  
G01 X0.1405  Y0.4795  
G01 X0.1695  Y0.4505  
G01 X0.2105  Y0.4505  
G01 X0.2395  Y0.4795  
G00 Z0.1000  
G00 X0.3395  Y0.3795  
G01 Z-0.0070 F10    
G01 X0.3395  Y0.4205  F20    
G01 X0.3105  Y0.4495  
G01 X0.2695  Y0.4495  
G01 X0.2405  Y0.4205  
G01 X0.2405  Y0.3795  
G01 X0.2695  Y0.3505  
G01 X0.3105  Y0.3505  
G01 X0.3395  Y0.3795  
G00 Z0.1000  
G00 X0.2395  Y0.3795  
G01 Z-0.0070 F10    
G01 X0.2395  Y0.4205  F20    
G01 X0.2105  Y0.4495  
G01 X0.1695  Y0.4495  
G01 X0.1405  Y0.4205  
G01 X0.1405  Y0.3795  
G01 X0.1695  Y0.3505  
G01 X0.2105  Y0.3505  
G01 X0.2395  Y0.3795  
G00 Z0.1000  
G00 X0.9496  Y0.3255  
G01 Z-0.0070 F10    
G01 X0.8804  Y0.3255  F20    
G01 X0.8733  Y0.3244  
G01 X0.8665  Y0.3222  
G01 X0.8602  Y0.3189  
G01 X0.8544  Y0.3147  
G01 X0.8493  Y0.3096  
G01 X0.8451  Y0.3038  
G01 X0.8418  Y0.2975  
G01 X0.8396  Y0.2907  
G01 X0.8385  Y0.2836  
G01 X0.8385  Y0.2764  
G01 X0.8396  Y0.2693  
G01 X0.8418  Y0.2625  
G01 X0.8451  Y0.2562  
G01 X0.8493  Y0.2504  
G01 X0.8544  Y0.2453  
G01 X0.8602  Y0.2411  
G01 X0.8665  Y0.2378  
G01 X0.8733  Y0.2356  
G01 X0.8804  Y0.2345  
G01 X0.9496  Y0.2345  
G01 X0.9567  Y0.2356  
G01 X0.9635  Y0.2378  
G01 X0.9698  Y0.2411  
G01 X0.9756  Y0.2453  
G01 X0.9807  Y0.2504  
G01 X0.9849  Y0.2562  
G01 X0.9882  Y0.2625  
G01 X0.9904  Y0.2693  
G01 X0.9915  Y0.2764  
G01 X0.9915  Y0.2836  
G01 X0.9904  Y0.2907  
G01 X0.9882  Y0.2975  
G01 X0.9849  Y0.3038  
G01 X0.9807  Y0.3096  
G01 X0.9756  Y0.3147  
G01 X0.9698  Y0.3189  
G01 X0.9635  Y0.3222  
G01 X0.9567  Y0.3244  
G01 X0.9496  Y0.3255  
G00 Z0.1000  
G00 X1.2496  Y0.2255  
G01 Z-0.0070 F10    
G01 X1.1804  Y0.2255  F20    
G01 X1.1733  Y0.2244  
G01 X1.1665  Y0.2222  
G01 X1.1602  Y0.2189  
G01 X1.1544  Y0.2147  
G01 X1.1493  Y0.2096  
G01 X1.1451  Y0.2038  
G01 X1.1418  Y0.1975  
G01 X1.1396  Y0.1907  
G01 X1.1385  Y0.1836  
G01 X1.1385  Y0.1764  
G01 X1.1396  Y0.1693  
G01 X1.1418  Y0.1625  
G01 X1.1451  Y0.1562  
G01 X1.1493  Y0.1504  
G01 X1.1544  Y0.1453  
G01 X1.1602  Y0.1411  
G01 X1.1665  Y0.1378  
G01 X1.1733  Y0.1356  
G01 X1.1804  Y0.1345  
G01 X1.2496  Y0.1345  
G01 X1.2567  Y0.1356  
G01 X1.2635  Y0.1378  
G01 X1.2698  Y0.1411  
G01 X1.2756  Y0.1453  
G01 X1.2807  Y0.1504  
G01 X1.2849  Y0.1562  
G01 X1.2882  Y0.1625  
G01 X1.2904  Y0.1693  
G01 X1.2915  Y0.1764  
G01 X1.2915  Y0.1836  
G01 X1.2904  Y0.1907  
G01 X1.2882  Y0.1975  
G01 X1.2849  Y0.2038  
G01 X1.2807  Y0.2096  
G01 X1.2756  Y0.2147  
G01 X1.2698  Y0.2189  
G01 X1.2635  Y0.2222  
G01 X1.2567  Y0.2244  
G01 X1.2496  Y0.2255  
G00 Z0.1000  
G00 X0.7496  Y0.2255  
G01 Z-0.0070 F10    
G01 X0.6804  Y0.2255  F20    
G01 X0.6733  Y0.2244  
G01 X0.6665  Y0.2222  
G01 X0.6602  Y0.2189  
G01 X0.6544  Y0.2147  
G01 X0.6493  Y0.2096  
G01 X0.6451  Y0.2038  
G01 X0.6418  Y0.1975  
G01 X0.6396  Y0.1907  
G01 X0.6385  Y0.1836  
G01 X0.6385  Y0.1764  
G01 X0.6396  Y0.1693  
G01 X0.6418  Y0.1625  
G01 X0.6451  Y0.1562  
G01 X0.6493  Y0.1504  
G01 X0.6544  Y0.1453  
G01 X0.6602  Y0.1411  
G01 X0.6665  Y0.1378  
G01 X0.6733  Y0.1356  
G01 X0.6804  Y0.1345  
G01 X0.7496  Y0.1345  
G01 X0.7567  Y0.1356  
G01 X0.7635  Y0.1378  
G01 X0.7698  Y0.1411  
G01 X0.7756  Y0.1453  
G01 X0.7807  Y0.1504  
G01 X0.7849  Y0.1562  
G01 X0.7882  Y0.1625  
G01 X0.7904  Y0.1693  
G01 X0.7915  Y0.1764  
G01 X0.7915  Y0.1836  
G01 X0.7904  Y0.1907  
G01 X0.7882  Y0.1975  
G01 X0.7849  Y0.2038  
G01 X0.7807  Y0.2096  
G01 X0.7756  Y0.2147  
G01 X0.7698  Y0.2189  
G01 X0.7635  Y0.2222  
G01 X0.7567  Y0.2244  
G01 X0.7496  Y0.2255  
G00 Z0.1000  
G00 X1.9945  Y0.1496  
G01 Z-0.0070 F10    
G01 X1.9945  Y0.0804  F20    
G01 X1.9956  Y0.0733  
G01 X1.9978  Y0.0665  
G01 X2.0011  Y0.0602  
G01 X2.0053  Y0.0544  
G01 X2.0104  Y0.0493  
G01 X2.0162  Y0.0451  
G01 X2.0225  Y0.0418  
G01 X2.0293  Y0.0396  
G01 X2.0364  Y0.0385  
G01 X2.0436  Y0.0385  
G01 X2.0507  Y0.0396  
G01 X2.0575  Y0.0418  
G01 X2.0638  Y0.0451  
G01 X2.0696  Y0.0493  
G01 X2.0747  Y0.0544  
G01 X2.0789  Y0.0602  
G01 X2.0822  Y0.0665  
G01 X2.0844  Y0.0733  
G01 X2.0855  Y0.0804  
G01 X2.0855  Y0.1496  
G01 X2.0844  Y0.1567  
G01 X2.0822  Y0.1635  
G01 X2.0789  Y0.1698  
G01 X2.0747  Y0.1756  
G01 X2.0696  Y0.1807  
G01 X2.0638  Y0.1849  
G01 X2.0575  Y0.1882  
G01 X2.0507  Y0.1904  
G01 X2.0436  Y0.1915  
G01 X2.0364  Y0.1915  
G01 X2.0293  Y0.1904  
G01 X2.0225  Y0.1882  
G01 X2.0162  Y0.1849  
G01 X2.0104  Y0.1807  
G01 X2.0053  Y0.1756  
G01 X2.0011  Y0.1698  
G01 X1.9978  Y0.1635  
G01 X1.9956  Y0.1567  
G01 X1.9945  Y0.1496  
G00 Z0.1000  
G00 X2.0945  Y0.1496  
G01 Z-0.0070 F10    
G01 X2.0945  Y0.0804  F20    
G01 X2.0956  Y0.0733  
G01 X2.0978  Y0.0665  
G01 X2.1011  Y0.0602  
G01 X2.1053  Y0.0544  
G01 X2.1104  Y0.0493  
G01 X2.1162  Y0.0451  
G01 X2.1225  Y0.0418  
G01 X2.1293  Y0.0396  
G01 X2.1364  Y0.0385  
G01 X2.1436  Y0.0385  
G01 X2.1507  Y0.0396  
G01 X2.1575  Y0.0418  
G01 X2.1638  Y0.0451  
G01 X2.1696  Y0.0493  
G01 X2.1747  Y0.0544  
G01 X2.1789  Y0.0602  
G01 X2.1822  Y0.0665  
G01 X2.1844  Y0.0733  
G01 X2.1855  Y0.0804  
G01 X2.1855  Y0.1496  
G01 X2.1844  Y0.1567  
G01 X2.1822  Y0.1635  
G01 X2.1789  Y0.1698  
G01 X2.1747  Y0.1756  
G01 X2.1696  Y0.1807  
G01 X2.1638  Y0.1849  
G01 X2.1575  Y0.1882  
G01 X2.1507  Y0.1904  
G01 X2.1436  Y0.1915  
G01 X2.1364  Y0.1915  
G01 X2.1293  Y0.1904  
G01 X2.1225  Y0.1882  
G01 X2.1162  Y0.1849  
G01 X2.1104  Y0.1807  
G01 X2.1053  Y0.1756  
G01 X2.1011  Y0.1698  
G01 X2.0978  Y0.1635  
G01 X2.0956  Y0.1567  
G01 X2.0945  Y0.1496  
G00 Z0.1000  
G00 X2.1945  Y0.1496  
G01 Z-0.0070 F10    
G01 X2.1945  Y0.0804  F20    
G01 X2.1956  Y0.0733  
G01 X2.1978  Y0.0665  
G01 X2.2011  Y0.0602  
G01 X2.2053  Y0.0544  
G01 X2.2104  Y0.0493  
G01 X2.2162  Y0.0451  
G01 X2.2225  Y0.0418  
G01 X2.2293  Y0.0396  
G01 X2.2364  Y0.0385  
G01 X2.2436  Y0.0385  
G01 X2.2507  Y0.0396  
G01 X2.2575  Y0.0418  
G01 X2.2638  Y0.0451  
G01 X2.2696  Y0.0493  
G01 X2.2747  Y0.0544  
G01 X2.2789  Y0.0602  
G01 X2.2822  Y0.0665  
G01 X2.2844  Y0.0733  
G01 X2.2855  Y0.0804  
G01 X2.2855  Y0.1496  
G01 X2.2844  Y0.1567  
G01 X2.2822  Y0.1635  
G01 X2.2789  Y0.1698  
G01 X2.2747  Y0.1756  
G01 X2.2696  Y0.1807  
G01 X2.2638  Y0.1849  
G01 X2.2575  Y0.1882  
G01 X2.2507  Y0.1904  
G01 X2.2436  Y0.1915  
G01 X2.2364  Y0.1915  
G01 X2.2293  Y0.1904  
G01 X2.2225  Y0.1882  
G01 X2.2162  Y0.1849  
G01 X2.2104  Y0.1807  
G01 X2.2053  Y0.1756  
G01 X2.2011  Y0.1698  
G01 X2.1978  Y0.1635  
G01 X2.1956  Y0.1567  
G01 X2.1945  Y0.1496  
G00 Z0.1000  
G00 X2.1945  Y0.4496  
G01 Z-0.0070 F10    
G01 X2.1945  Y0.3804  F20    
G01 X2.1956  Y0.3733  
G01 X2.1978  Y0.3665  
G01 X2.2011  Y0.3602  
G01 X2.2053  Y0.3544  
G01 X2.2104  Y0.3493  
G01 X2.2162  Y0.3451  
G01 X2.2225  Y0.3418  
G01 X2.2293  Y0.3396  
G01 X2.2364  Y0.3385  
G01 X2.2436  Y0.3385  
G01 X2.2507  Y0.3396  
G01 X2.2575  Y0.3418  
G01 X2.2638  Y0.3451  
G01 X2.2696  Y0.3493  
G01 X2.2747  Y0.3544  
G01 X2.2789  Y0.3602  
G01 X2.2822  Y0.3665  
G01 X2.2844  Y0.3733  
G01 X2.2855  Y0.3804  
G01 X2.2855  Y0.4496  
G01 X2.2844  Y0.4567  
G01 X2.2822  Y0.4635  
G01 X2.2789  Y0.4698  
G01 X2.2747  Y0.4756  
G01 X2.2696  Y0.4807  
G01 X2.2638  Y0.4849  
G01 X2.2575  Y0.4882  
G01 X2.2507  Y0.4904  
G01 X2.2436  Y0.4915  
G01 X2.2364  Y0.4915  
G01 X2.2293  Y0.4904  
G01 X2.2225  Y0.4882  
G01 X2.2162  Y0.4849  
G01 X2.2104  Y0.4807  
G01 X2.2053  Y0.4756  
G01 X2.2011  Y0.4698  
G01 X2.1978  Y0.4635  
G01 X2.1956  Y0.4567  
G01 X2.1945  Y0.4496  
G00 Z0.1000  
G00 X2.4245  Y0.8383  
G01 Z-0.0070 F10    
G01 X2.4245  Y0.8917  F20    
G01 X2.3867  Y0.9295  
G01 X2.3333  Y0.9295  
G01 X2.2955  Y0.8917  
G01 X2.2955  Y0.8383  
G01 X2.3333  Y0.8005  
G01 X2.3867  Y0.8005  
G01 X2.4245  Y0.8383  
G00 Z0.1000  
G00 X2.4245  Y1.1383  
G01 Z-0.0070 F10    
G01 X2.4245  Y1.1917  F20    
G01 X2.3867  Y1.2295  
G01 X2.3333  Y1.2295  
G01 X2.2955  Y1.1917  
G01 X2.2955  Y1.1383  
G01 X2.3333  Y1.1005  
G01 X2.3867  Y1.1005  
G01 X2.4245  Y1.1383  
G00 Z0.1000  
G00 X0.8925  Y1.1305  
G01 Z-0.0070 F10    
G01 X0.8925  Y1.1395  F20    
G01 X0.8911  Y1.1485  
G01 X0.8883  Y1.1571  
G01 X0.8842  Y1.1651  
G01 X0.8789  Y1.1725  
G01 X0.8725  Y1.1789  
G01 X0.8653  Y1.1840  
G01 X0.8925  Y1.2112  
G01 X0.8925  Y1.2588  
G01 X0.8588  Y1.2925  
G01 X0.8112  Y1.2925  
G01 X0.7775  Y1.2588  
G01 X0.7775  Y1.2112  
G01 X0.8047  Y1.1840  
G01 X0.7975  Y1.1789  
G01 X0.7911  Y1.1725  
G01 X0.7858  Y1.1651  
G01 X0.7817  Y1.1571  
G01 X0.7789  Y1.1485  
G01 X0.7775  Y1.1395  
G01 X0.7775  Y1.1305  
G01 X0.7789  Y1.1215  
G01 X0.7817  Y1.1129  
G01 X0.7858  Y1.1049  
G01 X0.7911  Y1.0975  
G01 X0.7975  Y1.0911  
G01 X0.8049  Y1.0858  
G01 X0.8129  Y1.0817  
G01 X0.8215  Y1.0789  
G01 X0.8305  Y1.0775  
G01 X0.8395  Y1.0775  
G01 X0.8485  Y1.0789  
G01 X0.8571  Y1.0817  
G01 X0.8651  Y1.0858  
G01 X0.8725  Y1.0911  
G01 X0.8789  Y1.0975  
G01 X0.8842  Y1.1049  
G01 X0.8883  Y1.1129  
G01 X0.8911  Y1.1215  
G01 X0.8925  Y1.1305  
G00 Z0.1000  
G00 X1.8063  Y0.4513  
G01 Z-0.0070 F10    
G01 X1.8063  Y0.4725  F20    
G01 X2.0030  Y0.4725  
G01 X2.0011  Y0.4698  
G01 X1.9978  Y0.4635  
G01 X1.9956  Y0.4567  
G01 X1.9945  Y0.4496  
G01 X1.9945  Y0.3804  
G01 X1.9956  Y0.3733  
G01 X1.9978  Y0.3665  
G01 X2.0011  Y0.3602  
G01 X2.0053  Y0.3544  
G01 X2.0104  Y0.3493  
G01 X2.0162  Y0.3451  
G01 X2.0225  Y0.3418  
G01 X2.0293  Y0.3396  
G01 X2.0364  Y0.3385  
G01 X2.0436  Y0.3385  
G01 X2.0507  Y0.3396  
G01 X2.0575  Y0.3418  
G01 X2.0638  Y0.3451  
G01 X2.0696  Y0.3493  
G01 X2.0747  Y0.3544  
G01 X2.0789  Y0.3602  
G01 X2.0822  Y0.3665  
G01 X2.0844  Y0.3733  
G01 X2.0855  Y0.3804  
G01 X2.0855  Y0.4496  
G01 X2.0844  Y0.4567  
G01 X2.0822  Y0.4635  
G01 X2.0789  Y0.4698  
G01 X2.0770  Y0.4725  
G01 X2.1030  Y0.4725  
G01 X2.1011  Y0.4698  
G01 X2.0978  Y0.4635  
G01 X2.0956  Y0.4567  
G01 X2.0945  Y0.4496  
G01 X2.0945  Y0.3804  
G01 X2.0956  Y0.3733  
G01 X2.0978  Y0.3665  
G01 X2.1011  Y0.3602  
G01 X2.1053  Y0.3544  
G01 X2.1104  Y0.3493  
G01 X2.1162  Y0.3451  
G01 X2.1225  Y0.3418  
G01 X2.1293  Y0.3396  
G01 X2.1364  Y0.3385  
G01 X2.1436  Y0.3385  
G01 X2.1507  Y0.3396  
G01 X2.1575  Y0.3418  
G01 X2.1638  Y0.3451  
G01 X2.1696  Y0.3493  
G01 X2.1747  Y0.3544  
G01 X2.1789  Y0.3602  
G01 X2.1822  Y0.3665  
G01 X2.1844  Y0.3733  
G01 X2.1855  Y0.3804  
G01 X2.1855  Y0.4496  
G01 X2.1844  Y0.4567  
G01 X2.1822  Y0.4635  
G01 X2.1789  Y0.4698  
G01 X2.1747  Y0.4756  
G01 X2.1696  Y0.4807  
G01 X2.1638  Y0.4849  
G01 X2.1575  Y0.4882  
G01 X2.1507  Y0.4904  
G01 X2.1436  Y0.4915  
G01 X2.1364  Y0.4915  
G01 X2.1327  Y0.4909  
G01 X2.2338  Y0.5920  
G01 X2.2380  Y0.5962  
G01 X2.2410  Y0.6013  
G01 X2.2425  Y0.6070  
G01 X2.2425  Y0.6337  
G01 X2.2487  Y0.6337  
G01 X2.2524  Y0.6347  
G01 X2.2557  Y0.6366  
G01 X2.2584  Y0.6393  
G01 X2.2603  Y0.6426  
G01 X2.2613  Y0.6463  
G01 X2.2613  Y0.7337  
G01 X2.2603  Y0.7374  
G01 X2.2584  Y0.7407  
G01 X2.2557  Y0.7434  
G01 X2.2524  Y0.7453  
G01 X2.2487  Y0.7463  
G01 X2.1613  Y0.7463  
G01 X2.1576  Y0.7453  
G01 X2.1543  Y0.7434  
G01 X2.1516  Y0.7407  
G01 X2.1497  Y0.7374  
G01 X2.1487  Y0.7337  
G01 X2.1487  Y0.6463  
G01 X2.1497  Y0.6426  
G01 X2.1516  Y0.6393  
G01 X2.1543  Y0.6366  
G01 X2.1576  Y0.6347  
G01 X2.1613  Y0.6337  
G01 X2.1975  Y0.6337  
G01 X2.1975  Y0.6193  
G01 X2.0957  Y0.5175  
G01 X1.8063  Y0.5175  
G01 X1.8063  Y0.5387  
G01 X1.8053  Y0.5424  
G01 X1.8034  Y0.5457  
G01 X1.8007  Y0.5484  
G01 X1.7974  Y0.5503  
G01 X1.7937  Y0.5513  
G01 X1.7063  Y0.5513  
G01 X1.7026  Y0.5503  
G01 X1.6993  Y0.5484  
G01 X1.6966  Y0.5457  
G01 X1.6947  Y0.5424  
G01 X1.6937  Y0.5387  
G01 X1.6937  Y0.4513  
G01 X1.6947  Y0.4476  
G01 X1.6966  Y0.4443  
G01 X1.6993  Y0.4416  
G01 X1.7026  Y0.4397  
G01 X1.7063  Y0.4387  
G01 X1.7937  Y0.4387  
G01 X1.7974  Y0.4397  
G01 X1.8007  Y0.4416  
G01 X1.8034  Y0.4443  
G01 X1.8053  Y0.4476  
G01 X1.8063  Y0.4513  
G00 Z0.1000  
G00 X1.5713  Y1.1863  
G01 Z-0.0070 F10    
G01 X1.5713  Y1.2075  F20    
G01 X1.6887  Y1.2075  
G01 X1.6887  Y1.1863  
G01 X1.6897  Y1.1826  
G01 X1.6916  Y1.1793  
G01 X1.6943  Y1.1766  
G01 X1.6976  Y1.1747  
G01 X1.7013  Y1.1737  
G01 X1.7887  Y1.1737  
G01 X1.7924  Y1.1747  
G01 X1.7957  Y1.1766  
G01 X1.7984  Y1.1793  
G01 X1.8003  Y1.1826  
G01 X1.8013  Y1.1863  
G01 X1.8013  Y1.2075  
G01 X2.0407  Y1.2075  
G01 X2.0875  Y1.1607  
G01 X2.0875  Y0.9913  
G01 X2.0663  Y0.9913  
G01 X2.0626  Y0.9903  
G01 X2.0593  Y0.9884  
G01 X2.0566  Y0.9857  
G01 X2.0547  Y0.9824  
G01 X2.0537  Y0.9787  
G01 X2.0537  Y0.8913  
G01 X2.0547  Y0.8876  
G01 X2.0566  Y0.8843  
G01 X2.0593  Y0.8816  
G01 X2.0626  Y0.8797  
G01 X2.0663  Y0.8787  
G01 X2.1537  Y0.8787  
G01 X2.1574  Y0.8797  
G01 X2.1607  Y0.8816  
G01 X2.1634  Y0.8843  
G01 X2.1653  Y0.8876  
G01 X2.1663  Y0.8913  
G01 X2.1663  Y0.9787  
G01 X2.1653  Y0.9824  
G01 X2.1634  Y0.9857  
G01 X2.1607  Y0.9884  
G01 X2.1574  Y0.9903  
G01 X2.1537  Y0.9913  
G01 X2.1325  Y0.9913  
G01 X2.1325  Y1.1730  
G01 X2.1310  Y1.1787  
G01 X2.1280  Y1.1838  
G01 X2.0680  Y1.2438  
G01 X2.0638  Y1.2480  
G01 X2.0587  Y1.2510  
G01 X2.0530  Y1.2525  
G01 X1.8013  Y1.2525  
G01 X1.8013  Y1.2737  
G01 X1.8003  Y1.2774  
G01 X1.7984  Y1.2807  
G01 X1.7957  Y1.2834  
G01 X1.7924  Y1.2853  
G01 X1.7887  Y1.2863  
G01 X1.7013  Y1.2863  
G01 X1.6976  Y1.2853  
G01 X1.6943  Y1.2834  
G01 X1.6916  Y1.2807  
G01 X1.6897  Y1.2774  
G01 X1.6887  Y1.2737  
G01 X1.6887  Y1.2525  
G01 X1.5713  Y1.2525  
G01 X1.5713  Y1.2737  
G01 X1.5703  Y1.2774  
G01 X1.5684  Y1.2807  
G01 X1.5657  Y1.2834  
G01 X1.5624  Y1.2853  
G01 X1.5587  Y1.2863  
G01 X1.4713  Y1.2863  
G01 X1.4676  Y1.2853  
G01 X1.4643  Y1.2834  
G01 X1.4616  Y1.2807  
G01 X1.4597  Y1.2774  
G01 X1.4587  Y1.2737  
G01 X1.4587  Y1.1863  
G01 X1.4597  Y1.1826  
G01 X1.4616  Y1.1793  
G01 X1.4643  Y1.1766  
G01 X1.4676  Y1.1747  
G01 X1.4713  Y1.1737  
G01 X1.5587  Y1.1737  
G01 X1.5624  Y1.1747  
G01 X1.5657  Y1.1766  
G01 X1.5684  Y1.1793  
G01 X1.5703  Y1.1826  
G01 X1.5713  Y1.1863  
G00 Z0.1000  
G00 X1.8236  Y0.0425  
G01 Z-0.0070 F10    
G01 X1.8252  Y0.0423  F20    
G01 X1.8266  Y0.0425  
G01 X1.8280  Y0.0425  
G01 X1.8295  Y0.0429  
G01 X1.8311  Y0.0431  
G01 X1.8324  Y0.0437  
G01 X1.8337  Y0.0440  
G01 X1.8351  Y0.0448  
G01 X1.8366  Y0.0455  
G01 X1.8376  Y0.0463  
G01 X1.8388  Y0.0470  
G01 X1.8400  Y0.0481  
G01 X1.8412  Y0.0491  
G01 X1.8420  Y0.0502  
G01 X1.8430  Y0.0512  
G01 X1.8438  Y0.0526  
G01 X1.9170  Y0.1502  
G01 X1.9180  Y0.1512  
G01 X1.9188  Y0.1526  
G01 X1.9198  Y0.1539  
G01 X1.9203  Y0.1551  
G01 X1.9210  Y0.1563  
G01 X1.9214  Y0.1579  
G01 X1.9220  Y0.1594  
G01 X1.9221  Y0.1607  
G01 X1.9225  Y0.1620  
G01 X1.9225  Y0.1636  
G01 X1.9227  Y0.1652  
G01 X1.9225  Y0.1666  
G01 X1.9225  Y0.2837  
G01 X1.9437  Y0.2837  
G01 X1.9474  Y0.2847  
G01 X1.9507  Y0.2866  
G01 X1.9534  Y0.2893  
G01 X1.9553  Y0.2926  
G01 X1.9563  Y0.2963  
G01 X1.9563  Y0.3837  
G01 X1.9553  Y0.3874  
G01 X1.9534  Y0.3907  
G01 X1.9507  Y0.3934  
G01 X1.9474  Y0.3953  
G01 X1.9437  Y0.3963  
G01 X1.8563  Y0.3963  
G01 X1.8526  Y0.3953  
G01 X1.8493  Y0.3934  
G01 X1.8466  Y0.3907  
G01 X1.8447  Y0.3874  
G01 X1.8437  Y0.3837  
G01 X1.8437  Y0.2963  
G01 X1.8447  Y0.2926  
G01 X1.8466  Y0.2893  
G01 X1.8493  Y0.2866  
G01 X1.8526  Y0.2847  
G01 X1.8563  Y0.2837  
G01 X1.8775  Y0.2837  
G01 X1.8775  Y0.1725  
G01 X1.8137  Y0.0875  
G01 X0.9298  Y0.0875  
G01 X1.0657  Y0.2087  
G01 X1.1387  Y0.2087  
G01 X1.1424  Y0.2097  
G01 X1.1457  Y0.2116  
G01 X1.1484  Y0.2143  
G01 X1.1503  Y0.2176  
G01 X1.1513  Y0.2213  
G01 X1.1513  Y0.3087  
G01 X1.1503  Y0.3124  
G01 X1.1484  Y0.3157  
G01 X1.1457  Y0.3184  
G01 X1.1424  Y0.3203  
G01 X1.1387  Y0.3213  
G01 X1.0513  Y0.3213  
G01 X1.0476  Y0.3203  
G01 X1.0443  Y0.3184  
G01 X1.0416  Y0.3157  
G01 X1.0397  Y0.3124  
G01 X1.0387  Y0.3087  
G01 X1.0387  Y0.2449  
G01 X0.9014  Y0.1225  
G01 X0.4793  Y0.1225  
G01 X0.4575  Y0.1443  
G01 X0.4575  Y0.1834  
G01 X0.4593  Y0.1816  
G01 X0.4626  Y0.1797  
G01 X0.4663  Y0.1787  
G01 X0.5537  Y0.1787  
G01 X0.5574  Y0.1797  
G01 X0.5607  Y0.1816  
G01 X0.5634  Y0.1843  
G01 X0.5653  Y0.1876  
G01 X0.5663  Y0.1913  
G01 X0.5663  Y0.2787  
G01 X0.5653  Y0.2824  
G01 X0.5634  Y0.2857  
G01 X0.5607  Y0.2884  
G01 X0.5574  Y0.2903  
G01 X0.5537  Y0.2913  
G01 X0.5425  Y0.2913  
G01 X0.5425  Y0.4687  
G01 X0.5637  Y0.4687  
G01 X0.5674  Y0.4697  
G01 X0.5707  Y0.4716  
G01 X0.5734  Y0.4743  
G01 X0.5753  Y0.4776  
G01 X0.5763  Y0.4813  
G01 X0.5763  Y0.5687  
G01 X0.5753  Y0.5724  
G01 X0.5734  Y0.5757  
G01 X0.5707  Y0.5784  
G01 X0.5674  Y0.5803  
G01 X0.5637  Y0.5813  
G01 X0.4763  Y0.5813  
G01 X0.4726  Y0.5803  
G01 X0.4693  Y0.5784  
G01 X0.4666  Y0.5757  
G01 X0.4664  Y0.5754  
G01 X0.4638  Y0.5780  
G01 X0.4225  Y0.6193  
G01 X0.4225  Y0.8437  
G01 X0.4437  Y0.8437  
G01 X0.4474  Y0.8447  
G01 X0.4507  Y0.8466  
G01 X0.4534  Y0.8493  
G01 X0.4553  Y0.8526  
G01 X0.4563  Y0.8563  
G01 X0.4563  Y0.9248  
G01 X0.4566  Y0.9243  
G01 X0.4593  Y0.9216  
G01 X0.4626  Y0.9197  
G01 X0.4663  Y0.9187  
G01 X0.5537  Y0.9187  
G01 X0.5574  Y0.9197  
G01 X0.5607  Y0.9216  
G01 X0.5634  Y0.9243  
G01 X0.5653  Y0.9276  
G01 X0.5663  Y0.9313  
G01 X0.5663  Y0.9775  
G01 X1.1437  Y0.9775  
G01 X1.1437  Y0.9563  
G01 X1.1447  Y0.9526  
G01 X1.1466  Y0.9493  
G01 X1.1493  Y0.9466  
G01 X1.1526  Y0.9447  
G01 X1.1563  Y0.9437  
G01 X1.2437  Y0.9437  
G01 X1.2474  Y0.9447  
G01 X1.2507  Y0.9466  
G01 X1.2534  Y0.9493  
G01 X1.2553  Y0.9526  
G01 X1.2563  Y0.9563  
G01 X1.2563  Y1.0375  
G01 X1.2687  Y1.0375  
G01 X1.2687  Y0.9813  
G01 X1.2697  Y0.9776  
G01 X1.2716  Y0.9743  
G01 X1.2743  Y0.9716  
G01 X1.2776  Y0.9697  
G01 X1.2813  Y0.9687  
G01 X1.3687  Y0.9687  
G01 X1.3724  Y0.9697  
G01 X1.3757  Y0.9716  
G01 X1.3784  Y0.9743  
G01 X1.3803  Y0.9776  
G01 X1.3813  Y0.9813  
G01 X1.3813  Y1.0687  
G01 X1.3803  Y1.0724  
G01 X1.3788  Y1.0751  
G01 X1.3801  Y1.0758  
G01 X1.3875  Y1.0811  
G01 X1.3939  Y1.0875  
G01 X1.3992  Y1.0949  
G01 X1.4033  Y1.1029  
G01 X1.4061  Y1.1115  
G01 X1.4075  Y1.1205  
G01 X1.4075  Y1.1295  
G01 X1.4061  Y1.1385  
G01 X1.4033  Y1.1471  
G01 X1.3992  Y1.1551  
G01 X1.3939  Y1.1625  
G01 X1.3875  Y1.1689  
G01 X1.3803  Y1.1740  
G01 X1.4075  Y1.2012  
G01 X1.4075  Y1.2488  
G01 X1.3738  Y1.2825  
G01 X1.3262  Y1.2825  
G01 X1.2925  Y1.2488  
G01 X1.2925  Y1.2012  
G01 X1.3197  Y1.1740  
G01 X1.3125  Y1.1689  
G01 X1.3061  Y1.1625  
G01 X1.3008  Y1.1551  
G01 X1.2967  Y1.1471  
G01 X1.2939  Y1.1385  
G01 X1.2925  Y1.1295  
G01 X1.2925  Y1.1205  
G01 X1.2939  Y1.1115  
G01 X1.2967  Y1.1029  
G01 X1.3008  Y1.0949  
G01 X1.3061  Y1.0875  
G01 X1.3124  Y1.0813  
G01 X1.2974  Y1.0813  
G01 X1.2930  Y1.0825  
G01 X1.0763  Y1.0825  
G01 X1.0763  Y1.1037  
G01 X1.0753  Y1.1074  
G01 X1.0734  Y1.1107  
G01 X1.0707  Y1.1134  
G01 X1.0674  Y1.1153  
G01 X1.0637  Y1.1163  
G01 X1.0457  Y1.1163  
G01 X1.0655  Y1.1362  
G01 X1.0655  Y1.1738  
G01 X1.0548  Y1.1845  
G01 X1.0852  Y1.1845  
G01 X1.0745  Y1.1738  
G01 X1.0745  Y1.1362  
G01 X1.1012  Y1.1095  
G01 X1.1388  Y1.1095  
G01 X1.1655  Y1.1362  
G01 X1.1655  Y1.1738  
G01 X1.1388  Y1.2005  
G01 X1.1048  Y1.2005  
G01 X1.1155  Y1.2112  
G01 X1.1155  Y1.2488  
G01 X1.0888  Y1.2755  
G01 X1.0512  Y1.2755  
G01 X1.0245  Y1.2488  
G01 X1.0245  Y1.2112  
G01 X1.0352  Y1.2005  
G01 X1.0012  Y1.2005  
G01 X0.9745  Y1.1738  
G01 X0.9745  Y1.1362  
G01 X0.9943  Y1.1163  
G01 X0.9763  Y1.1163  
G01 X0.9726  Y1.1153  
G01 X0.9693  Y1.1134  
G01 X0.9666  Y1.1107  
G01 X0.9647  Y1.1074  
G01 X0.9637  Y1.1037  
G01 X0.9637  Y1.0225  
G01 X0.7363  Y1.0225  
G01 X0.7363  Y1.1087  
G01 X0.7353  Y1.1124  
G01 X0.7334  Y1.1157  
G01 X0.7307  Y1.1184  
G01 X0.7274  Y1.1203  
G01 X0.7237  Y1.1213  
G01 X0.6363  Y1.1213  
G01 X0.6326  Y1.1203  
G01 X0.6293  Y1.1184  
G01 X0.6266  Y1.1157  
G01 X0.6247  Y1.1124  
G01 X0.6237  Y1.1087  
G01 X0.6237  Y1.0875  
G01 X0.4275  Y1.0875  
G01 X0.4275  Y1.1337  
G01 X0.4537  Y1.1337  
G01 X0.4574  Y1.1347  
G01 X0.4607  Y1.1366  
G01 X0.4634  Y1.1393  
G01 X0.4653  Y1.1426  
G01 X0.4663  Y1.1463  
G01 X0.4663  Y1.2337  
G01 X0.4653  Y1.2374  
G01 X0.4634  Y1.2407  
G01 X0.4607  Y1.2434  
G01 X0.4574  Y1.2453  
G01 X0.4537  Y1.2463  
G01 X0.3663  Y1.2463  
G01 X0.3626  Y1.2453  
G01 X0.3593  Y1.2434  
G01 X0.3566  Y1.2407  
G01 X0.3547  Y1.2374  
G01 X0.3537  Y1.2337  
G01 X0.3537  Y1.1463  
G01 X0.3547  Y1.1426  
G01 X0.3566  Y1.1393  
G01 X0.3593  Y1.1366  
G01 X0.3626  Y1.1347  
G01 X0.3663  Y1.1337  
G01 X0.3825  Y1.1337  
G01 X0.3825  Y1.0670  
G01 X0.3840  Y1.0613  
G01 X0.3870  Y1.0562  
G01 X0.3912  Y1.0520  
G01 X0.3962  Y1.0470  
G01 X0.4013  Y1.0440  
G01 X0.4070  Y1.0425  
G01 X0.6237  Y1.0425  
G01 X0.6237  Y1.0225  
G01 X0.5653  Y1.0225  
G01 X0.5634  Y1.0257  
G01 X0.5607  Y1.0284  
G01 X0.5574  Y1.0303  
G01 X0.5537  Y1.0313  
G01 X0.4663  Y1.0313  
G01 X0.4626  Y1.0303  
G01 X0.4593  Y1.0284  
G01 X0.4566  Y1.0257  
G01 X0.4547  Y1.0224  
G01 X0.4537  Y1.0187  
G01 X0.4537  Y0.9502  
G01 X0.4534  Y0.9507  
G01 X0.4507  Y0.9534  
G01 X0.4474  Y0.9553  
G01 X0.4437  Y0.9563  
G01 X0.3563  Y0.9563  
G01 X0.3526  Y0.9553  
G01 X0.3493  Y0.9534  
G01 X0.3466  Y0.9507  
G01 X0.3447  Y0.9474  
G01 X0.3437  Y0.9437  
G01 X0.3437  Y0.8563  
G01 X0.3447  Y0.8526  
G01 X0.3466  Y0.8493  
G01 X0.3493  Y0.8466  
G01 X0.3526  Y0.8447  
G01 X0.3563  Y0.8437  
G01 X0.3775  Y0.8437  
G01 X0.3775  Y0.6070  
G01 X0.3790  Y0.6013  
G01 X0.3820  Y0.5962  
G01 X0.4219  Y0.5563  
G01 X0.3463  Y0.5563  
G01 X0.3426  Y0.5553  
G01 X0.3393  Y0.5534  
G01 X0.3366  Y0.5507  
G01 X0.3347  Y0.5474  
G01 X0.3337  Y0.5437  
G01 X0.3337  Y0.5263  
G01 X0.3105  Y0.5495  
G01 X0.2695  Y0.5495  
G01 X0.2405  Y0.5205  
G01 X0.2405  Y0.4795  
G01 X0.2695  Y0.4505  
G01 X0.3105  Y0.4505  
G01 X0.3337  Y0.4737  
G01 X0.3337  Y0.4563  
G01 X0.3347  Y0.4526  
G01 X0.3366  Y0.4493  
G01 X0.3393  Y0.4466  
G01 X0.3426  Y0.4447  
G01 X0.3463  Y0.4437  
G01 X0.3675  Y0.4437  
G01 X0.3675  Y0.1020  
G01 X0.3690  Y0.0963  
G01 X0.3720  Y0.0912  
G01 X0.4162  Y0.0470  
G01 X0.4213  Y0.0440  
G01 X0.4270  Y0.0425  
G01 X0.4330  Y0.0425  
G01 X1.8236  Y0.0425  
G00 Z0.1000  
G00 X0.4714  Y0.4075  
G01 Z-0.0070 F10    
G01 X0.4744  Y0.4120  F20    
G01 X0.4764  Y0.4170  
G01 X0.4775  Y0.4223  
G01 X0.4775  Y0.4637  
G01 X0.4925  Y0.4637  
G01 X0.4925  Y0.2963  
G01 X0.4656  Y0.2963  
G01 X0.4625  Y0.2955  
G01 X0.4625  Y0.3986  
G01 X0.4714  Y0.4075  
G00 Z0.1000  
G00 X0.4175  Y0.4387  
G01 Z-0.0070 F10    
G01 X0.4225  Y0.4387  F20    
G01 X0.4225  Y0.4364  
G01 X0.4175  Y0.4314  
G01 X0.4175  Y0.4387  
G00 Z0.1000  
G00 X0.3456  Y0.5613  
G01 Z-0.0070 F10    
G01 X0.3407  Y0.5600  F20    
G01 X0.3362  Y0.5574  
G01 X0.3326  Y0.5538  
G01 X0.3300  Y0.5493  
G01 X0.3287  Y0.5444  
G01 X0.3287  Y0.5384  
G01 X0.3171  Y0.5500  
G01 X0.3445  Y0.5774  
G01 X0.3445  Y0.6226  
G01 X0.3171  Y0.6500  
G01 X0.3445  Y0.6774  
G01 X0.3445  Y0.7226  
G01 X0.3171  Y0.7500  
G01 X0.3445  Y0.7774  
G01 X0.3445  Y0.8226  
G01 X0.3171  Y0.8500  
G01 X0.3387  Y0.8716  
G01 X0.3387  Y0.8556  
G01 X0.3400  Y0.8507  
G01 X0.3426  Y0.8462  
G01 X0.3462  Y0.8426  
G01 X0.3507  Y0.8400  
G01 X0.3556  Y0.8387  
G01 X0.3725  Y0.8387  
G01 X0.3725  Y0.6073  
G01 X0.3736  Y0.6020  
G01 X0.3756  Y0.5970  
G01 X0.3786  Y0.5925  
G01 X0.4098  Y0.5613  
G01 X0.3456  Y0.5613  
G00 Z0.1000  
G00 X1.0813  Y1.0325  
G01 Z-0.0070 F10    
G01 X1.1387  Y1.0325  F20    
G01 X1.1387  Y1.0275  
G01 X1.0813  Y1.0275  
G01 X1.0813  Y1.0325  
G00 Z0.1000  
G00 X2.0932  Y0.4654  
G01 Z-0.0070 F10    
G01 X2.0907  Y0.4578  F20    
G01 X2.0900  Y0.4531  
G01 X2.0893  Y0.4578  
G01 X2.0868  Y0.4654  
G01 X2.0857  Y0.4675  
G01 X2.0943  Y0.4675  
G01 X2.0932  Y0.4654  
G00 Z0.1000  
G00 X1.0669  Y1.1795  
G01 Z-0.0070 F10    
G01 X1.0731  Y1.1795  F20    
G01 X1.0700  Y1.1764  
G01 X1.0669  Y1.1795  
G00 Z0.1000  
G00 X0.2400  Y0.9729  
G01 Z-0.0070 F10    
G01 X0.2629  Y0.9500  F20    
G01 X0.2400  Y0.9271  
G01 X0.2171  Y0.9500  
G01 X0.2400  Y0.9729  
G00 Z0.1000  
G00 X0.2400  Y0.7729  
G01 Z-0.0070 F10    
G01 X0.2629  Y0.7500  F20    
G01 X0.2400  Y0.7271  
G01 X0.2171  Y0.7500  
G01 X0.2400  Y0.7729  
G00 Z0.1000  
G00 X0.2400  Y0.5729  
G01 Z-0.0070 F10    
G01 X0.2629  Y0.5500  F20    
G01 X0.2400  Y0.5271  
G01 X0.2171  Y0.5500  
G01 X0.2400  Y0.5729  
G00 Z0.1000  
G00 X0.2400  Y0.4729  
G01 Z-0.0070 F10    
G01 X0.2629  Y0.4500  F20    
G01 X0.2400  Y0.4271  
G01 X0.2171  Y0.4500  
G01 X0.2400  Y0.4729  
G00 Z0.1000  
G00 X0.2400  Y0.6729  
G01 Z-0.0070 F10    
G01 X0.2629  Y0.6500  F20    
G01 X0.2400  Y0.6271  
G01 X0.2171  Y0.6500  
G01 X0.2400  Y0.6729  
G00 Z0.1000  
G00 X0.2400  Y0.8729  
G01 Z-0.0070 F10    
G01 X0.2629  Y0.8500  F20    
G01 X0.2400  Y0.8271  
G01 X0.2171  Y0.8500  
G01 X0.2400  Y0.8729  
G00 Z0.1000  
G00 X1.4513  Y0.1356  
G01 Z-0.0070 F10    
G01 X1.4513  Y0.2244  F20    
G01 X1.4500  Y0.2293  
G01 X1.4474  Y0.2338  
G01 X1.4438  Y0.2374  
G01 X1.4393  Y0.2400  
G01 X1.4344  Y0.2413  
G01 X1.4175  Y0.2413  
G01 X1.4175  Y0.4187  
G01 X1.4344  Y0.4187  
G01 X1.4393  Y0.4200  
G01 X1.4438  Y0.4226  
G01 X1.4474  Y0.4262  
G01 X1.4500  Y0.4307  
G01 X1.4513  Y0.4356  
G01 X1.4513  Y0.5244  
G01 X1.4500  Y0.5293  
G01 X1.4474  Y0.5338  
G01 X1.4438  Y0.5374  
G01 X1.4393  Y0.5400  
G01 X1.4344  Y0.5413  
G01 X1.3456  Y0.5413  
G01 X1.3407  Y0.5400  
G01 X1.3362  Y0.5374  
G01 X1.3326  Y0.5338  
G01 X1.3300  Y0.5293  
G01 X1.3287  Y0.5244  
G01 X1.3287  Y0.4356  
G01 X1.3300  Y0.4307  
G01 X1.3326  Y0.4262  
G01 X1.3362  Y0.4226  
G01 X1.3407  Y0.4200  
G01 X1.3456  Y0.4187  
G01 X1.3625  Y0.4187  
G01 X1.3625  Y0.2413  
G01 X1.3456  Y0.2413  
G01 X1.3407  Y0.2400  
G01 X1.3362  Y0.2374  
G01 X1.3326  Y0.2338  
G01 X1.3300  Y0.2293  
G01 X1.3287  Y0.2244  
G01 X1.3287  Y0.1356  
G01 X1.3300  Y0.1307  
G01 X1.3326  Y0.1262  
G01 X1.3362  Y0.1226  
G01 X1.3407  Y0.1200  
G01 X1.3456  Y0.1187  
G01 X1.4344  Y0.1187  
G01 X1.4393  Y0.1200  
G01 X1.4438  Y0.1226  
G01 X1.4474  Y0.1262  
G01 X1.4500  Y0.1307  
G01 X1.4513  Y0.1356  
G00 Z0.1000  
G00 X0.8030  Y0.7562  
G01 Z-0.0070 F10    
G01 X0.8086  Y0.7505  F20    
G01 X0.8150  Y0.7459  
G01 X0.8221  Y0.7423  
G01 X0.8297  Y0.7398  
G01 X0.8375  Y0.7386  
G01 X0.8455  Y0.7386  
G01 X0.8533  Y0.7398  
G01 X0.8609  Y0.7423  
G01 X0.8680  Y0.7459  
G01 X0.8744  Y0.7505  
G01 X0.8800  Y0.7562  
G01 X0.8809  Y0.7573  
G01 X0.8817  Y0.7562  
G01 X0.8873  Y0.7505  
G01 X0.8938  Y0.7459  
G01 X0.9009  Y0.7423  
G01 X0.9084  Y0.7398  
G01 X0.9163  Y0.7386  
G01 X0.9242  Y0.7386  
G01 X0.9321  Y0.7398  
G01 X0.9396  Y0.7423  
G01 X0.9467  Y0.7459  
G01 X0.9531  Y0.7505  
G01 X0.9588  Y0.7562  
G01 X0.9634  Y0.7626  
G01 X0.9670  Y0.7697  
G01 X0.9695  Y0.7772  
G01 X0.9707  Y0.7851  
G01 X0.9707  Y0.8550  
G01 X0.9695  Y0.8629  
G01 X0.9670  Y0.8704  
G01 X0.9634  Y0.8775  
G01 X0.9588  Y0.8840  
G01 X0.9531  Y0.8896  
G01 X0.9467  Y0.8942  
G01 X0.9396  Y0.8979  
G01 X0.9321  Y0.9003  
G01 X0.9242  Y0.9016  
G01 X0.9163  Y0.9016  
G01 X0.9084  Y0.9003  
G01 X0.9009  Y0.8979  
G01 X0.8938  Y0.8942  
G01 X0.8873  Y0.8896  
G01 X0.8817  Y0.8840  
G01 X0.8809  Y0.8828  
G01 X0.8800  Y0.8840  
G01 X0.8744  Y0.8896  
G01 X0.8680  Y0.8942  
G01 X0.8609  Y0.8979  
G01 X0.8533  Y0.9003  
G01 X0.8455  Y0.9016  
G01 X0.8375  Y0.9016  
G01 X0.8297  Y0.9003  
G01 X0.8221  Y0.8979  
G01 X0.8150  Y0.8942  
G01 X0.8086  Y0.8896  
G01 X0.8030  Y0.8840  
G01 X0.8021  Y0.8828  
G01 X0.8013  Y0.8840  
G01 X0.7957  Y0.8896  
G01 X0.7892  Y0.8942  
G01 X0.7821  Y0.8979  
G01 X0.7746  Y0.9003  
G01 X0.7667  Y0.9016  
G01 X0.7588  Y0.9016  
G01 X0.7509  Y0.9003  
G01 X0.7434  Y0.8979  
G01 X0.7363  Y0.8942  
G01 X0.7299  Y0.8896  
G01 X0.7242  Y0.8840  
G01 X0.7196  Y0.8775  
G01 X0.7160  Y0.8704  
G01 X0.7135  Y0.8629  
G01 X0.7123  Y0.8550  
G01 X0.7123  Y0.7851  
G01 X0.7135  Y0.7772  
G01 X0.7160  Y0.7697  
G01 X0.7196  Y0.7626  
G01 X0.7242  Y0.7562  
G01 X0.7299  Y0.7505  
G01 X0.7363  Y0.7459  
G01 X0.7434  Y0.7423  
G01 X0.7509  Y0.7398  
G01 X0.7588  Y0.7386  
G01 X0.7667  Y0.7386  
G01 X0.7746  Y0.7398  
G01 X0.7821  Y0.7423  
G01 X0.7892  Y0.7459  
G01 X0.7957  Y0.7505  
G01 X0.8013  Y0.7562  
G01 X0.8021  Y0.7573  
G01 X0.8030  Y0.7562  
G00 Z0.1000  
G00 X0.8406  Y0.7038  
G01 Z-0.0070 F10    
G01 X0.8350  Y0.7095  F20    
G01 X0.8286  Y0.7141  
G01 X0.8215  Y0.7177  
G01 X0.8140  Y0.7202  
G01 X0.8061  Y0.7214  
G01 X0.7982  Y0.7214  
G01 X0.7903  Y0.7202  
G01 X0.7827  Y0.7177  
G01 X0.7757  Y0.7141  
G01 X0.7692  Y0.7095  
G01 X0.7636  Y0.7038  
G01 X0.7628  Y0.7027  
G01 X0.7619  Y0.7038  
G01 X0.7563  Y0.7095  
G01 X0.7499  Y0.7141  
G01 X0.7428  Y0.7177  
G01 X0.7352  Y0.7202  
G01 X0.7274  Y0.7214  
G01 X0.7194  Y0.7214  
G01 X0.7116  Y0.7202  
G01 X0.7040  Y0.7177  
G01 X0.6969  Y0.7141  
G01 X0.6905  Y0.7095  
G01 X0.6849  Y0.7038  
G01 X0.6802  Y0.6974  
G01 X0.6766  Y0.6903  
G01 X0.6741  Y0.6828  
G01 X0.6729  Y0.6749  
G01 X0.6729  Y0.6050  
G01 X0.6741  Y0.5971  
G01 X0.6766  Y0.5896  
G01 X0.6802  Y0.5825  
G01 X0.6849  Y0.5760  
G01 X0.6905  Y0.5704  
G01 X0.6969  Y0.5658  
G01 X0.7040  Y0.5621  
G01 X0.7116  Y0.5597  
G01 X0.7194  Y0.5584  
G01 X0.7274  Y0.5584  
G01 X0.7352  Y0.5597  
G01 X0.7428  Y0.5621  
G01 X0.7499  Y0.5658  
G01 X0.7563  Y0.5704  
G01 X0.7619  Y0.5760  
G01 X0.7628  Y0.5772  
G01 X0.7636  Y0.5760  
G01 X0.7692  Y0.5704  
G01 X0.7757  Y0.5658  
G01 X0.7827  Y0.5621  
G01 X0.7903  Y0.5597  
G01 X0.7982  Y0.5584  
G01 X0.8061  Y0.5584  
G01 X0.8140  Y0.5597  
G01 X0.8215  Y0.5621  
G01 X0.8286  Y0.5658  
G01 X0.8350  Y0.5704  
G01 X0.8406  Y0.5760  
G01 X0.8415  Y0.5772  
G01 X0.8423  Y0.5760  
G01 X0.8480  Y0.5704  
G01 X0.8544  Y0.5658  
G01 X0.8615  Y0.5621  
G01 X0.8690  Y0.5597  
G01 X0.8769  Y0.5584  
G01 X0.8848  Y0.5584  
G01 X0.8927  Y0.5597  
G01 X0.9003  Y0.5621  
G01 X0.9073  Y0.5658  
G01 X0.9138  Y0.5704  
G01 X0.9194  Y0.5760  
G01 X0.9241  Y0.5825  
G01 X0.9277  Y0.5896  
G01 X0.9301  Y0.5971  
G01 X0.9314  Y0.6050  
G01 X0.9314  Y0.6749  
G01 X0.9301  Y0.6828  
G01 X0.9277  Y0.6903  
G01 X0.9241  Y0.6974  
G01 X0.9194  Y0.7038  
G01 X0.9138  Y0.7095  
G01 X0.9073  Y0.7141  
G01 X0.9003  Y0.7177  
G01 X0.8927  Y0.7202  
G01 X0.8848  Y0.7214  
G01 X0.8769  Y0.7214  
G01 X0.8690  Y0.7202  
G01 X0.8615  Y0.7177  
G01 X0.8544  Y0.7141  
G01 X0.8480  Y0.7095  
G01 X0.8423  Y0.7038  
G01 X0.8415  Y0.7027  
G01 X0.8406  Y0.7038  
G00 Z0.1000  
G00 X0.9500  Y0.3305  
G01 Z-0.0070 F10    
G01 X0.8800  Y0.3305  F20    
G01 X0.8722  Y0.3293  
G01 X0.8646  Y0.3268  
G01 X0.8575  Y0.3232  
G01 X0.8511  Y0.3185  
G01 X0.8455  Y0.3129  
G01 X0.8408  Y0.3065  
G01 X0.8372  Y0.2994  
G01 X0.8347  Y0.2918  
G01 X0.8335  Y0.2840  
G01 X0.8335  Y0.2760  
G01 X0.8347  Y0.2682  
G01 X0.8372  Y0.2606  
G01 X0.8408  Y0.2535  
G01 X0.8455  Y0.2471  
G01 X0.8511  Y0.2415  
G01 X0.8575  Y0.2368  
G01 X0.8646  Y0.2332  
G01 X0.8722  Y0.2307  
G01 X0.8800  Y0.2295  
G01 X0.9500  Y0.2295  
G01 X0.9578  Y0.2307  
G01 X0.9654  Y0.2332  
G01 X0.9725  Y0.2368  
G01 X0.9789  Y0.2415  
G01 X0.9845  Y0.2471  
G01 X0.9892  Y0.2535  
G01 X0.9928  Y0.2606  
G01 X0.9953  Y0.2682  
G01 X0.9965  Y0.2760  
