(.../src/pcbgcode-work/pcb-gcode.ulp)
(Copyright 2005 - 2009 by John Johnson)
(See readme.txt for licensing terms.)
(This file generated from the board:)
(.../docs/examples/04151_lcdi2c.brd)
(Current profile is .../pcbgcode-work/profiles/mach.pp  )
(This file generated 12/16/12 11:15 PM)
(Settings from pcb-machine.h)
(  Tool Size)
(0.0050  )
(Z Axis Settings)
(  High     Up        Down     Drill)
(0.5000  	0.1000  	-0.0070 	-0.0320 )
(spindle on time = 3.0000)
(milling depth = -0.0100)
(text depth = -0.0050)
(tool change at 0.5000  0.6000  1.0000  )
(feed rate xy = F20    )
(feed rate z  = F10    )
(Settings from pcb-defaults.h)
(isolate min = 0.0010)
(isolate max = 0.0200)
(isolate step = 0.0030)
(Generated bottom outlines, bottom drill, )
(Unit of measure: inch)
(Inch Mode)
G20
(Absolute Coordinates)
G90
G00 X0.0000  Y0.0000  
M03
G04 P3.000000
G00 Z0.1000  
G00 X-0.8366 Y0.6021  
G01 Z-0.0070 F10    
G01 X-0.8366 Y0.6778  F20    
G01 X-0.8314 Y0.6905  
G01 X-0.8217 Y0.7002  
G01 X-0.8090 Y0.7054  
G01 X-0.7953 Y0.7054  
G01 X-0.7826 Y0.7002  
G01 X-0.7729 Y0.6905  
G01 X-0.7676 Y0.6778  
G01 X-0.7676 Y0.6021  
G01 X-0.7729 Y0.5894  
G01 X-0.7826 Y0.5797  
G01 X-0.7885 Y0.5772  
G01 X-0.7885 Y0.5702  
G01 X-0.8802 Y0.4785  
G01 X-0.8898 Y0.4785  
G01 X-1.3935 Y0.4785  
G01 X-1.3935 Y0.3548  
G01 X-1.3652 Y0.3265  
G01 X-1.3585 Y0.3198  
G01 X-1.3585 Y0.2645  
G01 X-1.3557 Y0.2645  
G01 X-1.3355 Y0.2443  
G01 X-1.3355 Y0.2218  
G01 X-1.3052 Y0.1915  
G01 X-1.0348 Y0.1915  
G01 X-0.9548 Y0.2715  
G01 X-0.9452 Y0.2715  
G01 X-0.6655 Y0.2715  
G01 X-0.6655 Y0.2769  
G01 X-0.6602 Y0.2895  
G01 X-0.6505 Y0.2992  
G01 X-0.6379 Y0.3045  
G01 X-0.5621 Y0.3045  
G01 X-0.5495 Y0.2992  
G01 X-0.5398 Y0.2895  
G01 X-0.5345 Y0.2769  
G01 X-0.5345 Y0.2631  
G01 X-0.5398 Y0.2505  
G01 X-0.5495 Y0.2408  
G01 X-0.5621 Y0.2355  
G01 X-0.6379 Y0.2355  
G01 X-0.6505 Y0.2408  
G01 X-0.6583 Y0.2485  
G01 X-0.9452 Y0.2485  
G01 X-1.0185 Y0.1752  
G01 X-1.0252 Y0.1685  
G01 X-1.3052 Y0.1685  
G01 X-1.3148 Y0.1685  
G01 X-1.3487 Y0.2025  
G01 X-1.3557 Y0.1955  
G01 X-1.3843 Y0.1955  
G01 X-1.4045 Y0.2157  
G01 X-1.4045 Y0.2443  
G01 X-1.3843 Y0.2645  
G01 X-1.3815 Y0.2645  
G01 X-1.3815 Y0.3102  
G01 X-1.4165 Y0.3452  
G01 X-1.4165 Y0.3548  
G01 X-1.4165 Y0.4948  
G01 X-1.4165 Y0.5302  
G01 X-1.4165 Y0.5352  
G01 X-1.4165 Y0.9054  
G01 X-1.5149 Y1.0085  
G01 X-1.5249 Y1.0085  
G01 X-1.5321 Y1.0055  
G01 X-1.6079 Y1.0055  
G01 X-1.6151 Y1.0085  
G01 X-1.6602 Y1.0085  
G01 X-1.7185 Y0.9502  
G01 X-1.7252 Y0.9435  
G01 X-1.7885 Y0.9435  
G01 X-1.7885 Y0.7145  
G01 X-1.7857 Y0.7145  
G01 X-1.7655 Y0.6943  
G01 X-1.7655 Y0.6657  
G01 X-1.7857 Y0.6455  
G01 X-1.8143 Y0.6455  
G01 X-1.8273 Y0.6585  
G01 X-1.8927 Y0.6585  
G01 X-1.9057 Y0.6455  
G01 X-1.9343 Y0.6455  
G01 X-1.9473 Y0.6585  
G01 X-2.0127 Y0.6585  
G01 X-2.0257 Y0.6455  
G01 X-2.0543 Y0.6455  
G01 X-2.0745 Y0.6657  
G01 X-2.0745 Y0.6943  
G01 X-2.0543 Y0.7145  
G01 X-2.0257 Y0.7145  
G01 X-2.0055 Y0.6943  
G01 X-2.0055 Y0.6815  
G01 X-1.9545 Y0.6815  
G01 X-1.9545 Y0.6943  
G01 X-1.9343 Y0.7145  
G01 X-1.9057 Y0.7145  
G01 X-1.8855 Y0.6943  
G01 X-1.8855 Y0.6815  
G01 X-1.8345 Y0.6815  
G01 X-1.8345 Y0.6943  
G01 X-1.8143 Y0.7145  
G01 X-1.8115 Y0.7145  
G01 X-1.8115 Y0.9435  
G01 X-1.8852 Y0.9435  
G01 X-1.8948 Y0.9435  
G01 X-1.9315 Y0.9802  
G01 X-1.9315 Y0.9898  
G01 X-1.9315 Y1.0652  
G01 X-1.9748 Y1.1085  
G01 X-2.0352 Y1.1085  
G01 X-2.0885 Y1.0552  
G01 X-2.0885 Y1.0348  
G01 X-2.0885 Y1.0252  
G01 X-2.1785 Y0.9352  
G01 X-2.1852 Y0.9285  
G01 X-2.3552 Y0.9285  
G01 X-2.3648 Y0.9285  
G01 X-2.4148 Y0.9785  
G01 X-2.4215 Y0.9852  
G01 X-2.4215 Y1.0752  
G01 X-2.4215 Y1.0848  
G01 X-2.3115 Y1.1948  
G01 X-2.3048 Y1.2015  
G01 X-1.8315 Y1.2015  
G01 X-1.8315 Y1.2352  
G01 X-1.8315 Y1.2448  
G01 X-1.7815 Y1.2948  
G01 X-1.7748 Y1.3015  
G01 X-1.4802 Y1.3015  
G01 X-1.4735 Y1.2948  
G01 X-1.4563 Y1.2775  
G01 X-1.4543 Y1.2795  
G01 X-1.4257 Y1.2795  
G01 X-1.4055 Y1.2593  
G01 X-1.4055 Y1.2307  
G01 X-1.4257 Y1.2105  
G01 X-1.4285 Y1.2105  
G01 X-1.4285 Y1.1448  
G01 X-1.4152 Y1.1315  
G01 X-1.3148 Y1.1315  
G01 X-1.2800 Y1.1662  
G01 X-1.2794 Y1.1682  
G01 X-1.2768 Y1.1694  
G01 X-1.2765 Y1.1698  
G01 X-1.2765 Y1.1993  
G01 X-1.2493 Y1.2265  
G01 X-1.2107 Y1.2265  
G01 X-1.1835 Y1.1993  
G01 X-1.1835 Y1.1607  
G01 X-1.1890 Y1.1553  
G01 X-1.1552 Y1.1215  
G01 X-0.4952 Y1.1215  
G01 X-0.4885 Y1.1148  
G01 X-0.4082 Y1.0345  
G01 X-0.3957 Y1.0345  
G01 X-0.3755 Y1.0143  
G01 X-0.3755 Y1.0015  
G01 X-0.3285 Y1.0015  
G01 X-0.3285 Y1.0159  
G01 X-0.3059 Y1.0385  
G01 X-0.2741 Y1.0385  
G01 X-0.2515 Y1.0159  
G01 X-0.2515 Y0.9841  
G01 X-0.2741 Y0.9615  
G01 X-0.3059 Y0.9615  
G01 X-0.3229 Y0.9785  
G01 X-0.3827 Y0.9785  
G01 X-0.3957 Y0.9655  
G01 X-0.4243 Y0.9655  
G01 X-0.4445 Y0.9857  
G01 X-0.4445 Y1.0143  
G01 X-0.4325 Y1.0263  
G01 X-0.5048 Y1.0985  
G01 X-1.1552 Y1.0985  
G01 X-1.1648 Y1.0985  
G01 X-1.2053 Y1.1390  
G01 X-1.2107 Y1.1335  
G01 X-1.2493 Y1.1335  
G01 X-1.2647 Y1.1490  
G01 X-1.2985 Y1.1152  
G01 X-1.3052 Y1.1085  
G01 X-1.4152 Y1.1085  
G01 X-1.4248 Y1.1085  
G01 X-1.4448 Y1.1285  
G01 X-1.4515 Y1.1352  
G01 X-1.4515 Y1.2105  
G01 X-1.4543 Y1.2105  
G01 X-1.4745 Y1.2307  
G01 X-1.4745 Y1.2593  
G01 X-1.4725 Y1.2613  
G01 X-1.4898 Y1.2785  
G01 X-1.7652 Y1.2785  
G01 X-1.8085 Y1.2352  
G01 X-1.8085 Y1.1948  
G01 X-1.7747 Y1.1610  
G01 X-1.7693 Y1.1665  
G01 X-1.7307 Y1.1665  
G01 X-1.7035 Y1.1393  
G01 X-1.7035 Y1.1007  
G01 X-1.7307 Y1.0735  
G01 X-1.7693 Y1.0735  
G01 X-1.7965 Y1.1007  
G01 X-1.7965 Y1.1393  
G01 X-1.7910 Y1.1447  
G01 X-1.8248 Y1.1785  
G01 X-2.2952 Y1.1785  
G01 X-2.3985 Y1.0752  
G01 X-2.3985 Y0.9948  
G01 X-2.3552 Y0.9515  
G01 X-2.1948 Y0.9515  
G01 X-2.1115 Y1.0348  
G01 X-2.1115 Y1.0648  
G01 X-2.1048 Y1.0715  
G01 X-2.0448 Y1.1315  
G01 X-2.0352 Y1.1315  
G01 X-1.9652 Y1.1315  
G01 X-1.9585 Y1.1248  
G01 X-1.9085 Y1.0748  
G01 X-1.9085 Y1.0652  
G01 X-1.9085 Y0.9898  
G01 X-1.8852 Y0.9665  
G01 X-1.7952 Y0.9665  
G01 X-1.7348 Y0.9665  
G01 X-1.6698 Y1.0315  
G01 X-1.6602 Y1.0315  
G01 X-1.6348 Y1.0315  
G01 X-1.6355 Y1.0331  
G01 X-1.6355 Y1.0469  
G01 X-1.6302 Y1.0595  
G01 X-1.6205 Y1.0692  
G01 X-1.6079 Y1.0745  
G01 X-1.5321 Y1.0745  
G01 X-1.5195 Y1.0692  
G01 X-1.5098 Y1.0595  
G01 X-1.5045 Y1.0469  
G01 X-1.5045 Y1.0331  
G01 X-1.5052 Y1.0315  
G01 X-1.5050 Y1.0314  
G01 X-1.5018 Y1.0281  
G01 X-1.4985 Y1.0248  
G01 X-1.4985 Y1.0246  
G01 X-1.3969 Y0.9181  
G01 X-1.3935 Y0.9148  
G01 X-1.3935 Y0.9146  
G01 X-1.3934 Y0.9145  
G01 X-1.3935 Y0.9099  
G01 X-1.3935 Y0.5498  
G01 X-1.3885 Y0.5448  
G01 X-1.3885 Y0.5352  
G01 X-1.3935 Y0.5302  
G01 X-1.3935 Y0.5015  
G01 X-0.8898 Y0.5015  
G01 X-0.8145 Y0.5767  
G01 X-0.8217 Y0.5797  
G01 X-0.8314 Y0.5894  
G01 X-0.8366 Y0.6021  
G00 Z0.1000  
G00 X-0.8070 Y0.8579  
G01 Z-0.0070 F10    
G01 X-0.8070 Y0.7822  F20    
G01 X-0.8122 Y0.7695  
G01 X-0.8220 Y0.7598  
G01 X-0.8335 Y0.7550  
G01 X-0.8335 Y0.7502  
G01 X-0.8402 Y0.7435  
G01 X-0.8702 Y0.7135  
G01 X-0.8798 Y0.7135  
G01 X-0.9102 Y0.7135  
G01 X-0.9452 Y0.6785  
G01 X-0.9548 Y0.6785  
G01 X-1.3252 Y0.6785  
G01 X-1.3485 Y0.6552  
G01 X-1.3485 Y0.6148  
G01 X-1.3081 Y0.5744  
G01 X-1.3079 Y0.5745  
G01 X-1.2321 Y0.5745  
G01 X-1.2195 Y0.5692  
G01 X-1.2098 Y0.5595  
G01 X-1.2045 Y0.5469  
G01 X-1.2045 Y0.5331  
G01 X-1.2098 Y0.5205  
G01 X-1.2195 Y0.5108  
G01 X-1.2321 Y0.5055  
G01 X-1.3079 Y0.5055  
G01 X-1.3205 Y0.5108  
G01 X-1.3302 Y0.5205  
G01 X-1.3355 Y0.5331  
G01 X-1.3355 Y0.5469  
G01 X-1.3302 Y0.5595  
G01 X-1.3280 Y0.5618  
G01 X-1.3715 Y0.6052  
G01 X-1.3715 Y0.6148  
G01 X-1.3715 Y0.6648  
G01 X-1.3648 Y0.6715  
G01 X-1.3348 Y0.7015  
G01 X-1.3252 Y0.7015  
G01 X-0.9548 Y0.7015  
G01 X-0.9265 Y0.7298  
G01 X-0.9198 Y0.7365  
G01 X-0.8798 Y0.7365  
G01 X-0.8578 Y0.7585  
G01 X-0.8610 Y0.7598  
G01 X-0.8707 Y0.7695  
G01 X-0.8760 Y0.7822  
G01 X-0.8760 Y0.8579  
G01 X-0.8707 Y0.8706  
G01 X-0.8610 Y0.8803  
G01 X-0.8484 Y0.8856  
G01 X-0.8346 Y0.8856  
G01 X-0.8220 Y0.8803  
G01 X-0.8122 Y0.8706  
G01 X-0.8070 Y0.8579  
G00 Z0.1000  
G00 X-0.7579 Y0.6021  
G01 Z-0.0070 F10    
G01 X-0.7579 Y0.6778  F20    
G01 X-0.7526 Y0.6905  
G01 X-0.7429 Y0.7002  
G01 X-0.7302 Y0.7054  
G01 X-0.7165 Y0.7054  
G01 X-0.7038 Y0.7002  
G01 X-0.6941 Y0.6905  
G01 X-0.6889 Y0.6778  
G01 X-0.6889 Y0.6021  
G01 X-0.6941 Y0.5894  
G01 X-0.7038 Y0.5797  
G01 X-0.7085 Y0.5778  
G01 X-0.7085 Y0.5702  
G01 X-0.7152 Y0.5635  
G01 X-0.8402 Y0.4385  
G01 X-0.8498 Y0.4385  
G01 X-1.2045 Y0.4385  
G01 X-1.2045 Y0.4331  
G01 X-1.2098 Y0.4205  
G01 X-1.2195 Y0.4108  
G01 X-1.2321 Y0.4055  
G01 X-1.3079 Y0.4055  
G01 X-1.3205 Y0.4108  
G01 X-1.3302 Y0.4205  
G01 X-1.3355 Y0.4331  
G01 X-1.3355 Y0.4469  
G01 X-1.3302 Y0.4595  
G01 X-1.3205 Y0.4692  
G01 X-1.3079 Y0.4745  
G01 X-1.2321 Y0.4745  
G01 X-1.2195 Y0.4692  
G01 X-1.2117 Y0.4615  
G01 X-0.8498 Y0.4615  
G01 X-0.7349 Y0.5764  
G01 X-0.7429 Y0.5797  
G01 X-0.7526 Y0.5894  
G01 X-0.7579 Y0.6021  
G00 Z0.1000  
G00 X-0.8857 Y0.8579  
G01 Z-0.0070 F10    
G01 X-0.8857 Y0.7822  F20    
G01 X-0.8910 Y0.7695  
G01 X-0.9007 Y0.7598  
G01 X-0.9134 Y0.7546  
G01 X-0.9271 Y0.7546  
G01 X-0.9398 Y0.7598  
G01 X-0.9495 Y0.7695  
G01 X-0.9547 Y0.7822  
G01 X-0.9547 Y0.8085  
G01 X-1.1602 Y0.8085  
G01 X-1.1902 Y0.7785  
G01 X-1.1998 Y0.7785  
G01 X-1.3348 Y0.7785  
G01 X-1.3415 Y0.7852  
G01 X-1.3565 Y0.8002  
G01 X-1.3565 Y0.8098  
G01 X-1.3565 Y0.9802  
G01 X-1.5015 Y1.1252  
G01 X-1.5015 Y1.1348  
G01 X-1.5015 Y1.1355  
G01 X-1.5043 Y1.1355  
G01 X-1.5245 Y1.1557  
G01 X-1.5245 Y1.1843  
G01 X-1.5225 Y1.1863  
G01 X-1.5248 Y1.1885  
G01 X-1.7081 Y1.1885  
G01 X-1.7109 Y1.1876  
G01 X-1.7127 Y1.1885  
G01 X-1.7148 Y1.1885  
G01 X-1.7152 Y1.1890  
G01 X-1.7237 Y1.1806  
G01 X-1.7407 Y1.1735  
G01 X-1.7592 Y1.1735  
G01 X-1.7763 Y1.1806  
G01 X-1.7894 Y1.1937  
G01 X-1.7965 Y1.2107  
G01 X-1.7965 Y1.2292  
G01 X-1.7894 Y1.2463  
G01 X-1.7763 Y1.2594  
G01 X-1.7592 Y1.2665  
G01 X-1.7407 Y1.2665  
G01 X-1.7237 Y1.2594  
G01 X-1.7106 Y1.2463  
G01 X-1.7035 Y1.2292  
G01 X-1.7035 Y1.2115  
G01 X-1.5152 Y1.2115  
G01 X-1.5085 Y1.2048  
G01 X-1.5063 Y1.2025  
G01 X-1.5043 Y1.2045  
G01 X-1.4757 Y1.2045  
G01 X-1.4555 Y1.1843  
G01 X-1.4555 Y1.1557  
G01 X-1.4757 Y1.1355  
G01 X-1.4785 Y1.1355  
G01 X-1.4785 Y1.1348  
G01 X-1.3450 Y1.0013  
G01 X-1.3448 Y1.0015  
G01 X-1.3352 Y1.0015  
G01 X-0.5445 Y1.0015  
G01 X-0.5445 Y1.0143  
G01 X-0.5243 Y1.0345  
G01 X-0.4957 Y1.0345  
G01 X-0.4755 Y1.0143  
G01 X-0.4755 Y0.9857  
G01 X-0.4957 Y0.9655  
G01 X-0.5243 Y0.9655  
G01 X-0.5373 Y0.9785  
G01 X-1.3335 Y0.9785  
G01 X-1.3335 Y0.9517  
G01 X-1.3302 Y0.9595  
G01 X-1.3205 Y0.9692  
G01 X-1.3079 Y0.9745  
G01 X-1.2321 Y0.9745  
G01 X-1.2195 Y0.9692  
G01 X-1.2098 Y0.9595  
G01 X-1.2064 Y0.9515  
G01 X-0.4695 Y0.9515  
G01 X-0.4693 Y0.9517  
G01 X-0.4648 Y0.9515  
G01 X-0.4602 Y0.9515  
G01 X-0.4601 Y0.9513  
G01 X-0.4598 Y0.9513  
G01 X-0.4567 Y0.9480  
G01 X-0.4535 Y0.9448  
G01 X-0.4535 Y0.9445  
G01 X-0.3300 Y0.8115  
G01 X-0.3285 Y0.8115  
G01 X-0.3285 Y0.8159  
G01 X-0.3059 Y0.8385  
G01 X-0.2741 Y0.8385  
G01 X-0.2515 Y0.8159  
G01 X-0.2515 Y0.7841  
G01 X-0.2741 Y0.7615  
G01 X-0.3059 Y0.7615  
G01 X-0.3285 Y0.7841  
G01 X-0.3285 Y0.7885  
G01 X-0.3305 Y0.7885  
G01 X-0.3307 Y0.7883  
G01 X-0.3352 Y0.7885  
G01 X-0.3398 Y0.7885  
G01 X-0.3399 Y0.7887  
G01 X-0.3402 Y0.7887  
G01 X-0.3433 Y0.7920  
G01 X-0.3465 Y0.7952  
G01 X-0.3465 Y0.7955  
G01 X-0.4700 Y0.9285  
G01 X-1.2064 Y0.9285  
G01 X-1.2098 Y0.9205  
G01 X-1.2195 Y0.9108  
G01 X-1.2321 Y0.9055  
G01 X-1.3079 Y0.9055  
G01 X-1.3205 Y0.9108  
G01 X-1.3302 Y0.9205  
G01 X-1.3335 Y0.9283  
G01 X-1.3335 Y0.8517  
G01 X-1.3302 Y0.8595  
G01 X-1.3205 Y0.8692  
G01 X-1.3079 Y0.8745  
G01 X-1.2321 Y0.8745  
G01 X-1.2195 Y0.8692  
G01 X-1.2098 Y0.8595  
G01 X-1.2089 Y0.8574  
G01 X-1.1548 Y0.9115  
G01 X-1.1452 Y0.9115  
G01 X-0.4952 Y0.9115  
G01 X-0.4885 Y0.9048  
G01 X-0.3452 Y0.7615  
G01 X-0.2448 Y0.7615  
G01 X-0.2254 Y0.7809  
G01 X-0.2285 Y0.7841  
G01 X-0.2285 Y0.8159  
G01 X-0.2059 Y0.8385  
G01 X-0.1741 Y0.8385  
G01 X-0.1515 Y0.8159  
G01 X-0.1515 Y0.7841  
G01 X-0.1741 Y0.7615  
G01 X-0.2059 Y0.7615  
G01 X-0.2091 Y0.7646  
G01 X-0.2285 Y0.7452  
G01 X-0.2352 Y0.7385  
G01 X-0.3452 Y0.7385  
G01 X-0.3548 Y0.7385  
G01 X-0.5048 Y0.8885  
G01 X-1.1452 Y0.8885  
G01 X-1.1985 Y0.8352  
G01 X-1.2052 Y0.8285  
G01 X-1.2064 Y0.8285  
G01 X-1.2098 Y0.8205  
G01 X-1.2195 Y0.8108  
G01 X-1.2321 Y0.8055  
G01 X-1.3079 Y0.8055  
G01 X-1.3205 Y0.8108  
G01 X-1.3302 Y0.8205  
G01 X-1.3335 Y0.8283  
G01 X-1.3335 Y0.8098  
G01 X-1.3252 Y0.8015  
G01 X-1.1998 Y0.8015  
G01 X-1.1765 Y0.8248  
G01 X-1.1698 Y0.8315  
G01 X-0.9547 Y0.8315  
G01 X-0.9547 Y0.8579  
G01 X-0.9495 Y0.8706  
G01 X-0.9398 Y0.8803  
G01 X-0.9271 Y0.8856  
G01 X-0.9134 Y0.8856  
G01 X-0.9007 Y0.8803  
G01 X-0.8910 Y0.8706  
G01 X-0.8857 Y0.8579  
G00 Z0.1000  
G00 X-1.5321 Y0.3055  
G01 Z-0.0070 F10    
G01 X-1.5882 Y0.3055  F20    
G01 X-1.7415 Y0.1523  
G01 X-1.7441 Y0.1490  
G01 X-1.7448 Y0.1490  
G01 X-1.7452 Y0.1485  
G01 X-1.7494 Y0.1485  
G01 X-1.7845 Y0.1450  
G01 X-1.7845 Y0.1431  
G01 X-1.7898 Y0.1305  
G01 X-1.7995 Y0.1208  
G01 X-1.8121 Y0.1155  
G01 X-1.8879 Y0.1155  
G01 X-1.9005 Y0.1208  
G01 X-1.9102 Y0.1305  
G01 X-1.9155 Y0.1431  
G01 X-1.9155 Y0.1569  
G01 X-1.9151 Y0.1578  
G01 X-1.9743 Y0.2085  
G01 X-1.9748 Y0.2085  
G01 X-1.9778 Y0.2116  
G01 X-1.9811 Y0.2144  
G01 X-1.9811 Y0.2149  
G01 X-1.9815 Y0.2152  
G01 X-1.9815 Y0.2196  
G01 X-1.9818 Y0.2239  
G01 X-1.9815 Y0.2243  
G01 X-1.9815 Y0.3957  
G01 X-2.0254 Y0.4458  
G01 X-2.0257 Y0.4455  
G01 X-2.0543 Y0.4455  
G01 X-2.0745 Y0.4657  
G01 X-2.0745 Y0.4943  
G01 X-2.0543 Y0.5145  
G01 X-2.0257 Y0.5145  
G01 X-2.0055 Y0.4943  
G01 X-2.0055 Y0.4657  
G01 X-2.0091 Y0.4621  
G01 X-1.9616 Y0.4079  
G01 X-1.9585 Y0.4048  
G01 X-1.9585 Y0.4043  
G01 X-1.9582 Y0.4040  
G01 X-1.9585 Y0.3996  
G01 X-1.9585 Y0.2253  
G01 X-1.9025 Y0.1773  
G01 X-1.9005 Y0.1792  
G01 X-1.8879 Y0.1845  
G01 X-1.8121 Y0.1845  
G01 X-1.7995 Y0.1792  
G01 X-1.7898 Y0.1695  
G01 X-1.7890 Y0.1677  
G01 X-1.7552 Y0.1710  
G01 X-1.6170 Y0.3093  
G01 X-1.6205 Y0.3108  
G01 X-1.6302 Y0.3205  
G01 X-1.6355 Y0.3331  
G01 X-1.6355 Y0.3469  
G01 X-1.6302 Y0.3595  
G01 X-1.6205 Y0.3692  
G01 X-1.6079 Y0.3745  
G01 X-1.5321 Y0.3745  
G01 X-1.5195 Y0.3692  
G01 X-1.5098 Y0.3595  
G01 X-1.5045 Y0.3469  
G01 X-1.5045 Y0.3331  
G01 X-1.5098 Y0.3205  
G01 X-1.5195 Y0.3108  
G01 X-1.5321 Y0.3055  
G00 Z0.1000  
G00 X-1.5321 Y0.4055  
G01 Z-0.0070 F10    
G01 X-1.6079 Y0.4055  F20    
G01 X-1.6205 Y0.4108  
G01 X-1.6302 Y0.4205  
G01 X-1.6336 Y0.4285  
G01 X-1.6352 Y0.4285  
G01 X-1.7920 Y0.2718  
G01 X-1.7898 Y0.2695  
G01 X-1.7845 Y0.2569  
G01 X-1.7845 Y0.2431  
G01 X-1.7898 Y0.2305  
G01 X-1.7995 Y0.2208  
G01 X-1.8121 Y0.2155  
G01 X-1.8879 Y0.2155  
G01 X-1.9005 Y0.2208  
G01 X-1.9102 Y0.2305  
G01 X-1.9155 Y0.2431  
G01 X-1.9155 Y0.2569  
G01 X-1.9154 Y0.2570  
G01 X-1.9343 Y0.2735  
G01 X-1.9348 Y0.2735  
G01 X-1.9379 Y0.2766  
G01 X-1.9412 Y0.2795  
G01 X-1.9412 Y0.2799  
G01 X-1.9415 Y0.2802  
G01 X-1.9415 Y0.2846  
G01 X-1.9418 Y0.2890  
G01 X-1.9415 Y0.2893  
G01 X-1.9415 Y0.4527  
G01 X-1.9545 Y0.4657  
G01 X-1.9545 Y0.4943  
G01 X-1.9343 Y0.5145  
G01 X-1.9057 Y0.5145  
G01 X-1.8855 Y0.4943  
G01 X-1.8855 Y0.4657  
G01 X-1.9057 Y0.4455  
G01 X-1.9185 Y0.4455  
G01 X-1.9185 Y0.2902  
G01 X-1.9031 Y0.2767  
G01 X-1.9005 Y0.2792  
G01 X-1.8879 Y0.2845  
G01 X-1.8121 Y0.2845  
G01 X-1.8119 Y0.2844  
G01 X-1.6448 Y0.4515  
G01 X-1.6352 Y0.4515  
G01 X-1.6336 Y0.4515  
G01 X-1.6302 Y0.4595  
G01 X-1.6205 Y0.4692  
G01 X-1.6079 Y0.4745  
G01 X-1.5321 Y0.4745  
G01 X-1.5195 Y0.4692  
G01 X-1.5098 Y0.4595  
G01 X-1.5045 Y0.4469  
G01 X-1.5045 Y0.4331  
G01 X-1.5098 Y0.4205  
G01 X-1.5195 Y0.4108  
G01 X-1.5321 Y0.4055  
G00 Z0.1000  
G00 X-1.5321 Y0.5055  
G01 Z-0.0070 F10    
G01 X-1.6079 Y0.5055  F20    
G01 X-1.6205 Y0.5108  
G01 X-1.6268 Y0.5170  
G01 X-1.6685 Y0.4752  
G01 X-1.6752 Y0.4685  
G01 X-1.7655 Y0.4685  
G01 X-1.7655 Y0.4657  
G01 X-1.7857 Y0.4455  
G01 X-1.8082 Y0.4455  
G01 X-1.8385 Y0.4152  
G01 X-1.8385 Y0.3845  
G01 X-1.8121 Y0.3845  
G01 X-1.7995 Y0.3792  
G01 X-1.7898 Y0.3695  
G01 X-1.7845 Y0.3569  
G01 X-1.7845 Y0.3431  
G01 X-1.7898 Y0.3305  
G01 X-1.7995 Y0.3208  
G01 X-1.8121 Y0.3155  
G01 X-1.8879 Y0.3155  
G01 X-1.9005 Y0.3208  
G01 X-1.9102 Y0.3305  
G01 X-1.9155 Y0.3431  
G01 X-1.9155 Y0.3569  
G01 X-1.9102 Y0.3695  
G01 X-1.9005 Y0.3792  
G01 X-1.8879 Y0.3845  
G01 X-1.8615 Y0.3845  
G01 X-1.8615 Y0.4248  
G01 X-1.8548 Y0.4315  
G01 X-1.8275 Y0.4587  
G01 X-1.8345 Y0.4657  
G01 X-1.8345 Y0.4943  
G01 X-1.8143 Y0.5145  
G01 X-1.7857 Y0.5145  
G01 X-1.7655 Y0.4943  
G01 X-1.7655 Y0.4915  
G01 X-1.6848 Y0.4915  
G01 X-1.6355 Y0.5408  
G01 X-1.6355 Y0.5469  
G01 X-1.6302 Y0.5595  
G01 X-1.6205 Y0.5692  
G01 X-1.6079 Y0.5745  
G01 X-1.5321 Y0.5745  
G01 X-1.5195 Y0.5692  
G01 X-1.5098 Y0.5595  
G01 X-1.5045 Y0.5469  
G01 X-1.5045 Y0.5331  
G01 X-1.5098 Y0.5205  
G01 X-1.5195 Y0.5108  
G01 X-1.5321 Y0.5055  
G00 Z0.1000  
G00 X-1.5321 Y0.7055  
G01 Z-0.0070 F10    
G01 X-1.6079 Y0.7055  F20    
G01 X-1.6205 Y0.7108  
G01 X-1.6302 Y0.7205  
G01 X-1.6315 Y0.7235  
G01 X-1.6402 Y0.7235  
G01 X-1.6485 Y0.7152  
G01 X-1.6485 Y0.5752  
G01 X-1.6552 Y0.5685  
G01 X-1.6852 Y0.5385  
G01 X-1.6948 Y0.5385  
G01 X-2.0652 Y0.5385  
G01 X-2.0985 Y0.5052  
G01 X-2.0985 Y0.4698  
G01 X-2.0552 Y0.4265  
G01 X-2.0252 Y0.4265  
G01 X-2.0185 Y0.4198  
G01 X-1.9985 Y0.3998  
G01 X-1.9985 Y0.3902  
G01 X-1.9985 Y0.1848  
G01 X-1.9052 Y0.0915  
G01 X-0.5398 Y0.0915  
G01 X-0.2515 Y0.3798  
G01 X-0.2515 Y0.4452  
G01 X-0.2515 Y0.4548  
G01 X-0.2254 Y0.4809  
G01 X-0.2285 Y0.4841  
G01 X-0.2285 Y0.5159  
G01 X-0.2059 Y0.5385  
G01 X-0.1741 Y0.5385  
G01 X-0.1515 Y0.5159  
G01 X-0.1515 Y0.4841  
G01 X-0.1741 Y0.4615  
G01 X-0.2059 Y0.4615  
G01 X-0.2091 Y0.4646  
G01 X-0.2285 Y0.4452  
G01 X-0.2285 Y0.3798  
G01 X-0.2285 Y0.3702  
G01 X-0.5302 Y0.0685  
G01 X-0.5398 Y0.0685  
G01 X-1.9148 Y0.0685  
G01 X-1.9215 Y0.0752  
G01 X-2.0148 Y0.1685  
G01 X-2.0215 Y0.1752  
G01 X-2.0215 Y0.3902  
G01 X-2.0348 Y0.4035  
G01 X-2.0552 Y0.4035  
G01 X-2.0648 Y0.4035  
G01 X-2.1215 Y0.4602  
G01 X-2.1215 Y0.4698  
G01 X-2.1215 Y0.5148  
G01 X-2.1148 Y0.5215  
G01 X-2.0815 Y0.5548  
G01 X-2.0748 Y0.5615  
G01 X-1.6948 Y0.5615  
G01 X-1.6715 Y0.5848  
G01 X-1.6715 Y0.7152  
G01 X-1.6715 Y0.7248  
G01 X-1.6565 Y0.7398  
G01 X-1.6498 Y0.7465  
G01 X-1.6355 Y0.7465  
G01 X-1.6355 Y0.7469  
G01 X-1.6302 Y0.7595  
G01 X-1.6205 Y0.7692  
G01 X-1.6079 Y0.7745  
G01 X-1.5321 Y0.7745  
G01 X-1.5195 Y0.7692  
G01 X-1.5098 Y0.7595  
G01 X-1.5065 Y0.7517  
G01 X-1.5065 Y0.7773  
G01 X-1.5071 Y0.7785  
G01 X-1.6252 Y0.7785  
G01 X-1.6348 Y0.7785  
G01 X-1.6548 Y0.7985  
G01 X-1.6615 Y0.8052  
G01 X-1.6615 Y0.8552  
G01 X-1.6615 Y0.8648  
G01 X-1.6315 Y0.8948  
G01 X-1.6248 Y0.9015  
G01 X-1.4945 Y0.9015  
G01 X-1.4943 Y0.9017  
G01 X-1.4897 Y0.9015  
G01 X-1.4852 Y0.9015  
G01 X-1.4850 Y0.9013  
G01 X-1.4847 Y0.9013  
G01 X-1.4817 Y0.8980  
G01 X-1.4785 Y0.8948  
G01 X-1.4785 Y0.8945  
G01 X-1.4267 Y0.8379  
G01 X-1.4235 Y0.8348  
G01 X-1.4235 Y0.8345  
G01 X-1.4233 Y0.8343  
G01 X-1.4235 Y0.8297  
G01 X-1.4235 Y0.6208  
G01 X-1.4229 Y0.6169  
G01 X-1.4235 Y0.6162  
G01 X-1.4235 Y0.6152  
G01 X-1.4263 Y0.6124  
G01 X-1.4385 Y0.5962  
G01 X-1.4385 Y0.1748  
G01 X-1.4152 Y0.1515  
G01 X-0.6148 Y0.1515  
G01 X-0.3915 Y0.3748  
G01 X-0.3915 Y0.4052  
G01 X-0.3915 Y0.4148  
G01 X-0.3254 Y0.4809  
G01 X-0.3285 Y0.4841  
G01 X-0.3285 Y0.5159  
G01 X-0.3059 Y0.5385  
G01 X-0.2741 Y0.5385  
G01 X-0.2515 Y0.5159  
G01 X-0.2515 Y0.4841  
G01 X-0.2741 Y0.4615  
G01 X-0.3059 Y0.4615  
G01 X-0.3091 Y0.4646  
G01 X-0.3685 Y0.4052  
G01 X-0.3685 Y0.3652  
G01 X-0.3752 Y0.3585  
G01 X-0.5985 Y0.1352  
G01 X-0.6052 Y0.1285  
G01 X-1.4248 Y0.1285  
G01 X-1.4315 Y0.1352  
G01 X-1.4615 Y0.1652  
G01 X-1.4615 Y0.1748  
G01 X-1.4615 Y0.5992  
G01 X-1.4621 Y0.6031  
G01 X-1.4615 Y0.6038  
G01 X-1.4615 Y0.6048  
G01 X-1.4587 Y0.6076  
G01 X-1.4465 Y0.6238  
G01 X-1.4465 Y0.8255  
G01 X-1.4951 Y0.8785  
G01 X-1.6152 Y0.8785  
G01 X-1.6385 Y0.8552  
G01 X-1.6385 Y0.8148  
G01 X-1.6252 Y0.8015  
G01 X-1.5027 Y0.8015  
G01 X-1.5009 Y0.8024  
G01 X-1.4981 Y0.8015  
G01 X-1.4952 Y0.8015  
G01 X-1.4938 Y0.8000  
G01 X-1.4918 Y0.7994  
G01 X-1.4905 Y0.7968  
G01 X-1.4885 Y0.7948  
G01 X-1.4885 Y0.7927  
G01 X-1.4855 Y0.7868  
G01 X-1.4835 Y0.7848  
G01 X-1.4835 Y0.7827  
G01 X-1.4826 Y0.7809  
G01 X-1.4835 Y0.7781  
G01 X-1.4835 Y0.6705  
G01 X-1.4831 Y0.6663  
G01 X-1.4835 Y0.6658  
G01 X-1.4835 Y0.6652  
G01 X-1.4865 Y0.6622  
G01 X-1.5045 Y0.6406  
G01 X-1.5045 Y0.6331  
G01 X-1.5098 Y0.6205  
G01 X-1.5195 Y0.6108  
G01 X-1.5321 Y0.6055  
G01 X-1.6079 Y0.6055  
G01 X-1.6205 Y0.6108  
G01 X-1.6302 Y0.6205  
G01 X-1.6355 Y0.6331  
G01 X-1.6355 Y0.6469  
G01 X-1.6302 Y0.6595  
G01 X-1.6205 Y0.6692  
G01 X-1.6079 Y0.6745  
G01 X-1.5321 Y0.6745  
G01 X-1.5195 Y0.6692  
G01 X-1.5146 Y0.6644  
G01 X-1.5065 Y0.6742  
G01 X-1.5065 Y0.7283  
G01 X-1.5098 Y0.7205  
G01 X-1.5195 Y0.7108  
G01 X-1.5321 Y0.7055  
G00 Z0.1000  
G00 X-1.5321 Y0.8055  
G01 Z-0.0070 F10    
G01 X-1.6079 Y0.8055  F20    
G01 X-1.6205 Y0.8108  
G01 X-1.6302 Y0.8205  
G01 X-1.6355 Y0.8331  
G01 X-1.6355 Y0.8469  
G01 X-1.6302 Y0.8595  
G01 X-1.6205 Y0.8692  
G01 X-1.6079 Y0.8745  
G01 X-1.5321 Y0.8745  
G01 X-1.5195 Y0.8692  
G01 X-1.5098 Y0.8595  
G01 X-1.5064 Y0.8515  
G01 X-1.5043 Y0.8515  
G01 X-1.5040 Y0.8518  
G01 X-1.4996 Y0.8515  
G01 X-1.4952 Y0.8515  
G01 X-1.4949 Y0.8512  
G01 X-1.4945 Y0.8512  
G01 X-1.4916 Y0.8479  
G01 X-1.4885 Y0.8448  
G01 X-1.4885 Y0.8443  
G01 X-1.4566 Y0.8079  
G01 X-1.4535 Y0.8048  
G01 X-1.4535 Y0.8043  
G01 X-1.4532 Y0.8040  
G01 X-1.4535 Y0.7996  
G01 X-1.4535 Y0.6505  
G01 X-1.4531 Y0.6463  
G01 X-1.4535 Y0.6458  
G01 X-1.4535 Y0.6452  
G01 X-1.4565 Y0.6422  
G01 X-1.4785 Y0.6158  
G01 X-1.4785 Y0.1448  
G01 X-1.4552 Y0.1215  
G01 X-0.5848 Y0.1215  
G01 X-0.3254 Y0.3809  
G01 X-0.3285 Y0.3841  
G01 X-0.3285 Y0.4159  
G01 X-0.3059 Y0.4385  
G01 X-0.2741 Y0.4385  
G01 X-0.2515 Y0.4159  
G01 X-0.2515 Y0.3841  
G01 X-0.2741 Y0.3615  
G01 X-0.3059 Y0.3615  
G01 X-0.3091 Y0.3646  
G01 X-0.5685 Y0.1052  
G01 X-0.5752 Y0.0985  
G01 X-1.4552 Y0.0985  
G01 X-1.4648 Y0.0985  
G01 X-1.5015 Y0.1352  
G01 X-1.5015 Y0.1448  
G01 X-1.5015 Y0.6195  
G01 X-1.5019 Y0.6237  
G01 X-1.5015 Y0.6242  
G01 X-1.5015 Y0.6248  
G01 X-1.4985 Y0.6278  
G01 X-1.4765 Y0.6542  
G01 X-1.4765 Y0.7957  
G01 X-1.5052 Y0.8285  
G01 X-1.5064 Y0.8285  
G01 X-1.5098 Y0.8205  
G01 X-1.5195 Y0.8108  
G01 X-1.5321 Y0.8055  
G00 Z0.1000  
G00 X-1.2321 Y0.6055  
G01 Z-0.0070 F10    
G01 X-1.3079 Y0.6055  F20    
G01 X-1.3205 Y0.6108  
G01 X-1.3302 Y0.6205  
G01 X-1.3355 Y0.6331  
G01 X-1.3355 Y0.6469  
G01 X-1.3302 Y0.6595  
G01 X-1.3205 Y0.6692  
G01 X-1.3079 Y0.6745  
G01 X-1.2321 Y0.6745  
G01 X-1.2195 Y0.6692  
G01 X-1.2098 Y0.6595  
G01 X-1.2045 Y0.6469  
G01 X-1.2045 Y0.6415  
G01 X-0.9154 Y0.6415  
G01 X-0.9154 Y0.6778  
G01 X-0.9101 Y0.6905  
G01 X-0.9004 Y0.7002  
G01 X-0.8877 Y0.7054  
G01 X-0.8740 Y0.7054  
G01 X-0.8613 Y0.7002  
G01 X-0.8516 Y0.6905  
G01 X-0.8464 Y0.6778  
G01 X-0.8464 Y0.6021  
G01 X-0.8516 Y0.5894  
G01 X-0.8613 Y0.5797  
G01 X-0.8740 Y0.5744  
G01 X-0.8877 Y0.5744  
G01 X-0.9004 Y0.5797  
G01 X-0.9101 Y0.5894  
G01 X-0.9154 Y0.6021  
G01 X-0.9154 Y0.6185  
G01 X-1.2117 Y0.6185  
G01 X-1.2195 Y0.6108  
G01 X-1.2321 Y0.6055  
G00 Z0.1000  
G00 X-0.3285 Y0.6841  
G01 Z-0.0070 F10    
G01 X-0.3285 Y0.7159  F20    
G01 X-0.3059 Y0.7385  
G01 X-0.2741 Y0.7385  
G01 X-0.2515 Y0.7159  
G01 X-0.2515 Y0.6841  
G01 X-0.2741 Y0.6615  
G01 X-0.3059 Y0.6615  
G01 X-0.3285 Y0.6841  
G00 Z0.1000  
G00 X-0.3285 Y0.5841  
G01 Z-0.0070 F10    
G01 X-0.3285 Y0.6159  F20    
G01 X-0.3059 Y0.6385  
G01 X-0.2741 Y0.6385  
G01 X-0.2515 Y0.6159  
G01 X-0.2515 Y0.5841  
G01 X-0.2741 Y0.5615  
G01 X-0.3059 Y0.5615  
G01 X-0.3285 Y0.5841  
G00 Z0.1000  
G00 X-0.2285 Y0.8841  
G01 Z-0.0070 F10    
G01 X-0.2285 Y0.9159  F20    
G01 X-0.2254 Y0.9191  
G01 X-0.2448 Y0.9385  
G01 X-0.4348 Y0.9385  
G01 X-0.4415 Y0.9452  
G01 X-0.4715 Y0.9752  
G01 X-0.4715 Y0.9848  
G01 X-0.4715 Y1.0152  
G01 X-0.4948 Y1.0385  
G01 X-1.2045 Y1.0385  
G01 X-1.2045 Y1.0331  
G01 X-1.2098 Y1.0205  
G01 X-1.2195 Y1.0108  
G01 X-1.2321 Y1.0055  
G01 X-1.3079 Y1.0055  
G01 X-1.3205 Y1.0108  
G01 X-1.3302 Y1.0205  
G01 X-1.3355 Y1.0331  
G01 X-1.3355 Y1.0469  
G01 X-1.3302 Y1.0595  
G01 X-1.3205 Y1.0692  
G01 X-1.3079 Y1.0745  
G01 X-1.2321 Y1.0745  
G01 X-1.2195 Y1.0692  
G01 X-1.2117 Y1.0615  
G01 X-0.4948 Y1.0615  
G01 X-0.4852 Y1.0615  
G01 X-0.4552 Y1.0315  
G01 X-0.4485 Y1.0248  
G01 X-0.4485 Y0.9848  
G01 X-0.4252 Y0.9615  
G01 X-0.2448 Y0.9615  
G01 X-0.2352 Y0.9615  
G01 X-0.2091 Y0.9354  
G01 X-0.2059 Y0.9385  
G01 X-0.1741 Y0.9385  
G01 X-0.1515 Y0.9159  
G01 X-0.1515 Y0.8841  
G01 X-0.1741 Y0.8615  
G01 X-0.2059 Y0.8615  
G01 X-0.2285 Y0.8841  
G00 Z0.1000  
G00 X-0.2285 Y0.6841  
G01 Z-0.0070 F10    
G01 X-0.2285 Y0.7159  F20    
G01 X-0.2059 Y0.7385  
G01 X-0.1741 Y0.7385  
G01 X-0.1515 Y0.7159  
G01 X-0.1515 Y0.6841  
G01 X-0.1741 Y0.6615  
G01 X-0.2059 Y0.6615  
G01 X-0.2285 Y0.6841  
G00 Z0.1000  
G00 X-0.2285 Y0.5841  
G01 Z-0.0070 F10    
G01 X-0.2285 Y0.6159  F20    
G01 X-0.2059 Y0.6385  
G01 X-0.1741 Y0.6385  
G01 X-0.1515 Y0.6159  
G01 X-0.1515 Y0.5841  
G01 X-0.1741 Y0.5615  
G01 X-0.2059 Y0.5615  
G01 X-0.2285 Y0.5841  
G00 Z0.1000  
G00 X-0.2285 Y0.3841  
G01 Z-0.0070 F10    
G01 X-0.2285 Y0.4159  F20    
G01 X-0.2059 Y0.4385  
G01 X-0.1741 Y0.4385  
G01 X-0.1515 Y0.4159  
G01 X-0.1515 Y0.3841  
G01 X-0.1741 Y0.3615  
G01 X-0.1822 Y0.3615  
G01 X-0.4985 Y0.0452  
G01 X-0.5052 Y0.0385  
G01 X-2.0498 Y0.0385  
G01 X-2.0565 Y0.0452  
G01 X-2.0698 Y0.0585  
G01 X-2.0765 Y0.0652  
G01 X-2.0765 Y0.3740  
G01 X-2.1536 Y0.4285  
G01 X-2.1548 Y0.4285  
G01 X-2.1574 Y0.4312  
G01 X-2.1605 Y0.4334  
G01 X-2.1607 Y0.4344  
G01 X-2.1615 Y0.4352  
G01 X-2.1615 Y0.4390  
G01 X-2.1621 Y0.4427  
G01 X-2.1615 Y0.4436  
G01 X-2.1615 Y0.5252  
G01 X-2.1615 Y0.5348  
G01 X-2.0948 Y0.6015  
G01 X-2.0852 Y0.6015  
G01 X-1.7548 Y0.6015  
G01 X-1.7215 Y0.6348  
G01 X-1.7215 Y0.9148  
G01 X-1.7148 Y0.9215  
G01 X-1.6915 Y0.9448  
G01 X-1.6848 Y0.9515  
G01 X-1.6336 Y0.9515  
G01 X-1.6302 Y0.9595  
G01 X-1.6205 Y0.9692  
G01 X-1.6079 Y0.9745  
G01 X-1.5321 Y0.9745  
G01 X-1.5195 Y0.9692  
G01 X-1.5098 Y0.9595  
G01 X-1.5045 Y0.9469  
G01 X-1.5045 Y0.9331  
G01 X-1.5098 Y0.9205  
G01 X-1.5195 Y0.9108  
G01 X-1.5321 Y0.9055  
G01 X-1.6079 Y0.9055  
G01 X-1.6205 Y0.9108  
G01 X-1.6302 Y0.9205  
G01 X-1.6336 Y0.9285  
G01 X-1.6752 Y0.9285  
G01 X-1.6985 Y0.9052  
G01 X-1.6985 Y0.6348  
G01 X-1.6985 Y0.6252  
G01 X-1.7385 Y0.5852  
G01 X-1.7452 Y0.5785  
G01 X-2.0852 Y0.5785  
G01 X-2.1385 Y0.5252  
G01 X-2.1385 Y0.4460  
G01 X-2.0614 Y0.3915  
G01 X-2.0602 Y0.3915  
G01 X-2.0576 Y0.3888  
G01 X-2.0545 Y0.3866  
G01 X-2.0543 Y0.3856  
G01 X-2.0535 Y0.3848  
G01 X-2.0535 Y0.3810  
G01 X-2.0529 Y0.3773  
G01 X-2.0535 Y0.3764  
G01 X-2.0535 Y0.0748  
G01 X-2.0402 Y0.0615  
G01 X-0.5148 Y0.0615  
G01 X-0.2104 Y0.3659  
G01 X-0.2285 Y0.3841  
G00 Z0.1000  
G00 X-0.8379 Y0.4045  
G01 Z-0.0070 F10    
G01 X-0.7621 Y0.4045  F20    
G01 X-0.7495 Y0.3992  
G01 X-0.7457 Y0.3955  
G01 X-0.6998 Y0.4415  
G01 X-0.6902 Y0.4415  
G01 X-0.5598 Y0.4415  
G01 X-0.4915 Y0.5098  
G01 X-0.4915 Y0.5148  
G01 X-0.4848 Y0.5215  
G01 X-0.3448 Y0.6615  
G01 X-0.3352 Y0.6615  
G01 X-0.1738 Y0.6615  
G01 X-0.1415 Y0.6857  
G01 X-0.1415 Y0.8142  
G01 X-0.1738 Y0.8385  
G01 X-0.2352 Y0.8385  
G01 X-0.2448 Y0.8385  
G01 X-0.2709 Y0.8646  
G01 X-0.2741 Y0.8615  
G01 X-0.3059 Y0.8615  
G01 X-0.3285 Y0.8841  
G01 X-0.3285 Y0.9159  
G01 X-0.3059 Y0.9385  
G01 X-0.2741 Y0.9385  
G01 X-0.2515 Y0.9159  
G01 X-0.2515 Y0.8841  
G01 X-0.2546 Y0.8809  
G01 X-0.2352 Y0.8615  
G01 X-0.1708 Y0.8615  
G01 X-0.1669 Y0.8621  
G01 X-0.1662 Y0.8615  
G01 X-0.1652 Y0.8615  
G01 X-0.1624 Y0.8587  
G01 X-0.1262 Y0.8315  
G01 X-0.1252 Y0.8315  
G01 X-0.1224 Y0.8287  
G01 X-0.1193 Y0.8263  
G01 X-0.1192 Y0.8254  
G01 X-0.1185 Y0.8248  
G01 X-0.1185 Y0.8208  
G01 X-0.1179 Y0.8169  
G01 X-0.1185 Y0.8162  
G01 X-0.1185 Y0.6838  
G01 X-0.1179 Y0.6831  
G01 X-0.1185 Y0.6792  
G01 X-0.1185 Y0.6752  
G01 X-0.1192 Y0.6746  
G01 X-0.1193 Y0.6737  
G01 X-0.1224 Y0.6713  
G01 X-0.1252 Y0.6685  
G01 X-0.1262 Y0.6685  
G01 X-0.1624 Y0.6413  
G01 X-0.1652 Y0.6385  
G01 X-0.1662 Y0.6385  
G01 X-0.1669 Y0.6379  
G01 X-0.1708 Y0.6385  
G01 X-0.3352 Y0.6385  
G01 X-0.4685 Y0.5052  
G01 X-0.4685 Y0.5002  
G01 X-0.5435 Y0.4252  
G01 X-0.5502 Y0.4185  
G01 X-0.6902 Y0.4185  
G01 X-0.7345 Y0.3742  
G01 X-0.7345 Y0.3631  
G01 X-0.7398 Y0.3505  
G01 X-0.7495 Y0.3408  
G01 X-0.7621 Y0.3355  
G01 X-0.8379 Y0.3355  
G01 X-0.8505 Y0.3408  
G01 X-0.8602 Y0.3505  
G01 X-0.8655 Y0.3631  
G01 X-0.8655 Y0.3769  
G01 X-0.8602 Y0.3895  
G01 X-0.8505 Y0.3992  
G01 X-0.8379 Y0.4045  
G00 Z0.1000  
G00 X-2.3535 Y1.0078  
G01 Z-0.0070 F10    
G01 X-2.3535 Y1.0522  F20    
G01 X-2.3222 Y1.0835  
G01 X-2.2778 Y1.0835  
G01 X-2.2465 Y1.0522  
G01 X-2.2465 Y1.0498  
G01 X-2.1815 Y1.1148  
G01 X-2.1748 Y1.1215  
G01 X-2.1648 Y1.1215  
G01 X-2.1215 Y1.1648  
G01 X-2.1148 Y1.1715  
G01 X-1.9248 Y1.1715  
G01 X-1.9152 Y1.1715  
G01 X-1.7752 Y1.0315  
G01 X-1.7248 Y1.0315  
G01 X-1.6448 Y1.1115  
G01 X-1.6352 Y1.1115  
G01 X-1.5052 Y1.1115  
G01 X-1.4985 Y1.1048  
G01 X-1.4685 Y1.0748  
G01 X-1.4685 Y1.0652  
G01 X-1.4685 Y1.0446  
G01 X-1.3669 Y0.9381  
G01 X-1.3635 Y0.9348  
G01 X-1.3635 Y0.9346  
G01 X-1.3634 Y0.9345  
G01 X-1.3635 Y0.9299  
G01 X-1.3635 Y0.7753  
G01 X-1.3357 Y0.7515  
G01 X-1.3336 Y0.7515  
G01 X-1.3302 Y0.7595  
G01 X-1.3205 Y0.7692  
G01 X-1.3079 Y0.7745  
G01 X-1.2321 Y0.7745  
G01 X-1.2195 Y0.7692  
G01 X-1.2098 Y0.7595  
G01 X-1.2045 Y0.7469  
G01 X-1.2045 Y0.7331  
G01 X-1.2098 Y0.7205  
G01 X-1.2195 Y0.7108  
G01 X-1.2321 Y0.7055  
G01 X-1.3079 Y0.7055  
G01 X-1.3205 Y0.7108  
G01 X-1.3302 Y0.7205  
G01 X-1.3336 Y0.7285  
G01 X-1.3396 Y0.7285  
G01 X-1.3439 Y0.7282  
G01 X-1.3443 Y0.7285  
G01 X-1.3448 Y0.7285  
G01 X-1.3478 Y0.7316  
G01 X-1.3793 Y0.7585  
G01 X-1.3798 Y0.7585  
G01 X-1.3828 Y0.7616  
G01 X-1.3861 Y0.7644  
G01 X-1.3861 Y0.7649  
G01 X-1.3865 Y0.7652  
G01 X-1.3865 Y0.7696  
G01 X-1.3868 Y0.7739  
G01 X-1.3865 Y0.7743  
G01 X-1.3865 Y0.9254  
G01 X-1.4881 Y1.0319  
G01 X-1.4915 Y1.0352  
G01 X-1.4915 Y1.0354  
G01 X-1.4916 Y1.0355  
G01 X-1.4915 Y1.0401  
G01 X-1.4915 Y1.0652  
G01 X-1.5148 Y1.0885  
G01 X-1.6352 Y1.0885  
G01 X-1.7085 Y1.0152  
G01 X-1.7152 Y1.0085  
G01 X-1.7752 Y1.0085  
G01 X-1.7848 Y1.0085  
G01 X-1.9248 Y1.1485  
G01 X-2.1052 Y1.1485  
G01 X-2.1485 Y1.1052  
G01 X-2.1552 Y1.0985  
G01 X-2.1652 Y1.0985  
G01 X-2.2385 Y1.0252  
G01 X-2.2452 Y1.0185  
G01 X-2.2465 Y1.0185  
G01 X-2.2465 Y1.0078  
G01 X-2.2778 Y0.9765  
G01 X-2.3222 Y0.9765  
G01 X-2.3535 Y1.0078  
G00 Z0.1000  
G00 X-0.1702 Y0.5376  
G01 Z-0.0070 F10    
G01 X-0.1724 Y0.5385  F20    
G01 X-0.3302 Y0.5385  
G01 X-0.5135 Y0.3552  
G01 X-0.5202 Y0.3485  
G01 X-0.6502 Y0.3485  
G01 X-0.6935 Y0.3052  
G01 X-0.7002 Y0.2985  
G01 X-0.9252 Y0.2985  
G01 X-0.9348 Y0.2985  
G01 X-0.9752 Y0.2985  
G01 X-1.0052 Y0.2685  
G01 X-1.0148 Y0.2685  
G01 X-1.0345 Y0.2685  
G01 X-1.0345 Y0.2631  
G01 X-1.0398 Y0.2505  
G01 X-1.0495 Y0.2408  
G01 X-1.0621 Y0.2355  
G01 X-1.1379 Y0.2355  
G01 X-1.1505 Y0.2408  
G01 X-1.1602 Y0.2505  
G01 X-1.1655 Y0.2631  
G01 X-1.1655 Y0.2769  
G01 X-1.1648 Y0.2785  
G01 X-1.2089 Y0.3226  
G01 X-1.2098 Y0.3205  
G01 X-1.2195 Y0.3108  
G01 X-1.2321 Y0.3055  
G01 X-1.2485 Y0.3055  
G01 X-1.2485 Y0.2573  
G01 X-1.2355 Y0.2443  
G01 X-1.2355 Y0.2157  
G01 X-1.2557 Y0.1955  
G01 X-1.2843 Y0.1955  
G01 X-1.3045 Y0.2157  
G01 X-1.3045 Y0.2443  
G01 X-1.2843 Y0.2645  
G01 X-1.2715 Y0.2645  
G01 X-1.2715 Y0.3055  
G01 X-1.3079 Y0.3055  
G01 X-1.3205 Y0.3108  
G01 X-1.3302 Y0.3205  
G01 X-1.3355 Y0.3331  
G01 X-1.3355 Y0.3469  
G01 X-1.3302 Y0.3595  
G01 X-1.3205 Y0.3692  
G01 X-1.3079 Y0.3745  
G01 X-1.2321 Y0.3745  
G01 X-1.2195 Y0.3692  
G01 X-1.2098 Y0.3595  
G01 X-1.2073 Y0.3535  
G01 X-1.1518 Y0.2980  
G01 X-1.1505 Y0.2992  
G01 X-1.1379 Y0.3045  
G01 X-1.0621 Y0.3045  
G01 X-1.0495 Y0.2992  
G01 X-1.0417 Y0.2915  
G01 X-1.0148 Y0.2915  
G01 X-0.9848 Y0.3215  
G01 X-0.9752 Y0.3215  
G01 X-0.9365 Y0.3215  
G01 X-0.9365 Y0.4248  
G01 X-0.9298 Y0.4315  
G01 X-0.9202 Y0.4315  
G01 X-0.8198 Y0.4315  
G01 X-0.6815 Y0.5698  
G01 X-0.6815 Y0.6852  
G01 X-0.7523 Y0.7560  
G01 X-0.7559 Y0.7546  
G01 X-0.7696 Y0.7546  
G01 X-0.7823 Y0.7598  
G01 X-0.7920 Y0.7695  
G01 X-0.7973 Y0.7822  
G01 X-0.7973 Y0.8579  
G01 X-0.7920 Y0.8706  
G01 X-0.7823 Y0.8803  
G01 X-0.7696 Y0.8856  
G01 X-0.7559 Y0.8856  
G01 X-0.7432 Y0.8803  
G01 X-0.7335 Y0.8706  
G01 X-0.7283 Y0.8579  
G01 X-0.7283 Y0.7822  
G01 X-0.7334 Y0.7697  
G01 X-0.6585 Y0.6948  
G01 X-0.6585 Y0.6852  
G01 X-0.6585 Y0.5698  
G01 X-0.6585 Y0.5602  
G01 X-0.8035 Y0.4152  
G01 X-0.8102 Y0.4085  
G01 X-0.9135 Y0.4085  
G01 X-0.9135 Y0.3215  
G01 X-0.7098 Y0.3215  
G01 X-0.6598 Y0.3715  
G01 X-0.6502 Y0.3715  
G01 X-0.5298 Y0.3715  
G01 X-0.3398 Y0.5615  
G01 X-0.3302 Y0.5615  
G01 X-0.1722 Y0.5615  
G01 X-0.1515 Y0.5698  
G01 X-0.1498 Y0.5715  
G01 X-0.1115 Y0.6098  
G01 X-0.1115 Y0.9100  
G01 X-0.1701 Y0.9654  
G01 X-0.1741 Y0.9615  
G01 X-0.2059 Y0.9615  
G01 X-0.2285 Y0.9841  
G01 X-0.2285 Y1.0159  
G01 X-0.2229 Y1.0216  
G01 X-0.3498 Y1.1485  
G01 X-1.0881 Y1.1485  
G01 X-1.0909 Y1.1476  
G01 X-1.0927 Y1.1485  
G01 X-1.0948 Y1.1485  
G01 X-1.0952 Y1.1490  
G01 X-1.1037 Y1.1406  
G01 X-1.1207 Y1.1335  
G01 X-1.1392 Y1.1335  
G01 X-1.1563 Y1.1406  
G01 X-1.1694 Y1.1537  
G01 X-1.1765 Y1.1707  
G01 X-1.1765 Y1.1892  
G01 X-1.1704 Y1.2041  
G01 X-1.2048 Y1.2385  
G01 X-1.2452 Y1.2385  
G01 X-1.3152 Y1.1685  
G01 X-1.3248 Y1.1685  
G01 X-1.3555 Y1.1685  
G01 X-1.3555 Y1.1557  
G01 X-1.3757 Y1.1355  
G01 X-1.4043 Y1.1355  
G01 X-1.4245 Y1.1557  
G01 X-1.4245 Y1.1843  
G01 X-1.4043 Y1.2045  
G01 X-1.3757 Y1.2045  
G01 X-1.3627 Y1.1915  
G01 X-1.3248 Y1.1915  
G01 X-1.2615 Y1.2548  
G01 X-1.2548 Y1.2615  
G01 X-1.2048 Y1.2615  
G01 X-1.1952 Y1.2615  
G01 X-1.1541 Y1.2204  
G01 X-1.1392 Y1.2265  
G01 X-1.1207 Y1.2265  
G01 X-1.1037 Y1.2194  
G01 X-1.0906 Y1.2063  
G01 X-1.0835 Y1.1892  
G01 X-1.0835 Y1.1715  
G01 X-0.3498 Y1.1715  
G01 X-0.3402 Y1.1715  
G01 X-0.2066 Y1.0379  
G01 X-0.2059 Y1.0385  
G01 X-0.1741 Y1.0385  
G01 X-0.1515 Y1.0159  
G01 X-0.1515 Y0.9841  
G01 X-0.1539 Y0.9817  
G01 X-0.0954 Y0.9265  
G01 X-0.0952 Y0.9265  
G01 X-0.0919 Y0.9232  
G01 X-0.0886 Y0.9201  
G01 X-0.0886 Y0.9199  
G01 X-0.0885 Y0.9198  
G01 X-0.0885 Y0.9151  
G01 X-0.0884 Y0.9106  
G01 X-0.0885 Y0.9104  
G01 X-0.0885 Y0.6002  
G01 X-0.0952 Y0.5935  
G01 X-0.1287 Y0.5600  
G01 X-0.1285 Y0.5598  
G01 X-0.1285 Y0.3648  
G01 X-0.1285 Y0.3552  
G01 X-0.4752 Y0.0085  
G01 X-0.4848 Y0.0085  
G01 X-2.2348 Y0.0085  
G01 X-2.2415 Y0.0152  
G01 X-2.3348 Y0.1085  
G01 X-2.3415 Y0.1152  
G01 X-2.3415 Y0.3452  
G01 X-2.3415 Y0.3548  
G01 X-2.3415 Y0.7752  
G01 X-2.3415 Y0.7848  
G01 X-2.2798 Y0.8465  
G01 X-2.2702 Y0.8465  
G01 X-2.1898 Y0.8465  
G01 X-2.0410 Y0.9953  
G01 X-2.0535 Y1.0078  
G01 X-2.0535 Y1.0522  
G01 X-2.0222 Y1.0835  
G01 X-1.9778 Y1.0835  
G01 X-1.9465 Y1.0522  
G01 X-1.9465 Y1.0078  
G01 X-1.9778 Y0.9765  
G01 X-2.0222 Y0.9765  
G01 X-2.0247 Y0.9790  
G01 X-2.1735 Y0.8302  
G01 X-2.1802 Y0.8235  
G01 X-2.2702 Y0.8235  
G01 X-2.3185 Y0.7752  
G01 X-2.3185 Y0.3615  
G01 X-2.2136 Y0.3615  
G01 X-2.2102 Y0.3695  
G01 X-2.2005 Y0.3792  
G01 X-2.1879 Y0.3845  
G01 X-2.1121 Y0.3845  
G01 X-2.0995 Y0.3792  
G01 X-2.0898 Y0.3695  
G01 X-2.0845 Y0.3569  
G01 X-2.0845 Y0.3431  
G01 X-2.0898 Y0.3305  
G01 X-2.0995 Y0.3208  
G01 X-2.1030 Y0.3193  
G01 X-2.0985 Y0.3148  
G01 X-2.0985 Y0.3052  
G01 X-2.0985 Y0.2783  
G01 X-2.0898 Y0.2695  
G01 X-2.0845 Y0.2569  
G01 X-2.0845 Y0.2431  
G01 X-2.0898 Y0.2305  
G01 X-2.0995 Y0.2208  
G01 X-2.1030 Y0.2193  
G01 X-2.0985 Y0.2148  
G01 X-2.0985 Y0.2052  
G01 X-2.0985 Y0.1783  
G01 X-2.0898 Y0.1695  
G01 X-2.0845 Y0.1569  
G01 X-2.0845 Y0.1431  
G01 X-2.0898 Y0.1305  
G01 X-2.0995 Y0.1208  
G01 X-2.1121 Y0.1155  
G01 X-2.1879 Y0.1155  
G01 X-2.2005 Y0.1208  
G01 X-2.2102 Y0.1305  
G01 X-2.2155 Y0.1431  
G01 X-2.2155 Y0.1569  
G01 X-2.2102 Y0.1695  
G01 X-2.2005 Y0.1792  
G01 X-2.1879 Y0.1845  
G01 X-2.1215 Y0.1845  
G01 X-2.1215 Y0.2052  
G01 X-2.1318 Y0.2155  
G01 X-2.1879 Y0.2155  
G01 X-2.2005 Y0.2208  
G01 X-2.2102 Y0.2305  
G01 X-2.2155 Y0.2431  
G01 X-2.2155 Y0.2569  
G01 X-2.2102 Y0.2695  
G01 X-2.2005 Y0.2792  
G01 X-2.1879 Y0.2845  
G01 X-2.1215 Y0.2845  
G01 X-2.1215 Y0.3052  
G01 X-2.1318 Y0.3155  
G01 X-2.1879 Y0.3155  
G01 X-2.2005 Y0.3208  
G01 X-2.2102 Y0.3305  
G01 X-2.2136 Y0.3385  
G01 X-2.3185 Y0.3385  
G01 X-2.3185 Y0.1248  
G01 X-2.2252 Y0.0315  
G01 X-0.4848 Y0.0315  
G01 X-0.1515 Y0.3648  
G01 X-0.1515 Y0.5450  
G01 X-0.1635 Y0.5402  
G01 X-0.1652 Y0.5385  
G01 X-0.1678 Y0.5385  
G01 X-0.1702 Y0.5376  
G00 Z0.1000  
G00 X-2.0590 Y0.3945  
G01 Z-0.0070 F10    
G01 X-2.0556 Y0.3911  F20    
G01 X-2.0517 Y0.3884  
G01 X-2.0515 Y0.3870  
G01 X-2.0505 Y0.3860  
G01 X-2.0505 Y0.3812  
G01 X-2.0497 Y0.3765  
G01 X-2.0505 Y0.3754  
G01 X-2.0505 Y0.0760  
G01 X-2.0390 Y0.0645  
G01 X-0.5160 Y0.0645  
G01 X-0.2146 Y0.3659  
G01 X-0.2255 Y0.3768  
G01 X-0.2255 Y0.3690  
G01 X-0.5290 Y0.0655  
G01 X-0.5410 Y0.0655  
G01 X-1.9160 Y0.0655  
G01 X-1.9245 Y0.0740  
G01 X-2.0160 Y0.1655  
G01 X-2.0245 Y0.1740  
G01 X-2.0245 Y0.3890  
G01 X-2.0360 Y0.4005  
G01 X-2.0540 Y0.4005  
G01 X-2.0660 Y0.4005  
G01 X-2.1245 Y0.4590  
G01 X-2.1245 Y0.4710  
G01 X-2.1245 Y0.5160  
G01 X-2.1160 Y0.5245  
G01 X-2.0845 Y0.5560  
G01 X-2.0760 Y0.5645  
G01 X-1.6960 Y0.5645  
G01 X-1.6745 Y0.5860  
G01 X-1.6745 Y0.7140  
G01 X-1.6745 Y0.7260  
G01 X-1.6595 Y0.7410  
G01 X-1.6510 Y0.7495  
G01 X-1.6376 Y0.7495  
G01 X-1.6328 Y0.7612  
G01 X-1.6222 Y0.7718  
G01 X-1.6133 Y0.7755  
G01 X-1.6240 Y0.7755  
G01 X-1.6360 Y0.7755  
G01 X-1.6560 Y0.7955  
G01 X-1.6645 Y0.8040  
G01 X-1.6645 Y0.8540  
G01 X-1.6645 Y0.8660  
G01 X-1.6345 Y0.8960  
G01 X-1.6260 Y0.9045  
G01 X-1.6133 Y0.9045  
G01 X-1.6222 Y0.9082  
G01 X-1.6328 Y0.9188  
G01 X-1.6356 Y0.9255  
G01 X-1.6740 Y0.9255  
G01 X-1.6955 Y0.9040  
G01 X-1.6955 Y0.6360  
G01 X-1.6955 Y0.6240  
G01 X-1.7355 Y0.5840  
G01 X-1.7440 Y0.5755  
G01 X-2.0840 Y0.5755  
G01 X-2.1355 Y0.5240  
G01 X-2.1355 Y0.4475  
G01 X-2.0604 Y0.3945  
G01 X-2.0590 Y0.3945  
G00 Z0.1000  
G00 X-1.4140 Y1.1345  
G01 Z-0.0070 F10    
G01 X-1.4075 Y1.1345  F20    
G01 X-1.4255 Y1.1525  
G01 X-1.4255 Y1.1460  
G01 X-1.4140 Y1.1345  
G00 Z0.1000  
G00 X-1.3133 Y1.0045  
G01 Z-0.0070 F10    
G01 X-1.3222 Y1.0082  F20    
G01 X-1.3328 Y1.0188  
G01 X-1.3385 Y1.0325  
G01 X-1.3385 Y1.0475  
G01 X-1.3328 Y1.0612  
G01 X-1.3222 Y1.0718  
G01 X-1.3085 Y1.0775  
G01 X-1.2315 Y1.0775  
G01 X-1.2178 Y1.0718  
G01 X-1.2105 Y1.0645  
G01 X-0.4960 Y1.0645  
G01 X-0.4840 Y1.0645  
G01 X-0.4540 Y1.0345  
G01 X-0.4455 Y1.0260  
G01 X-0.4455 Y1.0175  
G01 X-0.4368 Y1.0263  
G01 X-0.5060 Y1.0955  
G01 X-1.1540 Y1.0955  
G01 X-1.1660 Y1.0955  
G01 X-1.2052 Y1.1347  
G01 X-1.2095 Y1.1305  
G01 X-1.2505 Y1.1305  
G01 X-1.2647 Y1.1447  
G01 X-1.2955 Y1.1140  
G01 X-1.3040 Y1.1055  
G01 X-1.4140 Y1.1055  
G01 X-1.4260 Y1.1055  
G01 X-1.4460 Y1.1255  
G01 X-1.4545 Y1.1340  
G01 X-1.4545 Y1.1525  
G01 X-1.4732 Y1.1337  
G01 X-1.3440 Y1.0045  
G01 X-1.3340 Y1.0045  
G01 X-1.3133 Y1.0045  
G00 Z0.1000  
G00 X-1.3222 Y0.9718  
G01 Z-0.0070 F10    
G01 X-1.3133 Y0.9755  F20    
G01 X-1.3305 Y0.9755  
G01 X-1.3305 Y0.9635  
G01 X-1.3222 Y0.9718  
G00 Z0.1000  
G00 X-1.3222 Y0.8718  
G01 Z-0.0070 F10    
G01 X-1.3085 Y0.8775  F20    
G01 X-1.2315 Y0.8775  
G01 X-1.2178 Y0.8718  
G01 X-1.2082 Y0.8623  
G01 X-1.1560 Y0.9145  
G01 X-1.1440 Y0.9145  
G01 X-0.4940 Y0.9145  
G01 X-0.4855 Y0.9060  
G01 X-0.3440 Y0.7645  
G01 X-0.3132 Y0.7645  
G01 X-0.3315 Y0.7828  
G01 X-0.3315 Y0.7854  
G01 X-0.3353 Y0.7855  
G01 X-0.3410 Y0.7855  
G01 X-0.3412 Y0.7857  
G01 X-0.3415 Y0.7857  
G01 X-0.3454 Y0.7899  
G01 X-0.3495 Y0.7940  
G01 X-0.3495 Y0.7943  
G01 X-0.4713 Y0.9255  
G01 X-1.2044 Y0.9255  
G01 X-1.2072 Y0.9188  
G01 X-1.2178 Y0.9082  
G01 X-1.2315 Y0.9025  
G01 X-1.3085 Y0.9025  
G01 X-1.3222 Y0.9082  
G01 X-1.3305 Y0.9165  
G01 X-1.3305 Y0.8635  
G01 X-1.3222 Y0.8718  
G00 Z0.1000  
G00 X-1.3222 Y0.8082  
G01 Z-0.0070 F10    
G01 X-1.3305 Y0.8165  F20    
G01 X-1.3305 Y0.8110  
G01 X-1.3240 Y0.8045  
G01 X-1.3133 Y0.8045  
G01 X-1.3222 Y0.8082  
G00 Z0.1000  
G00 X-0.9577 Y0.8585  
G01 Z-0.0070 F10    
G01 X-0.9520 Y0.8723  F20    
G01 X-0.9415 Y0.8828  
G01 X-0.9351 Y0.8855  
G01 X-1.1440 Y0.8855  
G01 X-1.1955 Y0.8340  
G01 X-1.2040 Y0.8255  
G01 X-1.2044 Y0.8255  
G01 X-1.2072 Y0.8188  
G01 X-1.2178 Y0.8082  
G01 X-1.2267 Y0.8045  
G01 X-1.2010 Y0.8045  
G01 X-1.1795 Y0.8260  
G01 X-1.1710 Y0.8345  
G01 X-0.9577 Y0.8345  
G01 X-0.9577 Y0.8585  
G00 Z0.1000  
G00 X-1.2178 Y0.7718  
G01 Z-0.0070 F10    
G01 X-1.2072 Y0.7612  F20    
G01 X-1.2015 Y0.7475  
G01 X-1.2015 Y0.7325  
G01 X-1.2072 Y0.7188  
G01 X-1.2178 Y0.7082  
G01 X-1.2267 Y0.7045  
G01 X-0.9560 Y0.7045  
G01 X-0.9295 Y0.7310  
G01 X-0.9210 Y0.7395  
G01 X-0.8810 Y0.7395  
G01 X-0.8630 Y0.7575  
G01 X-0.8733 Y0.7678  
G01 X-0.8790 Y0.7816  
G01 X-0.8790 Y0.8585  
G01 X-0.8733 Y0.8723  
G01 X-0.8627 Y0.8828  
G01 X-0.8563 Y0.8855  
G01 X-0.9054 Y0.8855  
G01 X-0.8990 Y0.8828  
G01 X-0.8884 Y0.8723  
G01 X-0.8827 Y0.8585  
G01 X-0.8827 Y0.7816  
G01 X-0.8884 Y0.7678  
G01 X-0.8990 Y0.7573  
G01 X-0.9128 Y0.7516  
G01 X-0.9277 Y0.7516  
G01 X-0.9415 Y0.7573  
G01 X-0.9520 Y0.7678  
G01 X-0.9577 Y0.7816  
G01 X-0.9577 Y0.8055  
G01 X-1.1590 Y0.8055  
G01 X-1.1890 Y0.7755  
G01 X-1.2010 Y0.7755  
G01 X-1.2267 Y0.7755  
G01 X-1.2178 Y0.7718  
G00 Z0.1000  
G00 X-2.3565 Y1.0066  
G01 Z-0.0070 F10    
G01 X-2.3565 Y1.0534  F20    
G01 X-2.3234 Y1.0865  
G01 X-2.2766 Y1.0865  
G01 X-2.2453 Y1.0552  
G01 X-2.1845 Y1.1160  
G01 X-2.1760 Y1.1245  
G01 X-2.1660 Y1.1245  
G01 X-2.1245 Y1.1660  
G01 X-2.1160 Y1.1745  
G01 X-1.9260 Y1.1745  
G01 X-1.9140 Y1.1745  
G01 X-1.7740 Y1.0345  
G01 X-1.7260 Y1.0345  
G01 X-1.6460 Y1.1145  
G01 X-1.6340 Y1.1145  
G01 X-1.5040 Y1.1145  
G01 X-1.4955 Y1.1060  
G01 X-1.4655 Y1.0760  
G01 X-1.4655 Y1.0640  
G01 X-1.4655 Y1.0458  
G01 X-1.3647 Y0.9402  
G01 X-1.3605 Y0.9360  
G01 X-1.3605 Y0.9358  
G01 X-1.3604 Y0.9357  
G01 X-1.3605 Y0.9298  
G01 X-1.3605 Y0.7767  
G01 X-1.3353 Y0.7551  
G01 X-1.3328 Y0.7612  
G01 X-1.3222 Y0.7718  
G01 X-1.3133 Y0.7755  
G01 X-1.3360 Y0.7755  
G01 X-1.3445 Y0.7840  
G01 X-1.3595 Y0.7990  
G01 X-1.3595 Y0.8110  
G01 X-1.3595 Y0.9790  
G01 X-1.5045 Y1.1240  
G01 X-1.5045 Y1.1325  
G01 X-1.5055 Y1.1325  
G01 X-1.5275 Y1.1545  
G01 X-1.5275 Y1.1855  
G01 X-1.7076 Y1.1855  
G01 X-1.7111 Y1.1843  
G01 X-1.7134 Y1.1855  
G01 X-1.7145 Y1.1855  
G01 X-1.7220 Y1.1780  
G01 X-1.7401 Y1.1705  
G01 X-1.7598 Y1.1705  
G01 X-1.7780 Y1.1780  
G01 X-1.7920 Y1.1920  
G01 X-1.7995 Y1.2101  
G01 X-1.7995 Y1.2298  
G01 X-1.7923 Y1.2472  
G01 X-1.8055 Y1.2340  
G01 X-1.8055 Y1.1960  
G01 X-1.7747 Y1.1652  
G01 X-1.7705 Y1.1695  
G01 X-1.7295 Y1.1695  
G01 X-1.7005 Y1.1405  
G01 X-1.7005 Y1.0995  
G01 X-1.7295 Y1.0705  
G01 X-1.7705 Y1.0705  
G01 X-1.7995 Y1.0995  
G01 X-1.7995 Y1.1405  
G01 X-1.7952 Y1.1447  
G01 X-1.8260 Y1.1755  
G01 X-2.2940 Y1.1755  
G01 X-2.3955 Y1.0740  
G01 X-2.3955 Y0.9960  
G01 X-2.3540 Y0.9545  
G01 X-2.1960 Y0.9545  
G01 X-2.1145 Y1.0360  
G01 X-2.1145 Y1.0660  
G01 X-2.1060 Y1.0745  
G01 X-2.0460 Y1.1345  
G01 X-2.0340 Y1.1345  
G01 X-1.9640 Y1.1345  
G01 X-1.9555 Y1.1260  
G01 X-1.9055 Y1.0760  
G01 X-1.9055 Y1.0640  
G01 X-1.9055 Y0.9910  
G01 X-1.8840 Y0.9695  
G01 X-1.7940 Y0.9695  
G01 X-1.7360 Y0.9695  
G01 X-1.6710 Y1.0345  
G01 X-1.6590 Y1.0345  
G01 X-1.6385 Y1.0345  
G01 X-1.6385 Y1.0475  
G01 X-1.6328 Y1.0612  
G01 X-1.6222 Y1.0718  
G01 X-1.6085 Y1.0775  
G01 X-1.5315 Y1.0775  
G01 X-1.5178 Y1.0718  
G01 X-1.5072 Y1.0612  
G01 X-1.5015 Y1.0475  
G01 X-1.5015 Y1.0325  
G01 X-1.5016 Y1.0322  
G01 X-1.4996 Y1.0301  
G01 X-1.4955 Y1.0260  
G01 X-1.4955 Y1.0258  
G01 X-1.3947 Y0.9202  
G01 X-1.3905 Y0.9160  
G01 X-1.3905 Y0.9158  
G01 X-1.3904 Y0.9157  
G01 X-1.3905 Y0.9098  
G01 X-1.3905 Y0.5510  
G01 X-1.3855 Y0.5460  
G01 X-1.3855 Y0.5340  
G01 X-1.3905 Y0.5290  
G01 X-1.3905 Y0.5045  
G01 X-1.3133 Y0.5045  
G01 X-1.3222 Y0.5082  
G01 X-1.3328 Y0.5188  
G01 X-1.3385 Y0.5325  
G01 X-1.3385 Y0.5475  
G01 X-1.3328 Y0.5612  
G01 X-1.3323 Y0.5618  
G01 X-1.3745 Y0.6040  
G01 X-1.3745 Y0.6160  
G01 X-1.3745 Y0.6660  
G01 X-1.3660 Y0.6745  
G01 X-1.3360 Y0.7045  
G01 X-1.3240 Y0.7045  
G01 X-1.3133 Y0.7045  
G01 X-1.3222 Y0.7082  
G01 X-1.3328 Y0.7188  
G01 X-1.3356 Y0.7255  
G01 X-1.3394 Y0.7255  
G01 X-1.3449 Y0.7251  
G01 X-1.3454 Y0.7255  
G01 X-1.3460 Y0.7255  
G01 X-1.3499 Y0.7294  
G01 X-1.3804 Y0.7555  
G01 X-1.3810 Y0.7555  
G01 X-1.3849 Y0.7594  
G01 X-1.3890 Y0.7629  
G01 X-1.3890 Y0.7635  
G01 X-1.3895 Y0.7640  
G01 X-1.3895 Y0.7694  
G01 X-1.3899 Y0.7749  
G01 X-1.3895 Y0.7754  
G01 X-1.3895 Y0.9242  
G01 X-1.4903 Y1.0298  
G01 X-1.4945 Y1.0340  
G01 X-1.4945 Y1.0342  
G01 X-1.4946 Y1.0343  
G01 X-1.4945 Y1.0402  
G01 X-1.4945 Y1.0640  
G01 X-1.5160 Y1.0855  
G01 X-1.6340 Y1.0855  
G01 X-1.7055 Y1.0140  
G01 X-1.7140 Y1.0055  
G01 X-1.7740 Y1.0055  
G01 X-1.7860 Y1.0055  
G01 X-1.9260 Y1.1455  
G01 X-2.1040 Y1.1455  
G01 X-2.1455 Y1.1040  
G01 X-2.1540 Y1.0955  
G01 X-2.1640 Y1.0955  
G01 X-2.2355 Y1.0240  
G01 X-2.2435 Y1.0160  
G01 X-2.2435 Y1.0066  
G01 X-2.2766 Y0.9735  
G01 X-2.3234 Y0.9735  
G01 X-2.3565 Y1.0066  
G00 Z0.1000  
G00 X-1.2178 Y0.9718  
G01 Z-0.0070 F10    
G01 X-1.2072 Y0.9612  F20    
G01 X-1.2044 Y0.9545  
G01 X-0.4707 Y0.9545  
G01 X-0.4705 Y0.9547  
G01 X-0.4647 Y0.9545  
G01 X-0.4590 Y0.9545  
G01 X-0.4588 Y0.9543  
G01 X-0.4585 Y0.9543  
G01 X-0.4546 Y0.9501  
G01 X-0.4505 Y0.9460  
G01 X-0.4505 Y0.9457  
G01 X-0.3313 Y0.8174  
G01 X-0.3072 Y0.8415  
G01 X-0.2728 Y0.8415  
G01 X-0.2485 Y0.8172  
G01 X-0.2485 Y0.7828  
G01 X-0.2668 Y0.7645  
G01 X-0.2460 Y0.7645  
G01 X-0.2296 Y0.7809  
G01 X-0.2315 Y0.7828  
G01 X-0.2315 Y0.8172  
G01 X-0.2132 Y0.8355  
G01 X-0.2340 Y0.8355  
G01 X-0.2460 Y0.8355  
G01 X-0.2709 Y0.8604  
G01 X-0.2728 Y0.8585  
G01 X-0.3072 Y0.8585  
G01 X-0.3315 Y0.8828  
G01 X-0.3315 Y0.9172  
G01 X-0.3132 Y0.9355  
G01 X-0.4360 Y0.9355  
G01 X-0.4445 Y0.9440  
G01 X-0.4745 Y0.9740  
G01 X-0.4745 Y0.9825  
G01 X-0.4945 Y0.9625  
G01 X-0.5255 Y0.9625  
G01 X-0.5385 Y0.9755  
G01 X-1.2267 Y0.9755  
G01 X-1.2178 Y0.9718  
G00 Z0.1000  
G00 X-0.5475 Y1.0155  
G01 Z-0.0070 F10    
G01 X-0.5275 Y1.0355  F20    
G01 X-1.2015 Y1.0355  
G01 X-1.2015 Y1.0325  
G01 X-1.2072 Y1.0188  
G01 X-1.2178 Y1.0082  
G01 X-1.2267 Y1.0045  
G01 X-0.5475 Y1.0045  
G01 X-0.5475 Y1.0155  
G00 Z0.1000  
G00 X-1.5055 Y1.2075  
G01 Z-0.0070 F10    
G01 X-1.4745 Y1.2075  F20    
G01 X-1.4545 Y1.1875  
G01 X-1.4545 Y1.2075  
G01 X-1.4555 Y1.2075  
G01 X-1.4775 Y1.2295  
G01 X-1.4775 Y1.2605  
G01 X-1.4768 Y1.2613  
G01 X-1.4910 Y1.2755  
G01 X-1.7640 Y1.2755  
G01 X-1.7772 Y1.2623  
G01 X-1.7598 Y1.2695  
G01 X-1.7401 Y1.2695  
G01 X-1.7220 Y1.2620  
G01 X-1.7080 Y1.2480  
G01 X-1.7005 Y1.2298  
G01 X-1.7005 Y1.2145  
G01 X-1.5140 Y1.2145  
G01 X-1.5063 Y1.2068  
G01 X-1.5055 Y1.2075  
G00 Z0.1000  
G00 X-0.6845 Y0.5710  
G01 Z-0.0070 F10    
G01 X-0.6845 Y0.6840  F20    
G01 X-0.6908 Y0.6903  
G01 X-0.6859 Y0.6784  
G01 X-0.6859 Y0.6015  
G01 X-0.6916 Y0.5877  
G01 X-0.7021 Y0.5772  
G01 X-0.7055 Y0.5758  
G01 X-0.7055 Y0.5690  
G01 X-0.7140 Y0.5605  
G01 X-0.8390 Y0.4355  
G01 X-0.8510 Y0.4355  
G01 X-1.2015 Y0.4355  
G01 X-1.2015 Y0.4325  
G01 X-1.2072 Y0.4188  
G01 X-1.2178 Y0.4082  
G01 X-1.2315 Y0.4025  
G01 X-1.3085 Y0.4025  
G01 X-1.3222 Y0.4082  
G01 X-1.3328 Y0.4188  
G01 X-1.3385 Y0.4325  
G01 X-1.3385 Y0.4475  
G01 X-1.3328 Y0.4612  
G01 X-1.3222 Y0.4718  
G01 X-1.3133 Y0.4755  
G01 X-1.3905 Y0.4755  
G01 X-1.3905 Y0.3560  
G01 X-1.3640 Y0.3295  
G01 X-1.3555 Y0.3210  
G01 X-1.3555 Y0.2675  
G01 X-1.3545 Y0.2675  
G01 X-1.3325 Y0.2455  
G01 X-1.3325 Y0.2230  
G01 X-1.3040 Y0.1945  
G01 X-1.2875 Y0.1945  
G01 X-1.3075 Y0.2145  
G01 X-1.3075 Y0.2455  
G01 X-1.2855 Y0.2675  
G01 X-1.2745 Y0.2675  
G01 X-1.2745 Y0.3025  
G01 X-1.3085 Y0.3025  
G01 X-1.3222 Y0.3082  
G01 X-1.3328 Y0.3188  
G01 X-1.3385 Y0.3325  
G01 X-1.3385 Y0.3475  
G01 X-1.3328 Y0.3612  
G01 X-1.3222 Y0.3718  
G01 X-1.3085 Y0.3775  
G01 X-1.2315 Y0.3775  
G01 X-1.2178 Y0.3718  
G01 X-1.2072 Y0.3612  
G01 X-1.2047 Y0.3552  
G01 X-1.1516 Y0.3021  
G01 X-1.1385 Y0.3075  
G01 X-1.0615 Y0.3075  
G01 X-1.0478 Y0.3018  
G01 X-1.0405 Y0.2945  
G01 X-1.0160 Y0.2945  
G01 X-0.9860 Y0.3245  
G01 X-0.9740 Y0.3245  
G01 X-0.9395 Y0.3245  
G01 X-0.9395 Y0.4260  
G01 X-0.9310 Y0.4345  
G01 X-0.9190 Y0.4345  
G01 X-0.8210 Y0.4345  
G01 X-0.6845 Y0.5710  
G00 Z0.1000  
G00 X-0.2072 Y0.4415  
G01 Z-0.0070 F10    
G01 X-0.1728 Y0.4415  F20    
G01 X-0.1545 Y0.4232  
G01 X-0.1545 Y0.4768  
G01 X-0.1728 Y0.4585  
G01 X-0.2072 Y0.4585  
G01 X-0.2091 Y0.4604  
G01 X-0.2255 Y0.4440  
G01 X-0.2255 Y0.4232  
G01 X-0.2072 Y0.4415  
G00 Z0.1000  
G00 X-1.4795 Y0.7807  
G01 Z-0.0070 F10    
G01 X-1.4805 Y0.7776  F20    
G01 X-1.4805 Y0.6707  
G01 X-1.4800 Y0.6653  
G01 X-1.4805 Y0.6647  
G01 X-1.4805 Y0.6640  
G01 X-1.4843 Y0.6602  
G01 X-1.5015 Y0.6395  
G01 X-1.5015 Y0.6325  
G01 X-1.5040 Y0.6265  
G01 X-1.5007 Y0.6298  
G01 X-1.4795 Y0.6552  
G01 X-1.4795 Y0.7807  
G00 Z0.1000  
G00 X-1.5045 Y0.6252  
G01 Z-0.0070 F10    
G01 X-1.5045 Y0.6252  F20    
G01 X-1.5045 Y0.6253  
G01 X-1.5045 Y0.6252  
G00 Z0.1000  
G00 X-1.9032 Y0.2808  
G01 Z-0.0070 F10    
G01 X-1.9022 Y0.2818  F20    
G01 X-1.8885 Y0.2875  
G01 X-1.8130 Y0.2875  
G01 X-1.6460 Y0.4545  
G01 X-1.6356 Y0.4545  
G01 X-1.6328 Y0.4612  
G01 X-1.6222 Y0.4718  
G01 X-1.6085 Y0.4775  
G01 X-1.5315 Y0.4775  
G01 X-1.5178 Y0.4718  
G01 X-1.5072 Y0.4612  
G01 X-1.5045 Y0.4547  
G01 X-1.5045 Y0.5253  
G01 X-1.5072 Y0.5188  
G01 X-1.5178 Y0.5082  
G01 X-1.5315 Y0.5025  
G01 X-1.6085 Y0.5025  
G01 X-1.6222 Y0.5082  
G01 X-1.6268 Y0.5127  
G01 X-1.6655 Y0.4740  
G01 X-1.6740 Y0.4655  
G01 X-1.7625 Y0.4655  
G01 X-1.7625 Y0.4645  
G01 X-1.7845 Y0.4425  
G01 X-1.8070 Y0.4425  
G01 X-1.8355 Y0.4140  
G01 X-1.8355 Y0.3875  
G01 X-1.8115 Y0.3875  
G01 X-1.7978 Y0.3818  
G01 X-1.7872 Y0.3712  
G01 X-1.7815 Y0.3575  
G01 X-1.7815 Y0.3425  
G01 X-1.7872 Y0.3288  
G01 X-1.7978 Y0.3182  
G01 X-1.8115 Y0.3125  
G01 X-1.8885 Y0.3125  
G01 X-1.9022 Y0.3182  
G01 X-1.9128 Y0.3288  
G01 X-1.9155 Y0.3353  
G01 X-1.9155 Y0.2916  
G01 X-1.9032 Y0.2808  
G00 Z0.1000  
G00 X-1.5045 Y0.3253  
G01 Z-0.0070 F10    
G01 X-1.5072 Y0.3188  F20    
G01 X-1.5178 Y0.3082  
G01 X-1.5315 Y0.3025  
G01 X-1.5870 Y0.3025  
G01 X-1.7392 Y0.1503  
G01 X-1.7426 Y0.1462  
G01 X-1.7434 Y0.1461  
G01 X-1.7440 Y0.1455  
G01 X-1.7493 Y0.1455  
G01 X-1.7816 Y0.1423  
G01 X-1.7872 Y0.1288  
G01 X-1.7978 Y0.1182  
G01 X-1.8115 Y0.1125  
G01 X-1.8885 Y0.1125  
G01 X-1.9022 Y0.1182  
G01 X-1.9128 Y0.1288  
G01 X-1.9185 Y0.1425  
G01 X-1.9185 Y0.1568  
G01 X-1.9754 Y0.2055  
G01 X-1.9760 Y0.2055  
G01 X-1.9799 Y0.2094  
G01 X-1.9840 Y0.2129  
G01 X-1.9840 Y0.2135  
G01 X-1.9845 Y0.2140  
G01 X-1.9845 Y0.2194  
G01 X-1.9849 Y0.2249  
G01 X-1.9845 Y0.2254  
G01 X-1.9845 Y0.3946  
G01 X-2.0265 Y0.4425  
G01 X-2.0555 Y0.4425  
G01 X-2.0775 Y0.4645  
G01 X-2.0775 Y0.4955  
G01 X-2.0555 Y0.5175  
G01 X-2.0245 Y0.5175  
G01 X-2.0025 Y0.4955  
G01 X-2.0025 Y0.4645  
G01 X-2.0050 Y0.4620  
G01 X-1.9594 Y0.4099  
G01 X-1.9555 Y0.4060  
G01 X-1.9555 Y0.4054  
G01 X-1.9551 Y0.4050  
G01 X-1.9555 Y0.3995  
G01 X-1.9555 Y0.2267  
G01 X-1.9027 Y0.1814  
G01 X-1.9022 Y0.1818  
G01 X-1.8885 Y0.1875  
G01 X-1.8115 Y0.1875  
G01 X-1.7978 Y0.1818  
G01 X-1.7872 Y0.1712  
G01 X-1.7871 Y0.1709  
G01 X-1.7566 Y0.1739  
G01 X-1.6223 Y0.3082  
G01 X-1.6328 Y0.3188  
G01 X-1.6385 Y0.3325  
G01 X-1.6385 Y0.3475  
G01 X-1.6328 Y0.3612  
G01 X-1.6222 Y0.3718  
G01 X-1.6085 Y0.3775  
G01 X-1.5315 Y0.3775  
G01 X-1.5178 Y0.3718  
G01 X-1.5072 Y0.3612  
G01 X-1.5045 Y0.3547  
G01 X-1.5045 Y0.4253  
G01 X-1.5072 Y0.4188  
G01 X-1.5178 Y0.4082  
G01 X-1.5315 Y0.4025  
G01 X-1.6085 Y0.4025  
G01 X-1.6222 Y0.4082  
G01 X-1.6328 Y0.4188  
G01 X-1.6351 Y0.4244  
G01 X-1.7877 Y0.2718  
G01 X-1.7872 Y0.2712  
G01 X-1.7815 Y0.2575  
G01 X-1.7815 Y0.2425  
G01 X-1.7872 Y0.2288  
G01 X-1.7978 Y0.2182  
G01 X-1.8115 Y0.2125  
G01 X-1.8885 Y0.2125  
G01 X-1.9022 Y0.2182  
G01 X-1.9128 Y0.2288  
G01 X-1.9185 Y0.2425  
G01 X-1.9185 Y0.2557  
G01 X-1.9354 Y0.2705  
G01 X-1.9360 Y0.2705  
G01 X-1.9399 Y0.2744  
G01 X-1.9441 Y0.2780  
G01 X-1.9441 Y0.2786  
G01 X-1.9445 Y0.2790  
G01 X-1.9445 Y0.2845  
G01 X-1.9449 Y0.2900  
G01 X-1.9445 Y0.2904  
G01 X-1.9445 Y0.4515  
G01 X-1.9575 Y0.4645  
G01 X-1.9575 Y0.4955  
G01 X-1.9355 Y0.5175  
G01 X-1.9045 Y0.5175  
G01 X-1.8825 Y0.4955  
G01 X-1.8825 Y0.4645  
G01 X-1.9045 Y0.4425  
G01 X-1.9155 Y0.4425  
G01 X-1.9155 Y0.3647  
G01 X-1.9128 Y0.3712  
G01 X-1.9022 Y0.3818  
G01 X-1.8885 Y0.3875  
G01 X-1.8645 Y0.3875  
G01 X-1.8645 Y0.4260  
G01 X-1.8560 Y0.4345  
G01 X-1.8318 Y0.4587  
G01 X-1.8375 Y0.4645  
G01 X-1.8375 Y0.4955  
G01 X-1.8155 Y0.5175  
G01 X-1.7845 Y0.5175  
G01 X-1.7625 Y0.4955  
G01 X-1.7625 Y0.4945  
G01 X-1.6860 Y0.4945  
G01 X-1.6385 Y0.5420  
G01 X-1.6385 Y0.5475  
G01 X-1.6328 Y0.5612  
G01 X-1.6222 Y0.5718  
G01 X-1.6085 Y0.5775  
G01 X-1.5315 Y0.5775  
G01 X-1.5178 Y0.5718  
G01 X-1.5072 Y0.5612  
G01 X-1.5045 Y0.5547  
G01 X-1.5045 Y0.6193  
G01 X-1.5049 Y0.6242  
G01 X-1.5072 Y0.6188  
G01 X-1.5178 Y0.6082  
G01 X-1.5315 Y0.6025  
G01 X-1.6085 Y0.6025  
G01 X-1.6222 Y0.6082  
G01 X-1.6328 Y0.6188  
G01 X-1.6385 Y0.6325  
G01 X-1.6385 Y0.6475  
G01 X-1.6328 Y0.6612  
G01 X-1.6222 Y0.6718  
G01 X-1.6085 Y0.6775  
G01 X-1.5315 Y0.6775  
G01 X-1.5178 Y0.6718  
G01 X-1.5148 Y0.6689  
G01 X-1.5095 Y0.6752  
G01 X-1.5095 Y0.7165  
G01 X-1.5178 Y0.7082  
G01 X-1.5315 Y0.7025  
G01 X-1.6085 Y0.7025  
G01 X-1.6222 Y0.7082  
G01 X-1.6328 Y0.7188  
G01 X-1.6335 Y0.7205  
G01 X-1.6390 Y0.7205  
G01 X-1.6455 Y0.7140  
G01 X-1.6455 Y0.5740  
G01 X-1.6540 Y0.5655  
G01 X-1.6840 Y0.5355  
G01 X-1.6960 Y0.5355  
G01 X-2.0640 Y0.5355  
G01 X-2.0955 Y0.5040  
G01 X-2.0955 Y0.4710  
G01 X-2.0540 Y0.4295  
G01 X-2.0240 Y0.4295  
G01 X-2.0155 Y0.4210  
G01 X-1.9955 Y0.4010  
G01 X-1.9955 Y0.3890  
G01 X-1.9955 Y0.1860  
G01 X-1.9040 Y0.0945  
G01 X-0.5410 Y0.0945  
G01 X-0.2770 Y0.3585  
G01 X-0.3072 Y0.3585  
G01 X-0.3091 Y0.3604  
G01 X-0.5655 Y0.1040  
G01 X-0.5740 Y0.0955  
G01 X-1.4540 Y0.0955  
G01 X-1.4660 Y0.0955  
G01 X-1.5045 Y0.1340  
G01 X-1.5045 Y0.1460  
G01 X-1.5045 Y0.3253  
G00 Z0.1000  
G00 X-0.3315 Y0.3828  
G01 Z-0.0070 F10    
G01 X-0.3315 Y0.4172  F20    
G01 X-0.3072 Y0.4415  
G01 X-0.2728 Y0.4415  
G01 X-0.2545 Y0.4232  
G01 X-0.2545 Y0.4440  
G01 X-0.2545 Y0.4560  
G01 X-0.2296 Y0.4809  
G01 X-0.2315 Y0.4828  
G01 X-0.2315 Y0.5172  
G01 X-0.2132 Y0.5355  
G01 X-0.2668 Y0.5355  
G01 X-0.2485 Y0.5172  
G01 X-0.2485 Y0.4828  
G01 X-0.2728 Y0.4585  
G01 X-0.3072 Y0.4585  
G01 X-0.3091 Y0.4604  
G01 X-0.3655 Y0.4040  
G01 X-0.3655 Y0.3640  
G01 X-0.3740 Y0.3555  
G01 X-0.5955 Y0.1340  
G01 X-0.6040 Y0.1255  
G01 X-1.4260 Y0.1255  
G01 X-1.4345 Y0.1340  
G01 X-1.4645 Y0.1640  
G01 X-1.4645 Y0.1760  
G01 X-1.4645 Y0.5990  
G01 X-1.4652 Y0.6039  
G01 X-1.4645 Y0.6048  
G01 X-1.4645 Y0.6060  
G01 X-1.4610 Y0.6095  
G01 X-1.4495 Y0.6248  
G01 X-1.4495 Y0.8244  
G01 X-1.4964 Y0.8755  
G01 X-1.5267 Y0.8755  
G01 X-1.5178 Y0.8718  
G01 X-1.5072 Y0.8612  
G01 X-1.5046 Y0.8548  
G01 X-1.4995 Y0.8545  
G01 X-1.4940 Y0.8545  
G01 X-1.4936 Y0.8541  
G01 X-1.4930 Y0.8541  
G01 X-1.4894 Y0.8499  
G01 X-1.4855 Y0.8460  
G01 X-1.4855 Y0.8454  
G01 X-1.4544 Y0.8099  
G01 X-1.4505 Y0.8060  
G01 X-1.4505 Y0.8054  
G01 X-1.4501 Y0.8050  
G01 X-1.4505 Y0.7995  
G01 X-1.4505 Y0.6507  
G01 X-1.4500 Y0.6453  
G01 X-1.4505 Y0.6447  
G01 X-1.4505 Y0.6440  
G01 X-1.4543 Y0.6402  
G01 X-1.4755 Y0.6147  
G01 X-1.4755 Y0.1460  
G01 X-1.4540 Y0.1245  
G01 X-0.5860 Y0.1245  
G01 X-0.3296 Y0.3809  
G01 X-0.3315 Y0.3828  
G00 Z0.1000  
G00 X-1.5051 Y0.8238  
G01 Z-0.0070 F10    
G01 X-1.5072 Y0.8188  F20    
G01 X-1.5178 Y0.8082  
G01 X-1.5267 Y0.8045  
G01 X-1.5034 Y0.8045  
G01 X-1.5011 Y0.8056  
G01 X-1.4976 Y0.8045  
G01 X-1.4940 Y0.8045  
G01 X-1.4922 Y0.8027  
G01 X-1.4897 Y0.8019  
G01 X-1.4881 Y0.7986  
G01 X-1.4855 Y0.7960  
G01 X-1.4855 Y0.7934  
G01 X-1.4831 Y0.7886  
G01 X-1.4805 Y0.7860  
G01 X-1.4805 Y0.7834  
G01 X-1.4795 Y0.7814  
G01 X-1.4795 Y0.7946  
G01 X-1.5051 Y0.8238  
G00 Z0.1000  
G00 X-0.2315 Y0.6828  
G01 Z-0.0070 F10    
G01 X-0.2315 Y0.7172  F20    
G01 X-0.2072 Y0.7415  
G01 X-0.1728 Y0.7415  
G01 X-0.1485 Y0.7172  
G01 X-0.1485 Y0.6842  
G01 X-0.1445 Y0.6872  
G01 X-0.1445 Y0.8127  
G01 X-0.1485 Y0.8158  
G01 X-0.1485 Y0.7828  
G01 X-0.1728 Y0.7585  
G01 X-0.2072 Y0.7585  
G01 X-0.2091 Y0.7604  
G01 X-0.2255 Y0.7440  
G01 X-0.2340 Y0.7355  
G01 X-0.2668 Y0.7355  
G01 X-0.2485 Y0.7172  
G01 X-0.2485 Y0.6828  
G01 X-0.2668 Y0.6645  
G01 X-0.2132 Y0.6645  
G01 X-0.2315 Y0.6828  
G00 Z0.1000  
G00 X-0.3315 Y0.6828  
G01 Z-0.0070 F10    
G01 X-0.3315 Y0.7172  F20    
G01 X-0.3132 Y0.7355  
G01 X-0.3440 Y0.7355  
G01 X-0.3560 Y0.7355  
G01 X-0.5060 Y0.8855  
G01 X-0.7479 Y0.8855  
G01 X-0.7415 Y0.8828  
G01 X-0.7310 Y0.8723  
G01 X-0.7253 Y0.8585  
G01 X-0.7253 Y0.7816  
G01 X-0.7299 Y0.7704  
G01 X-0.6555 Y0.6960  
G01 X-0.6555 Y0.6840  
G01 X-0.6555 Y0.5710  
G01 X-0.6555 Y0.5590  
G01 X-0.8005 Y0.4140  
G01 X-0.8070 Y0.4075  
G01 X-0.7615 Y0.4075  
G01 X-0.7478 Y0.4018  
G01 X-0.7457 Y0.3998  
G01 X-0.7010 Y0.4445  
G01 X-0.6890 Y0.4445  
G01 X-0.5610 Y0.4445  
G01 X-0.4945 Y0.5110  
G01 X-0.4945 Y0.5160  
G01 X-0.4860 Y0.5245  
G01 X-0.3460 Y0.6645  
G01 X-0.3340 Y0.6645  
G01 X-0.3132 Y0.6645  
G01 X-0.3315 Y0.6828  
G00 Z0.1000  
G00 X-0.7315 Y0.3625  
G01 Z-0.0070 F10    
G01 X-0.7372 Y0.3488  F20    
G01 X-0.7478 Y0.3382  
G01 X-0.7615 Y0.3325  
G01 X-0.8385 Y0.3325  
G01 X-0.8522 Y0.3382  
G01 X-0.8628 Y0.3488  
G01 X-0.8685 Y0.3625  
G01 X-0.8685 Y0.3775  
G01 X-0.8628 Y0.3912  
G01 X-0.8522 Y0.4018  
G01 X-0.8433 Y0.4055  
G01 X-0.9105 Y0.4055  
G01 X-0.9105 Y0.3245  
G01 X-0.7110 Y0.3245  
G01 X-0.6610 Y0.3745  
G01 X-0.6490 Y0.3745  
G01 X-0.5310 Y0.3745  
G01 X-0.3410 Y0.5645  
G01 X-0.3290 Y0.5645  
G01 X-0.3132 Y0.5645  
G01 X-0.3315 Y0.5828  
G01 X-0.3315 Y0.6172  
G01 X-0.3132 Y0.6355  
G01 X-0.3340 Y0.6355  
G01 X-0.4655 Y0.5040  
G01 X-0.4655 Y0.4990  
G01 X-0.5405 Y0.4240  
G01 X-0.5490 Y0.4155  
G01 X-0.6890 Y0.4155  
G01 X-0.7315 Y0.3730  
G01 X-0.7315 Y0.3625  
G00 Z0.1000  
G00 X-0.2485 Y0.6172  
G01 Z-0.0070 F10    
G01 X-0.2485 Y0.5828  F20    
G01 X-0.2668 Y0.5645  
G01 X-0.2132 Y0.5645  
G01 X-0.2315 Y0.5828  
G01 X-0.2315 Y0.6172  
G01 X-0.2132 Y0.6355  
G01 X-0.2668 Y0.6355  
G01 X-0.2485 Y0.6172  
G00 Z0.1000  
G00 X-0.1240 Y0.8345  
G01 Z-0.0070 F10    
G01 X-0.1205 Y0.8310  F20    
G01 X-0.1165 Y0.8280  
G01 X-0.1163 Y0.8268  
G01 X-0.1155 Y0.8260  
G01 X-0.1155 Y0.8210  
G01 X-0.1148 Y0.8161  
G01 X-0.1155 Y0.8152  
G01 X-0.1155 Y0.6848  
G01 X-0.1148 Y0.6839  
G01 X-0.1155 Y0.6790  
G01 X-0.1155 Y0.6740  
G01 X-0.1163 Y0.6732  
G01 X-0.1165 Y0.6720  
G01 X-0.1205 Y0.6690  
G01 X-0.1240 Y0.6655  
G01 X-0.1252 Y0.6655  
G01 X-0.1605 Y0.6390  
G01 X-0.1640 Y0.6355  
G01 X-0.1652 Y0.6355  
G01 X-0.1661 Y0.6348  
G01 X-0.1485 Y0.6172  
G01 X-0.1485 Y0.5828  
G01 X-0.1628 Y0.5685  
G01 X-0.1531 Y0.5724  
G01 X-0.1510 Y0.5745  
G01 X-0.1145 Y0.6110  
G01 X-0.1145 Y0.9088  
G01 X-0.1701 Y0.9612  
G01 X-0.1728 Y0.9585  
G01 X-0.2072 Y0.9585  
G01 X-0.2315 Y0.9828  
G01 X-0.2315 Y1.0172  
G01 X-0.2271 Y1.0216  
G01 X-0.3510 Y1.1455  
G01 X-1.0876 Y1.1455  
G01 X-1.0911 Y1.1443  
G01 X-1.0934 Y1.1455  
G01 X-1.0945 Y1.1455  
G01 X-1.1020 Y1.1380  
G01 X-1.1201 Y1.1305  
G01 X-1.1398 Y1.1305  
G01 X-1.1580 Y1.1380  
G01 X-1.1720 Y1.1520  
G01 X-1.1795 Y1.1701  
G01 X-1.1795 Y1.1898  
G01 X-1.1739 Y1.2034  
G01 X-1.2060 Y1.2355  
G01 X-1.2440 Y1.2355  
G01 X-1.2500 Y1.2295  
G01 X-1.2095 Y1.2295  
G01 X-1.1805 Y1.2005  
G01 X-1.1805 Y1.1595  
G01 X-1.1847 Y1.1552  
G01 X-1.1540 Y1.1245  
G01 X-0.4940 Y1.1245  
G01 X-0.4855 Y1.1160  
G01 X-0.4070 Y1.0375  
G01 X-0.3945 Y1.0375  
G01 X-0.3725 Y1.0155  
G01 X-0.3725 Y1.0045  
G01 X-0.3315 Y1.0045  
G01 X-0.3315 Y1.0172  
G01 X-0.3072 Y1.0415  
G01 X-0.2728 Y1.0415  
G01 X-0.2485 Y1.0172  
G01 X-0.2485 Y0.9828  
G01 X-0.2668 Y0.9645  
G01 X-0.2460 Y0.9645  
G01 X-0.2340 Y0.9645  
G01 X-0.2091 Y0.9396  
G01 X-0.2072 Y0.9415  
G01 X-0.1728 Y0.9415  
G01 X-0.1485 Y0.9172  
G01 X-0.1485 Y0.8828  
G01 X-0.1661 Y0.8652  
G01 X-0.1652 Y0.8645  
G01 X-0.1640 Y0.8645  
G01 X-0.1605 Y0.8610  
G01 X-0.1252 Y0.8345  
G01 X-0.1240 Y0.8345  
G00 Z0.1000  
G00 X-0.2315 Y0.8828  
G01 Z-0.0070 F10    
G01 X-0.2315 Y0.9172  F20    
G01 X-0.2296 Y0.9191  
G01 X-0.2460 Y0.9355  
G01 X-0.2668 Y0.9355  
G01 X-0.2485 Y0.9172  
G01 X-0.2485 Y0.8828  
G01 X-0.2504 Y0.8809  
G01 X-0.2340 Y0.8645  
G01 X-0.2132 Y0.8645  
G01 X-0.2315 Y0.8828  
G00 Z0.1000  
G00 X-0.8203 Y0.8828  
G01 Z-0.0070 F10    
G01 X-0.8097 Y0.8723  F20    
G01 X-0.8040 Y0.8585  
G01 X-0.8040 Y0.7816  
G01 X-0.8097 Y0.7678  
G01 X-0.8203 Y0.7573  
G01 X-0.8305 Y0.7530  
G01 X-0.8305 Y0.7490  
G01 X-0.8390 Y0.7405  
G01 X-0.8690 Y0.7105  
G01 X-0.8810 Y0.7105  
G01 X-0.9090 Y0.7105  
G01 X-0.9440 Y0.6755  
G01 X-0.9560 Y0.6755  
G01 X-1.2267 Y0.6755  
G01 X-1.2178 Y0.6718  
G01 X-1.2072 Y0.6612  
G01 X-1.2015 Y0.6475  
G01 X-1.2015 Y0.6445  
G01 X-0.9184 Y0.6445  
G01 X-0.9184 Y0.6784  
G01 X-0.9127 Y0.6922  
G01 X-0.9021 Y0.7027  
G01 X-0.8883 Y0.7084  
G01 X-0.8734 Y0.7084  
G01 X-0.8596 Y0.7027  
G01 X-0.8491 Y0.6922  
G01 X-0.8434 Y0.6784  
G01 X-0.8434 Y0.6015  
G01 X-0.8491 Y0.5877  
G01 X-0.8596 Y0.5772  
G01 X-0.8734 Y0.5714  
G01 X-0.8883 Y0.5714  
G01 X-0.9021 Y0.5772  
G01 X-0.9127 Y0.5877  
G01 X-0.9184 Y0.6015  
G01 X-0.9184 Y0.6155  
G01 X-1.2105 Y0.6155  
G01 X-1.2178 Y0.6082  
G01 X-1.2315 Y0.6025  
G01 X-1.3085 Y0.6025  
G01 X-1.3222 Y0.6082  
G01 X-1.3328 Y0.6188  
G01 X-1.3385 Y0.6325  
G01 X-1.3385 Y0.6475  
G01 X-1.3328 Y0.6612  
G01 X-1.3222 Y0.6718  
G01 X-1.3133 Y0.6755  
G01 X-1.3240 Y0.6755  
G01 X-1.3455 Y0.6540  
G01 X-1.3455 Y0.6160  
G01 X-1.3070 Y0.5775  
G01 X-1.2315 Y0.5775  
G01 X-1.2178 Y0.5718  
G01 X-1.2072 Y0.5612  
G01 X-1.2015 Y0.5475  
G01 X-1.2015 Y0.5325  
G01 X-1.2072 Y0.5188  
G01 X-1.2178 Y0.5082  
G01 X-1.2267 Y0.5045  
G01 X-0.8910 Y0.5045  
G01 X-0.8198 Y0.5757  
G01 X-0.8234 Y0.5772  
G01 X-0.8339 Y0.5877  
G01 X-0.8396 Y0.6015  
G01 X-0.8396 Y0.6784  
G01 X-0.8339 Y0.6922  
G01 X-0.8234 Y0.7027  
G01 X-0.8096 Y0.7084  
G01 X-0.7947 Y0.7084  
G01 X-0.7809 Y0.7027  
G01 X-0.7703 Y0.6922  
G01 X-0.7646 Y0.6784  
G01 X-0.7646 Y0.6015  
G01 X-0.7703 Y0.5877  
G01 X-0.7809 Y0.5772  
G01 X-0.7855 Y0.5752  
G01 X-0.7855 Y0.5690  
G01 X-0.8790 Y0.4755  
G01 X-0.8910 Y0.4755  
G01 X-1.2267 Y0.4755  
G01 X-1.2178 Y0.4718  
G01 X-1.2105 Y0.4645  
G01 X-0.8510 Y0.4645  
G01 X-0.7402 Y0.5753  
G01 X-0.7446 Y0.5772  
G01 X-0.7552 Y0.5877  
G01 X-0.7609 Y0.6015  
G01 X-0.7609 Y0.6784  
G01 X-0.7552 Y0.6922  
G01 X-0.7446 Y0.7027  
G01 X-0.7308 Y0.7084  
G01 X-0.7159 Y0.7084  
G01 X-0.7040 Y0.7035  
G01 X-0.7530 Y0.7525  
G01 X-0.7553 Y0.7516  
G01 X-0.7702 Y0.7516  
G01 X-0.7840 Y0.7573  
G01 X-0.7945 Y0.7678  
G01 X-0.8003 Y0.7816  
G01 X-0.8003 Y0.8585  
G01 X-0.7945 Y0.8723  
G01 X-0.7840 Y0.8828  
G01 X-0.7776 Y0.8855  
G01 X-0.8267 Y0.8855  
G01 X-0.8203 Y0.8828  
G00 Z0.1000  
G00 X-0.3242 Y0.9755  
G01 Z-0.0070 F10    
G01 X-0.3815 Y0.9755  F20    
G01 X-0.3925 Y0.9645  
G01 X-0.3132 Y0.9645  
G01 X-0.3242 Y0.9755  
G00 Z0.1000  
G00 X-1.3525 Y1.1545  
G01 Z-0.0070 F10    
G01 X-1.3725 Y1.1345  F20    
G01 X-1.3160 Y1.1345  
G01 X-1.2827 Y1.1678  
G01 X-1.2819 Y1.1703  
G01 X-1.2795 Y1.1715  
G01 X-1.2795 Y1.2000  
G01 X-1.3140 Y1.1655  
G01 X-1.3260 Y1.1655  
G01 X-1.3525 Y1.1655  
G01 X-1.3525 Y1.1545  
G00 Z0.1000  
G00 X-1.6145 Y0.8750  
G01 Z-0.0070 F10    
G01 X-1.6133 Y0.8755  F20    
G01 X-1.6140 Y0.8755  
G01 X-1.6145 Y0.8750  
G00 Z0.1000  
G00 X-1.5178 Y0.7718  
G01 Z-0.0070 F10    
G01 X-1.5095 Y0.7635  F20    
G01 X-1.5095 Y0.7755  
G01 X-1.5267 Y0.7755  
G01 X-1.5178 Y0.7718  
G00 Z0.1000  
G00 X-1.6240 Y0.8045  
G01 Z-0.0070 F10    
G01 X-1.6133 Y0.8045  F20    
G01 X-1.6222 Y0.8082  
G01 X-1.6328 Y0.8188  
G01 X-1.6355 Y0.8253  
G01 X-1.6355 Y0.8160  
G01 X-1.6240 Y0.8045  
G00 Z0.1000  
G00 X-0.1545 Y0.5232  
G01 Z-0.0070 F10    
G01 X-0.1545 Y0.5406  F20    
G01 X-0.1619 Y0.5376  
G01 X-0.1640 Y0.5355  
G01 X-0.1668 Y0.5355  
G01 X-0.1545 Y0.5232  
G00 Z0.1000  
G00 X-2.1560 Y0.4255  
G01 Z-0.0070 F10    
G01 X-2.1594 Y0.4289  F20    
G01 X-2.1633 Y0.4316  
G01 X-2.1635 Y0.4330  
G01 X-2.1645 Y0.4340  
G01 X-2.1645 Y0.4388  
G01 X-2.1653 Y0.4435  
G01 X-2.1645 Y0.4446  
G01 X-2.1645 Y0.5240  
G01 X-2.1645 Y0.5360  
G01 X-2.0960 Y0.6045  
G01 X-2.0840 Y0.6045  
G01 X-1.7560 Y0.6045  
G01 X-1.7245 Y0.6360  
G01 X-1.7245 Y0.9160  
G01 X-1.7160 Y0.9245  
G01 X-1.6945 Y0.9460  
G01 X-1.6860 Y0.9545  
G01 X-1.6356 Y0.9545  
G01 X-1.6328 Y0.9612  
G01 X-1.6222 Y0.9718  
G01 X-1.6085 Y0.9775  
G01 X-1.5315 Y0.9775  
G01 X-1.5178 Y0.9718  
G01 X-1.5072 Y0.9612  
G01 X-1.5015 Y0.9475  
G01 X-1.5015 Y0.9325  
G01 X-1.5072 Y0.9188  
G01 X-1.5178 Y0.9082  
G01 X-1.5267 Y0.9045  
G01 X-1.4956 Y0.9045  
G01 X-1.4954 Y0.9047  
G01 X-1.4897 Y0.9045  
G01 X-1.4840 Y0.9045  
G01 X-1.4837 Y0.9042  
G01 X-1.4834 Y0.9042  
G01 X-1.4795 Y0.9000  
G01 X-1.4755 Y0.8960  
G01 X-1.4755 Y0.8956  
G01 X-1.4245 Y0.8400  
G01 X-1.4205 Y0.8360  
G01 X-1.4205 Y0.8356  
G01 X-1.4203 Y0.8354  
G01 X-1.4205 Y0.8297  
G01 X-1.4205 Y0.6210  
G01 X-1.4198 Y0.6161  
G01 X-1.4205 Y0.6152  
G01 X-1.4205 Y0.6140  
G01 X-1.4240 Y0.6105  
G01 X-1.4355 Y0.5952  
G01 X-1.4355 Y0.1760  
G01 X-1.4140 Y0.1545  
G01 X-0.6160 Y0.1545  
G01 X-0.3945 Y0.3760  
G01 X-0.3945 Y0.4040  
G01 X-0.3945 Y0.4160  
G01 X-0.3296 Y0.4809  
G01 X-0.3315 Y0.4828  
G01 X-0.3315 Y0.5172  
G01 X-0.3132 Y0.5355  
G01 X-0.3290 Y0.5355  
G01 X-0.5105 Y0.3540  
G01 X-0.5190 Y0.3455  
G01 X-0.6490 Y0.3455  
G01 X-0.6905 Y0.3040  
G01 X-0.6990 Y0.2955  
G01 X-0.9240 Y0.2955  
G01 X-0.9360 Y0.2955  
G01 X-0.9740 Y0.2955  
G01 X-1.0040 Y0.2655  
G01 X-1.0160 Y0.2655  
G01 X-1.0315 Y0.2655  
G01 X-1.0315 Y0.2625  
G01 X-1.0372 Y0.2488  
G01 X-1.0478 Y0.2382  
G01 X-1.0615 Y0.2325  
G01 X-1.1385 Y0.2325  
G01 X-1.1522 Y0.2382  
G01 X-1.1628 Y0.2488  
G01 X-1.1685 Y0.2625  
G01 X-1.1685 Y0.2775  
G01 X-1.1683 Y0.2778  
G01 X-1.2082 Y0.3177  
G01 X-1.2178 Y0.3082  
G01 X-1.2315 Y0.3025  
G01 X-1.2455 Y0.3025  
G01 X-1.2455 Y0.2585  
G01 X-1.2325 Y0.2455  
G01 X-1.2325 Y0.2145  
G01 X-1.2525 Y0.1945  
G01 X-1.0360 Y0.1945  
G01 X-0.9560 Y0.2745  
G01 X-0.9440 Y0.2745  
G01 X-0.6685 Y0.2745  
G01 X-0.6685 Y0.2775  
G01 X-0.6628 Y0.2912  
G01 X-0.6522 Y0.3018  
G01 X-0.6385 Y0.3075  
G01 X-0.5615 Y0.3075  
G01 X-0.5478 Y0.3018  
G01 X-0.5372 Y0.2912  
G01 X-0.5315 Y0.2775  
G01 X-0.5315 Y0.2625  
G01 X-0.5372 Y0.2488  
G01 X-0.5478 Y0.2382  
G01 X-0.5615 Y0.2325  
G01 X-0.6385 Y0.2325  
G01 X-0.6522 Y0.2382  
G01 X-0.6595 Y0.2455  
G01 X-0.9440 Y0.2455  
G01 X-1.0155 Y0.1740  
G01 X-1.0240 Y0.1655  
G01 X-1.3040 Y0.1655  
G01 X-1.3160 Y0.1655  
G01 X-1.3487 Y0.1982  
G01 X-1.3545 Y0.1925  
G01 X-1.3855 Y0.1925  
G01 X-1.4075 Y0.2145  
G01 X-1.4075 Y0.2455  
G01 X-1.3855 Y0.2675  
G01 X-1.3845 Y0.2675  
G01 X-1.3845 Y0.3090  
G01 X-1.4195 Y0.3440  
G01 X-1.4195 Y0.3560  
G01 X-1.4195 Y0.4960  
G01 X-1.4195 Y0.5290  
G01 X-1.4195 Y0.5340  
G01 X-1.4195 Y0.9042  
G01 X-1.5162 Y1.0055  
G01 X-1.5243 Y1.0055  
G01 X-1.5315 Y1.0025  
G01 X-1.6085 Y1.0025  
G01 X-1.6157 Y1.0055  
G01 X-1.6590 Y1.0055  
G01 X-1.7155 Y0.9490  
G01 X-1.7240 Y0.9405  
G01 X-1.7855 Y0.9405  
G01 X-1.7855 Y0.7175  
G01 X-1.7845 Y0.7175  
G01 X-1.7625 Y0.6955  
G01 X-1.7625 Y0.6645  
G01 X-1.7845 Y0.6425  
G01 X-1.8155 Y0.6425  
G01 X-1.8285 Y0.6555  
G01 X-1.8915 Y0.6555  
G01 X-1.9045 Y0.6425  
G01 X-1.9355 Y0.6425  
G01 X-1.9485 Y0.6555  
G01 X-2.0115 Y0.6555  
G01 X-2.0245 Y0.6425  
G01 X-2.0555 Y0.6425  
G01 X-2.0775 Y0.6645  
G01 X-2.0775 Y0.6955  
G01 X-2.0555 Y0.7175  
G01 X-2.0245 Y0.7175  
G01 X-2.0025 Y0.6955  
G01 X-2.0025 Y0.6845  
G01 X-1.9575 Y0.6845  
G01 X-1.9575 Y0.6955  
G01 X-1.9355 Y0.7175  
G01 X-1.9045 Y0.7175  
G01 X-1.8825 Y0.6955  
G01 X-1.8825 Y0.6845  
G01 X-1.8375 Y0.6845  
G01 X-1.8375 Y0.6955  
G01 X-1.8155 Y0.7175  
G01 X-1.8145 Y0.7175  
G01 X-1.8145 Y0.9405  
G01 X-1.8840 Y0.9405  
G01 X-1.8960 Y0.9405  
G01 X-1.9345 Y0.9790  
G01 X-1.9345 Y0.9910  
G01 X-1.9345 Y1.0640  
G01 X-1.9760 Y1.1055  
G01 X-2.0340 Y1.1055  
G01 X-2.0855 Y1.0540  
G01 X-2.0855 Y1.0360  
G01 X-2.0855 Y1.0240  
G01 X-2.1755 Y0.9340  
G01 X-2.1840 Y0.9255  
G01 X-2.3540 Y0.9255  
G01 X-2.3660 Y0.9255  
G01 X-2.4160 Y0.9755  
G01 X-2.4245 Y0.9840  
G01 X-2.4245 Y1.0740  
G01 X-2.4245 Y1.0860  
G01 X-2.3145 Y1.1960  
G01 X-2.3060 Y1.2045  
G01 X-1.8345 Y1.2045  
G01 X-1.8345 Y1.2340  
G01 X-1.8345 Y1.2460  
G01 X-1.7845 Y1.2960  
G01 X-1.7760 Y1.3045  
G01 X-1.4790 Y1.3045  
G01 X-1.4705 Y1.2960  
G01 X-1.4563 Y1.2818  
G01 X-1.4555 Y1.2825  
G01 X-1.4245 Y1.2825  
G01 X-1.4025 Y1.2605  
G01 X-1.4025 Y1.2295  
G01 X-1.4245 Y1.2075  
G01 X-1.4255 Y1.2075  
G01 X-1.4255 Y1.1875  
G01 X-1.4055 Y1.2075  
G01 X-1.3745 Y1.2075  
G01 X-1.3615 Y1.1945  
G01 X-1.3260 Y1.1945  
G01 X-1.2645 Y1.2560  
G01 X-1.2560 Y1.2645  
G01 X-1.2060 Y1.2645  
G01 X-1.1940 Y1.2645  
G01 X-1.1534 Y1.2239  
G01 X-1.1398 Y1.2295  
G01 X-1.1201 Y1.2295  
G01 X-1.1020 Y1.2220  
G01 X-1.0880 Y1.2080  
G01 X-1.0805 Y1.1898  
G01 X-1.0805 Y1.1745  
G01 X-0.3510 Y1.1745  
G01 X-0.3390 Y1.1745  
G01 X-0.2060 Y1.0415  
G01 X-0.1728 Y1.0415  
G01 X-0.1485 Y1.0172  
G01 X-0.1485 Y0.9828  
G01 X-0.1496 Y0.9817  
G01 X-0.0942 Y0.9295  
G01 X-0.0940 Y0.9295  
G01 X-0.0899 Y0.9254  
G01 X-0.0857 Y0.9214  
G01 X-0.0857 Y0.9212  
G01 X-0.0855 Y0.9210  
G01 X-0.0855 Y0.9152  
G01 X-0.0853 Y0.9094  
G01 X-0.0855 Y0.9092  
G01 X-0.0855 Y0.5990  
G01 X-0.0940 Y0.5905  
G01 X-0.1255 Y0.5590  
G01 X-0.1255 Y0.3660  
G01 X-0.1255 Y0.3540  
G01 X-0.4740 Y0.0055  
G01 X-0.4860 Y0.0055  
G01 X-2.2360 Y0.0055  
G01 X-2.2445 Y0.0140  
G01 X-2.3360 Y0.1055  
G01 X-2.3445 Y0.1140  
G01 X-2.3445 Y0.3440  
G01 X-2.3445 Y0.3560  
G01 X-2.3445 Y0.7740  
G01 X-2.3445 Y0.7860  
G01 X-2.2810 Y0.8495  
G01 X-2.2690 Y0.8495  
G01 X-2.1910 Y0.8495  
G01 X-2.0452 Y0.9953  
G01 X-2.0565 Y1.0066  
G01 X-2.0565 Y1.0534  
G01 X-2.0234 Y1.0865  
G01 X-1.9766 Y1.0865  
G01 X-1.9435 Y1.0534  
G01 X-1.9435 Y1.0066  
G01 X-1.9766 Y0.9735  
G01 X-2.0234 Y0.9735  
G01 X-2.0247 Y0.9748  
G01 X-2.1705 Y0.8290  
G01 X-2.1790 Y0.8205  
G01 X-2.2690 Y0.8205  
G01 X-2.3155 Y0.7740  
G01 X-2.3155 Y0.3645  
G01 X-2.2156 Y0.3645  
G01 X-2.2128 Y0.3712  
G01 X-2.2022 Y0.3818  
G01 X-2.1885 Y0.3875  
G01 X-2.1115 Y0.3875  
G01 X-2.0978 Y0.3818  
G01 X-2.0872 Y0.3712  
G01 X-2.0815 Y0.3575  
G01 X-2.0815 Y0.3425  
G01 X-2.0872 Y0.3288  
G01 X-2.0977 Y0.3182  
G01 X-2.0955 Y0.3160  
G01 X-2.0955 Y0.3040  
G01 X-2.0955 Y0.2795  
G01 X-2.0872 Y0.2712  
G01 X-2.0815 Y0.2575  
G01 X-2.0815 Y0.2425  
G01 X-2.0872 Y0.2288  
G01 X-2.0977 Y0.2182  
G01 X-2.0955 Y0.2160  
G01 X-2.0955 Y0.2040  
G01 X-2.0955 Y0.1795  
G01 X-2.0872 Y0.1712  
G01 X-2.0815 Y0.1575  
G01 X-2.0815 Y0.1425  
G01 X-2.0872 Y0.1288  
G01 X-2.0978 Y0.1182  
G01 X-2.1115 Y0.1125  
G01 X-2.1885 Y0.1125  
G01 X-2.2022 Y0.1182  
G01 X-2.2128 Y0.1288  
G01 X-2.2185 Y0.1425  
G01 X-2.2185 Y0.1575  
G01 X-2.2128 Y0.1712  
G01 X-2.2022 Y0.1818  
G01 X-2.1885 Y0.1875  
G01 X-2.1245 Y0.1875  
G01 X-2.1245 Y0.2040  
G01 X-2.1330 Y0.2125  
G01 X-2.1885 Y0.2125  
G01 X-2.2022 Y0.2182  
G01 X-2.2128 Y0.2288  
G01 X-2.2185 Y0.2425  
G01 X-2.2185 Y0.2575  
G01 X-2.2128 Y0.2712  
G01 X-2.2022 Y0.2818  
G01 X-2.1885 Y0.2875  
G01 X-2.1245 Y0.2875  
G01 X-2.1245 Y0.3040  
G01 X-2.1330 Y0.3125  
G01 X-2.1885 Y0.3125  
G01 X-2.2022 Y0.3182  
G01 X-2.2128 Y0.3288  
G01 X-2.2156 Y0.3355  
G01 X-2.3155 Y0.3355  
G01 X-2.3155 Y0.1260  
G01 X-2.2240 Y0.0345  
G01 X-0.4860 Y0.0345  
G01 X-0.1545 Y0.3660  
G01 X-0.1545 Y0.3768  
G01 X-0.1728 Y0.3585  
G01 X-0.1810 Y0.3585  
G01 X-0.4955 Y0.0440  
G01 X-0.5040 Y0.0355  
G01 X-2.0510 Y0.0355  
G01 X-2.0595 Y0.0440  
G01 X-2.0710 Y0.0555  
G01 X-2.0795 Y0.0640  
G01 X-2.0795 Y0.3725  
G01 X-2.1546 Y0.4255  
G01 X-2.1560 Y0.4255  
G00 Z0.1000  
G00 X-0.2188 Y0.3659  
G01 Z-0.0070 F10    
G01 X-0.2225 Y0.3696  F20    
G01 X-0.2225 Y0.3677  
G01 X-0.5228 Y0.0675  
G01 X-0.5172 Y0.0675  
G01 X-0.2188 Y0.3659  
G00 Z0.1000  
G00 X-2.3595 Y1.0054  
G01 Z-0.0070 F10    
G01 X-2.3595 Y1.0546  F20    
G01 X-2.3246 Y1.0895  
G01 X-2.2754 Y1.0895  
G01 X-2.2453 Y1.0594  
G01 X-2.1875 Y1.1172  
G01 X-2.1772 Y1.1275  
G01 X-2.1672 Y1.1275  
G01 X-2.1275 Y1.1672  
G01 X-2.1222 Y1.1725  
G01 X-2.2927 Y1.1725  
G01 X-2.3925 Y1.0727  
G01 X-2.3925 Y0.9972  
G01 X-2.3527 Y0.9575  
G01 X-2.1972 Y0.9575  
G01 X-2.1175 Y1.0372  
G01 X-2.1175 Y1.0672  
G01 X-2.1072 Y1.0775  
G01 X-2.0472 Y1.1375  
G01 X-2.0327 Y1.1375  
G01 X-1.9627 Y1.1375  
G01 X-1.9525 Y1.1272  
G01 X-1.9025 Y1.0772  
G01 X-1.9025 Y1.0627  
G01 X-1.9025 Y0.9922  
G01 X-1.8827 Y0.9725  
G01 X-1.7927 Y0.9725  
G01 X-1.7372 Y0.9725  
G01 X-1.6722 Y1.0375  
G01 X-1.6577 Y1.0375  
G01 X-1.6415 Y1.0375  
G01 X-1.6415 Y1.0481  
G01 X-1.6353 Y1.0629  
G01 X-1.6239 Y1.0743  
G01 X-1.6091 Y1.0805  
G01 X-1.5309 Y1.0805  
G01 X-1.5161 Y1.0743  
G01 X-1.5047 Y1.0629  
G01 X-1.4985 Y1.0481  
G01 X-1.4985 Y1.0333  
G01 X-1.4975 Y1.0322  
G01 X-1.4925 Y1.0272  
G01 X-1.4925 Y1.0270  
G01 X-1.3925 Y0.9222  
G01 X-1.3925 Y0.9230  
G01 X-1.4925 Y1.0278  
G01 X-1.4975 Y1.0327  
G01 X-1.4975 Y1.0330  
G01 X-1.4977 Y1.0332  
G01 X-1.4975 Y1.0402  
G01 X-1.4975 Y1.0627  
G01 X-1.5172 Y1.0825  
G01 X-1.6327 Y1.0825  
G01 X-1.7025 Y1.0127  
G01 X-1.7127 Y1.0025  
G01 X-1.7727 Y1.0025  
G01 X-1.7872 Y1.0025  
G01 X-1.9272 Y1.1425  
G01 X-2.1027 Y1.1425  
G01 X-2.1425 Y1.1027  
G01 X-2.1527 Y1.0925  
G01 X-2.1628 Y1.0925  
G01 X-2.2325 Y1.0228  
G01 X-2.2405 Y1.0148  
G01 X-2.2405 Y1.0054  
G01 X-2.2754 Y0.9705  
G01 X-2.3246 Y0.9705  
G01 X-2.3595 Y1.0054  
G00 Z0.1000  
G00 X-1.9031 Y0.2847  
G01 Z-0.0070 F10    
G01 X-1.8891 Y0.2905  F20    
G01 X-1.8142 Y0.2905  
G01 X-1.6472 Y0.4575  
G01 X-1.6376 Y0.4575  
G01 X-1.6353 Y0.4629  
G01 X-1.6239 Y0.4743  
G01 X-1.6091 Y0.4805  
G01 X-1.5309 Y0.4805  
G01 X-1.5161 Y0.4743  
G01 X-1.5075 Y0.4658  
G01 X-1.5075 Y0.5142  
G01 X-1.5161 Y0.5057  
G01 X-1.5309 Y0.4995  
G01 X-1.6091 Y0.4995  
G01 X-1.6239 Y0.5057  
G01 X-1.6268 Y0.5085  
G01 X-1.6625 Y0.4728  
G01 X-1.6727 Y0.4625  
G01 X-1.7602 Y0.4625  
G01 X-1.7832 Y0.4395  
G01 X-1.8058 Y0.4395  
G01 X-1.8325 Y0.4127  
G01 X-1.8325 Y0.3905  
G01 X-1.8109 Y0.3905  
G01 X-1.7961 Y0.3843  
G01 X-1.7847 Y0.3729  
G01 X-1.7785 Y0.3581  
G01 X-1.7785 Y0.3419  
G01 X-1.7847 Y0.3271  
G01 X-1.7961 Y0.3157  
G01 X-1.8109 Y0.3095  
G01 X-1.8891 Y0.3095  
G01 X-1.9039 Y0.3157  
G01 X-1.9125 Y0.3242  
G01 X-1.9125 Y0.2929  
G01 X-1.9031 Y0.2847  
G00 Z0.1000  
G00 X-1.9525 Y0.4072  
G01 Z-0.0070 F10    
G01 X-1.9525 Y0.4066  F20    
G01 X-1.9521 Y0.4061  
G01 X-1.9525 Y0.3994  
G01 X-1.9525 Y0.2280  
G01 X-1.9023 Y0.1850  
G01 X-1.8891 Y0.1905  
G01 X-1.8109 Y0.1905  
G01 X-1.7961 Y0.1843  
G01 X-1.7857 Y0.1740  
G01 X-1.7580 Y0.1768  
G01 X-1.6265 Y0.3082  
G01 X-1.6353 Y0.3171  
G01 X-1.6415 Y0.3319  
G01 X-1.6415 Y0.3481  
G01 X-1.6353 Y0.3629  
G01 X-1.6239 Y0.3743  
G01 X-1.6091 Y0.3805  
G01 X-1.5309 Y0.3805  
G01 X-1.5161 Y0.3743  
G01 X-1.5075 Y0.3658  
G01 X-1.5075 Y0.4142  
G01 X-1.5161 Y0.4057  
G01 X-1.5309 Y0.3995  
G01 X-1.6091 Y0.3995  
G01 X-1.6239 Y0.4057  
G01 X-1.6353 Y0.4171  
G01 X-1.6362 Y0.4191  
G01 X-1.7840 Y0.2713  
G01 X-1.7785 Y0.2581  
G01 X-1.7785 Y0.2419  
G01 X-1.7847 Y0.2271  
G01 X-1.7961 Y0.2157  
G01 X-1.8109 Y0.2095  
G01 X-1.8891 Y0.2095  
G01 X-1.9039 Y0.2157  
G01 X-1.9153 Y0.2271  
G01 X-1.9215 Y0.2419  
G01 X-1.9215 Y0.2543  
G01 X-1.9366 Y0.2675  
G01 X-1.9372 Y0.2675  
G01 X-1.9420 Y0.2722  
G01 X-1.9470 Y0.2766  
G01 X-1.9470 Y0.2773  
G01 X-1.9475 Y0.2777  
G01 X-1.9475 Y0.2844  
G01 X-1.9479 Y0.2911  
G01 X-1.9475 Y0.2916  
G01 X-1.9475 Y0.4502  
G01 X-1.9605 Y0.4632  
G01 X-1.9605 Y0.4968  
G01 X-1.9368 Y0.5205  
G01 X-1.9032 Y0.5205  
G01 X-1.8795 Y0.4968  
G01 X-1.8795 Y0.4632  
G01 X-1.9032 Y0.4395  
G01 X-1.9125 Y0.4395  
G01 X-1.9125 Y0.3758  
G01 X-1.9039 Y0.3843  
G01 X-1.8891 Y0.3905  
G01 X-1.8675 Y0.3905  
G01 X-1.8675 Y0.4272  
G01 X-1.8572 Y0.4375  
G01 X-1.8360 Y0.4587  
G01 X-1.8405 Y0.4632  
G01 X-1.8405 Y0.4968  
G01 X-1.8168 Y0.5205  
G01 X-1.7832 Y0.5205  
G01 X-1.7602 Y0.4975  
G01 X-1.6872 Y0.4975  
G01 X-1.6415 Y0.5432  
G01 X-1.6415 Y0.5481  
G01 X-1.6353 Y0.5629  
G01 X-1.6239 Y0.5743  
G01 X-1.6091 Y0.5805  
G01 X-1.5309 Y0.5805  
G01 X-1.5161 Y0.5743  
G01 X-1.5075 Y0.5658  
G01 X-1.5075 Y0.6142  
G01 X-1.5161 Y0.6057  
G01 X-1.5309 Y0.5995  
G01 X-1.6091 Y0.5995  
G01 X-1.6239 Y0.6057  
G01 X-1.6353 Y0.6171  
G01 X-1.6415 Y0.6319  
G01 X-1.6415 Y0.6481  
G01 X-1.6353 Y0.6629  
G01 X-1.6239 Y0.6743  
G01 X-1.6091 Y0.6805  
G01 X-1.5309 Y0.6805  
G01 X-1.5161 Y0.6743  
G01 X-1.5150 Y0.6733  
G01 X-1.5125 Y0.6763  
G01 X-1.5125 Y0.7092  
G01 X-1.5161 Y0.7057  
G01 X-1.5309 Y0.6995  
G01 X-1.6091 Y0.6995  
G01 X-1.6239 Y0.7057  
G01 X-1.6353 Y0.7171  
G01 X-1.6355 Y0.7175  
G01 X-1.6377 Y0.7175  
G01 X-1.6425 Y0.7127  
G01 X-1.6425 Y0.5727  
G01 X-1.6527 Y0.5625  
G01 X-1.6827 Y0.5325  
G01 X-1.6972 Y0.5325  
G01 X-2.0627 Y0.5325  
G01 X-2.0925 Y0.5028  
G01 X-2.0925 Y0.4722  
G01 X-2.0527 Y0.4325  
G01 X-2.0227 Y0.4325  
G01 X-2.0142 Y0.4240  
G01 X-2.0278 Y0.4395  
G01 X-2.0568 Y0.4395  
G01 X-2.0805 Y0.4632  
G01 X-2.0805 Y0.4968  
G01 X-2.0568 Y0.5205  
G01 X-2.0232 Y0.5205  
G01 X-1.9995 Y0.4968  
G01 X-1.9995 Y0.4632  
G01 X-2.0009 Y0.4619  
G01 X-1.9572 Y0.4120  
G01 X-1.9525 Y0.4072  
G00 Z0.1000  
G00 X-1.8109 Y0.1095  
G01 Z-0.0070 F10    
G01 X-1.8891 Y0.1095  F20    
G01 X-1.9039 Y0.1157  
G01 X-1.9153 Y0.1271  
G01 X-1.9215 Y0.1419  
G01 X-1.9215 Y0.1554  
G01 X-1.9765 Y0.2025  
G01 X-1.9772 Y0.2025  
G01 X-1.9819 Y0.2072  
G01 X-1.9869 Y0.2114  
G01 X-1.9869 Y0.2122  
G01 X-1.9875 Y0.2127  
G01 X-1.9875 Y0.2193  
G01 X-1.9880 Y0.2259  
G01 X-1.9875 Y0.2265  
G01 X-1.9875 Y0.3934  
G01 X-1.9925 Y0.3991  
G01 X-1.9925 Y0.3877  
G01 X-1.9925 Y0.1872  
G01 X-1.9028 Y0.0975  
G01 X-1.4722 Y0.0975  
G01 X-1.5075 Y0.1327  
G01 X-1.5075 Y0.1472  
G01 X-1.5075 Y0.3142  
G01 X-1.5161 Y0.3057  
G01 X-1.5309 Y0.2995  
G01 X-1.5857 Y0.2995  
G01 X-1.7370 Y0.1482  
G01 X-1.7410 Y0.1433  
G01 X-1.7420 Y0.1432  
G01 X-1.7427 Y0.1425  
G01 X-1.7491 Y0.1425  
G01 X-1.7795 Y0.1395  
G01 X-1.7847 Y0.1271  
G01 X-1.7961 Y0.1157  
G01 X-1.8109 Y0.1095  
G00 Z0.1000  
G00 X-1.3495 Y1.1532  
G01 Z-0.0070 F10    
G01 X-1.3652 Y1.1375  F20    
G01 X-1.3172 Y1.1375  
G01 X-1.2853 Y1.1694  
G01 X-1.2843 Y1.1724  
G01 X-1.2825 Y1.1733  
G01 X-1.2825 Y1.1928  
G01 X-1.3127 Y1.1625  
G01 X-1.3272 Y1.1625  
G01 X-1.3495 Y1.1625  
G01 X-1.3495 Y1.1532  
G00 Z0.1000  
G00 X-1.2427 Y1.2325  
G01 Z-0.0070 F10    
G01 X-1.2428 Y1.2325  F20    
G01 X-1.2083 Y1.2325  
G01 X-1.1777 Y1.2020  
G01 X-1.1774 Y1.2027  
G01 X-1.2072 Y1.2325  
G01 X-1.2427 Y1.2325  
G00 Z0.1000  
G00 X-1.1985 Y0.4319  
G01 Z-0.0070 F10    
G01 X-1.2047 Y0.4171  F20    
G01 X-1.2161 Y0.4057  
G01 X-1.2309 Y0.3995  
G01 X-1.3091 Y0.3995  
G01 X-1.3239 Y0.4057  
G01 X-1.3353 Y0.4171  
G01 X-1.3415 Y0.4319  
G01 X-1.3415 Y0.4481  
G01 X-1.3353 Y0.4629  
G01 X-1.3258 Y0.4725  
G01 X-1.3875 Y0.4725  
G01 X-1.3875 Y0.3572  
G01 X-1.3627 Y0.3325  
G01 X-1.3525 Y0.3222  
G01 X-1.3525 Y0.2698  
G01 X-1.3295 Y0.2468  
G01 X-1.3295 Y0.2242  
G01 X-1.3027 Y0.1975  
G01 X-1.2948 Y0.1975  
G01 X-1.3105 Y0.2132  
G01 X-1.3105 Y0.2468  
G01 X-1.2868 Y0.2705  
G01 X-1.2775 Y0.2705  
G01 X-1.2775 Y0.2995  
G01 X-1.3091 Y0.2995  
G01 X-1.3239 Y0.3057  
G01 X-1.3353 Y0.3171  
G01 X-1.3415 Y0.3319  
G01 X-1.3415 Y0.3481  
G01 X-1.3353 Y0.3629  
G01 X-1.3239 Y0.3743  
G01 X-1.3091 Y0.3805  
G01 X-1.2309 Y0.3805  
G01 X-1.2161 Y0.3743  
G01 X-1.2047 Y0.3629  
G01 X-1.2022 Y0.3569  
G01 X-1.1509 Y0.3056  
G01 X-1.1391 Y0.3105  
G01 X-1.0609 Y0.3105  
G01 X-1.0461 Y0.3043  
G01 X-1.0392 Y0.2975  
G01 X-1.0172 Y0.2975  
G01 X-0.9872 Y0.3275  
G01 X-0.9727 Y0.3275  
G01 X-0.9425 Y0.3275  
G01 X-0.9425 Y0.4272  
G01 X-0.9372 Y0.4325  
G01 X-1.1985 Y0.4325  
G01 X-1.1985 Y0.4319  
G00 Z0.1000  
G00 X-0.8222 Y0.4375  
G01 Z-0.0070 F10    
G01 X-0.6875 Y0.5722  F20    
G01 X-0.6875 Y0.5898  
G01 X-0.6891 Y0.5860  
G01 X-0.7004 Y0.5746  
G01 X-0.7025 Y0.5738  
G01 X-0.7025 Y0.5677  
G01 X-0.7127 Y0.5575  
G01 X-0.8328 Y0.4375  
G01 X-0.8222 Y0.4375  
G00 Z0.1000  
G00 X-0.7463 Y0.5746  
G01 Z-0.0070 F10    
G01 X-0.7577 Y0.5860  F20    
G01 X-0.7628 Y0.5982  
G01 X-0.7678 Y0.5860  
G01 X-0.7792 Y0.5746  
G01 X-0.7825 Y0.5732  
G01 X-0.7825 Y0.5677  
G01 X-0.8777 Y0.4725  
G01 X-0.8922 Y0.4725  
G01 X-1.2142 Y0.4725  
G01 X-1.2092 Y0.4675  
G01 X-0.8522 Y0.4675  
G01 X-0.7455 Y0.5743  
G01 X-0.7463 Y0.5746  
G00 Z0.1000  
G00 X-0.3975 Y0.3772  
G01 Z-0.0070 F10    
G01 X-0.3975 Y0.4027  F20    
G01 X-0.3975 Y0.4172  
G01 X-0.3338 Y0.4809  
G01 X-0.3345 Y0.4816  
G01 X-0.3345 Y0.5184  
G01 X-0.3204 Y0.5325  
G01 X-0.3277 Y0.5325  
G01 X-0.5075 Y0.3527  
G01 X-0.5177 Y0.3425  
G01 X-0.6477 Y0.3425  
G01 X-0.6875 Y0.3027  
G01 X-0.6977 Y0.2925  
G01 X-0.9227 Y0.2925  
G01 X-0.9372 Y0.2925  
G01 X-0.9727 Y0.2925  
G01 X-1.0027 Y0.2625  
G01 X-1.0172 Y0.2625  
G01 X-1.0285 Y0.2625  
G01 X-1.0285 Y0.2619  
G01 X-1.0347 Y0.2471  
G01 X-1.0461 Y0.2357  
G01 X-1.0609 Y0.2295  
G01 X-1.1391 Y0.2295  
G01 X-1.1539 Y0.2357  
G01 X-1.1653 Y0.2471  
G01 X-1.1715 Y0.2619  
G01 X-1.1715 Y0.2767  
G01 X-1.2082 Y0.3135  
G01 X-1.2161 Y0.3057  
G01 X-1.2309 Y0.2995  
G01 X-1.2425 Y0.2995  
G01 X-1.2425 Y0.2598  
G01 X-1.2295 Y0.2468  
G01 X-1.2295 Y0.2132  
G01 X-1.2452 Y0.1975  
G01 X-1.0372 Y0.1975  
G01 X-0.9572 Y0.2775  
G01 X-0.9427 Y0.2775  
G01 X-0.6715 Y0.2775  
G01 X-0.6715 Y0.2781  
G01 X-0.6653 Y0.2929  
G01 X-0.6539 Y0.3043  
G01 X-0.6391 Y0.3105  
G01 X-0.5609 Y0.3105  
G01 X-0.5461 Y0.3043  
G01 X-0.5347 Y0.2929  
G01 X-0.5285 Y0.2781  
G01 X-0.5285 Y0.2619  
G01 X-0.5347 Y0.2471  
G01 X-0.5461 Y0.2357  
G01 X-0.5609 Y0.2295  
G01 X-0.6391 Y0.2295  
G01 X-0.6539 Y0.2357  
G01 X-0.6608 Y0.2425  
G01 X-0.9427 Y0.2425  
G01 X-1.0125 Y0.1727  
G01 X-1.0227 Y0.1625  
G01 X-1.3027 Y0.1625  
G01 X-1.3172 Y0.1625  
G01 X-1.3487 Y0.1940  
G01 X-1.3532 Y0.1895  
G01 X-1.3868 Y0.1895  
G01 X-1.4105 Y0.2132  
G01 X-1.4105 Y0.2468  
G01 X-1.3875 Y0.2698  
G01 X-1.3875 Y0.3077  
G01 X-1.4225 Y0.3427  
G01 X-1.4225 Y0.3572  
G01 X-1.4225 Y0.4972  
G01 X-1.4225 Y0.5277  
G01 X-1.4225 Y0.5327  
G01 X-1.4225 Y0.6075  
G01 X-1.4325 Y0.5942  
G01 X-1.4325 Y0.1772  
G01 X-1.4127 Y0.1575  
G01 X-0.6172 Y0.1575  
G01 X-0.3975 Y0.3772  
G00 Z0.1000  
G00 X-0.2084 Y0.4445  
G01 Z-0.0070 F10    
G01 X-0.1716 Y0.4445  F20    
G01 X-0.1575 Y0.4304  
G01 X-0.1575 Y0.4696  
G01 X-0.1716 Y0.4555  
G01 X-0.2084 Y0.4555  
G01 X-0.2091 Y0.4562  
G01 X-0.2225 Y0.4427  
G01 X-0.2225 Y0.4304  
G01 X-0.2084 Y0.4445  
G00 Z0.1000  
G00 X-0.5422 Y0.0975  
G01 Z-0.0070 F10    
G01 X-0.2842 Y0.3555  F20    
G01 X-0.3084 Y0.3555  
G01 X-0.3091 Y0.3562  
G01 X-0.5625 Y0.1027  
G01 X-0.5678 Y0.0975  
G01 X-0.5422 Y0.0975  
G00 Z0.1000  
G00 X-0.2575 Y0.4427  
G01 Z-0.0070 F10    
G01 X-0.2575 Y0.4572  F20    
G01 X-0.2338 Y0.4809  
G01 X-0.2345 Y0.4816  
G01 X-0.2345 Y0.5184  
G01 X-0.2204 Y0.5325  
G01 X-0.2596 Y0.5325  
G01 X-0.2455 Y0.5184  
G01 X-0.2455 Y0.4816  
G01 X-0.2716 Y0.4555  
G01 X-0.3084 Y0.4555  
G01 X-0.3091 Y0.4562  
G01 X-0.3625 Y0.4027  
G01 X-0.3625 Y0.3627  
G01 X-0.3727 Y0.3525  
G01 X-0.5925 Y0.1327  
G01 X-0.5978 Y0.1275  
G01 X-0.5872 Y0.1275  
G01 X-0.3338 Y0.3809  
G01 X-0.3345 Y0.3816  
G01 X-0.3345 Y0.4184  
G01 X-0.3084 Y0.4445  
G01 X-0.2716 Y0.4445  
G01 X-0.2575 Y0.4304  
G01 X-0.2575 Y0.4427  
G00 Z0.1000  
G00 X-1.5047 Y0.8171  
G01 Z-0.0070 F10    
G01 X-1.5142 Y0.8075  F20    
G01 X-1.5041 Y0.8075  
G01 X-1.5013 Y0.8089  
G01 X-1.4972 Y0.8075  
G01 X-1.4948 Y0.8075  
G01 X-1.5042 Y0.8182  
G01 X-1.5047 Y0.8171  
G00 Z0.1000  
G00 X-1.4525 Y0.8232  
G01 Z-0.0070 F10    
G01 X-1.4977 Y0.8725  F20    
G01 X-1.5142 Y0.8725  
G01 X-1.5047 Y0.8629  
G01 X-1.5025 Y0.8577  
G01 X-1.4994 Y0.8575  
G01 X-1.4927 Y0.8575  
G01 X-1.4923 Y0.8570  
G01 X-1.4916 Y0.8570  
G01 X-1.4872 Y0.8520  
G01 X-1.4825 Y0.8472  
G01 X-1.4825 Y0.8466  
G01 X-1.4525 Y0.8123  
G01 X-1.4525 Y0.8232  
G00 Z0.1000  
G00 X-1.4825 Y0.6577  
G01 Z-0.0070 F10    
G01 X-1.4985 Y0.6385  F20    
G01 X-1.4985 Y0.6371  
G01 X-1.4825 Y0.6563  
G01 X-1.4825 Y0.6577  
G00 Z0.1000  
G00 X-0.4872 Y0.0375  
G01 Z-0.0070 F10    
G01 X-0.1575 Y0.3672  F20    
G01 X-0.1575 Y0.3696  
G01 X-0.1716 Y0.3555  
G01 X-0.1797 Y0.3555  
G01 X-0.4925 Y0.0427  
G01 X-0.4978 Y0.0375  
G01 X-0.4872 Y0.0375  
G00 Z0.1000  
G00 X-0.1575 Y0.5304  
G01 Z-0.0070 F10    
G01 X-0.1575 Y0.5362  F20    
G01 X-0.1602 Y0.5351  
G01 X-0.1612 Y0.5341  
G01 X-0.1575 Y0.5304  
G00 Z0.1000  
G00 X-0.8579 Y0.7053  
G01 Z-0.0070 F10    
G01 X-0.8465 Y0.6939  F20    
G01 X-0.8415 Y0.6817  
G01 X-0.8365 Y0.6939  
G01 X-0.8251 Y0.7053  
G01 X-0.8102 Y0.7114  
G01 X-0.7941 Y0.7114  
G01 X-0.7792 Y0.7053  
G01 X-0.7678 Y0.6939  
G01 X-0.7628 Y0.6817  
G01 X-0.7577 Y0.6939  
G01 X-0.7463 Y0.7053  
G01 X-0.7314 Y0.7114  
G01 X-0.7162 Y0.7114  
G01 X-0.7537 Y0.7490  
G01 X-0.7547 Y0.7486  
G01 X-0.7708 Y0.7486  
G01 X-0.7857 Y0.7547  
G01 X-0.7971 Y0.7661  
G01 X-0.8021 Y0.7783  
G01 X-0.8072 Y0.7661  
G01 X-0.8186 Y0.7547  
G01 X-0.8275 Y0.7510  
G01 X-0.8275 Y0.7477  
G01 X-0.8377 Y0.7375  
G01 X-0.8664 Y0.7088  
G01 X-0.8579 Y0.7053  
G00 Z0.1000  
G00 X-0.3254 Y0.9725  
G01 Z-0.0070 F10    
G01 X-0.3802 Y0.9725  F20    
G01 X-0.3852 Y0.9675  
G01 X-0.3204 Y0.9675  
G01 X-0.3254 Y0.9725  
G00 Z0.1000  
G00 X-0.8072 Y0.8740  
G01 Z-0.0070 F10    
G01 X-0.8021 Y0.8618  F20    
G01 X-0.7971 Y0.8740  
G01 X-0.7886 Y0.8825  
G01 X-0.8157 Y0.8825  
G01 X-0.8072 Y0.8740  
G00 Z0.1000  
G00 X-0.8859 Y0.8740  
G01 Z-0.0070 F10    
G01 X-0.8809 Y0.8618  F20    
G01 X-0.8758 Y0.8740  
G01 X-0.8673 Y0.8825  
G01 X-0.8944 Y0.8825  
G01 X-0.8859 Y0.8740  
G00 Z0.1000  
G00 X-0.1455 Y0.6184  
G01 Z-0.0070 F10    
G01 X-0.1455 Y0.5842  F20    
G01 X-0.1175 Y0.6122  
G01 X-0.1175 Y0.6675  
G01 X-0.1185 Y0.6667  
G01 X-0.1227 Y0.6625  
G01 X-0.1242 Y0.6625  
G01 X-0.1585 Y0.6367  
G01 X-0.1612 Y0.6341  
G01 X-0.1455 Y0.6184  
G00 Z0.1000  
G00 X-0.1227 Y0.8375  
G01 Z-0.0070 F10    
G01 X-0.1185 Y0.8333  F20    
G01 X-0.1175 Y0.8325  
G01 X-0.1175 Y0.9075  
G01 X-0.1700 Y0.9571  
G01 X-0.1716 Y0.9555  
G01 X-0.2084 Y0.9555  
G01 X-0.2345 Y0.9816  
G01 X-0.2345 Y1.0184  
G01 X-0.2313 Y1.0216  
G01 X-0.3522 Y1.1425  
G01 X-1.0872 Y1.1425  
G01 X-1.0913 Y1.1411  
G01 X-1.0935 Y1.1422  
G01 X-1.1003 Y1.1355  
G01 X-1.1196 Y1.1275  
G01 X-1.1404 Y1.1275  
G01 X-1.1597 Y1.1355  
G01 X-1.1745 Y1.1503  
G01 X-1.1777 Y1.1580  
G01 X-1.1805 Y1.1552  
G01 X-1.1527 Y1.1275  
G01 X-0.4927 Y1.1275  
G01 X-0.4825 Y1.1172  
G01 X-0.4058 Y1.0405  
G01 X-0.3932 Y1.0405  
G01 X-0.3695 Y1.0168  
G01 X-0.3695 Y1.0075  
G01 X-0.3345 Y1.0075  
G01 X-0.3345 Y1.0184  
G01 X-0.3084 Y1.0445  
G01 X-0.2716 Y1.0445  
G01 X-0.2455 Y1.0184  
G01 X-0.2455 Y0.9816  
G01 X-0.2596 Y0.9675  
G01 X-0.2472 Y0.9675  
G01 X-0.2327 Y0.9675  
G01 X-0.2091 Y0.9438  
G01 X-0.2084 Y0.9445  
G01 X-0.1716 Y0.9445  
G01 X-0.1455 Y0.9184  
G01 X-0.1455 Y0.8816  
G01 X-0.1612 Y0.8659  
G01 X-0.1585 Y0.8633  
G01 X-0.1242 Y0.8375  
G01 X-0.1227 Y0.8375  
G00 Z0.1000  
G00 X-0.3084 Y0.8445  
G01 Z-0.0070 F10    
G01 X-0.2716 Y0.8445  F20    
G01 X-0.2455 Y0.8184  
G01 X-0.2455 Y0.7816  
G01 X-0.2596 Y0.7675  
G01 X-0.2472 Y0.7675  
G01 X-0.2338 Y0.7809  
G01 X-0.2345 Y0.7816  
G01 X-0.2345 Y0.8184  
G01 X-0.2204 Y0.8325  
G01 X-0.2327 Y0.8325  
G01 X-0.2472 Y0.8325  
G01 X-0.2709 Y0.8562  
G01 X-0.2716 Y0.8555  
G01 X-0.3084 Y0.8555  
G01 X-0.3345 Y0.8816  
G01 X-0.3345 Y0.9184  
G01 X-0.3204 Y0.9325  
G01 X-0.4342 Y0.9325  
G01 X-0.3312 Y0.8217  
G01 X-0.3084 Y0.8445  
G00 Z0.1000  
G00 X-0.2204 Y0.8675  
G01 Z-0.0070 F10    
G01 X-0.2345 Y0.8816  F20    
G01 X-0.2345 Y0.9184  
G01 X-0.2338 Y0.9191  
G01 X-0.2472 Y0.9325  
G01 X-0.2596 Y0.9325  
G01 X-0.2455 Y0.9184  
G01 X-0.2455 Y0.8816  
G01 X-0.2462 Y0.8809  
G01 X-0.2327 Y0.8675  
G01 X-0.2204 Y0.8675  
G00 Z0.1000  
G00 X-0.2455 Y0.6184  
G01 Z-0.0070 F10    
G01 X-0.2455 Y0.5816  F20    
G01 X-0.2596 Y0.5675  
G01 X-0.2204 Y0.5675  
G01 X-0.2345 Y0.5816  
G01 X-0.2345 Y0.6184  
G01 X-0.2204 Y0.6325  
G01 X-0.2596 Y0.6325  
G01 X-0.2455 Y0.6184  
G00 Z0.1000  
G00 X-0.7285 Y0.3619  
G01 Z-0.0070 F10    
G01 X-0.7347 Y0.3471  F20    
G01 X-0.7461 Y0.3357  
G01 X-0.7609 Y0.3295  
G01 X-0.8391 Y0.3295  
G01 X-0.8539 Y0.3357  
G01 X-0.8653 Y0.3471  
G01 X-0.8715 Y0.3619  
G01 X-0.8715 Y0.3781  
G01 X-0.8653 Y0.3929  
G01 X-0.8558 Y0.4025  
G01 X-0.9075 Y0.4025  
G01 X-0.9075 Y0.3275  
G01 X-0.7122 Y0.3275  
G01 X-0.6622 Y0.3775  
G01 X-0.6477 Y0.3775  
G01 X-0.5322 Y0.3775  
G01 X-0.3422 Y0.5675  
G01 X-0.3277 Y0.5675  
G01 X-0.3204 Y0.5675  
G01 X-0.3345 Y0.5816  
G01 X-0.3345 Y0.6184  
G01 X-0.3204 Y0.6325  
G01 X-0.3327 Y0.6325  
G01 X-0.4625 Y0.5027  
G01 X-0.4625 Y0.4977  
G01 X-0.5375 Y0.4227  
G01 X-0.5477 Y0.4125  
G01 X-0.6877 Y0.4125  
G01 X-0.7285 Y0.3717  
G01 X-0.7285 Y0.3619  
G00 Z0.1000  
G00 X-0.3345 Y0.6816  
G01 Z-0.0070 F10    
G01 X-0.3345 Y0.7184  F20    
G01 X-0.3204 Y0.7325  
G01 X-0.3427 Y0.7325  
G01 X-0.3572 Y0.7325  
G01 X-0.5072 Y0.8825  
G01 X-0.7369 Y0.8825  
G01 X-0.7284 Y0.8740  
G01 X-0.7223 Y0.8591  
G01 X-0.7223 Y0.7810  
G01 X-0.7264 Y0.7711  
G01 X-0.6525 Y0.6972  
G01 X-0.6525 Y0.6827  
G01 X-0.6525 Y0.5722  
G01 X-0.6525 Y0.5577  
G01 X-0.7975 Y0.4127  
G01 X-0.7998 Y0.4105  
G01 X-0.7609 Y0.4105  
G01 X-0.7461 Y0.4043  
G01 X-0.7457 Y0.4040  
G01 X-0.7022 Y0.4475  
G01 X-0.6877 Y0.4475  
G01 X-0.5622 Y0.4475  
G01 X-0.4975 Y0.5122  
G01 X-0.4975 Y0.5172  
G01 X-0.4872 Y0.5275  
G01 X-0.3472 Y0.6675  
G01 X-0.3327 Y0.6675  
G01 X-0.3204 Y0.6675  
G01 X-0.3345 Y0.6816  
G00 Z0.1000  
G00 X-0.1716 Y0.7555  
G01 Z-0.0070 F10    
G01 X-0.2084 Y0.7555  F20    
G01 X-0.2091 Y0.7562  
G01 X-0.2225 Y0.7427  
G01 X-0.2327 Y0.7325  
G01 X-0.2596 Y0.7325  
G01 X-0.2455 Y0.7184  
G01 X-0.2455 Y0.6816  
G01 X-0.2596 Y0.6675  
G01 X-0.2204 Y0.6675  
G01 X-0.2345 Y0.6816  
G01 X-0.2345 Y0.7184  
G01 X-0.2084 Y0.7445  
G01 X-0.1716 Y0.7445  
G01 X-0.1475 Y0.7204  
G01 X-0.1475 Y0.7796  
G01 X-0.1716 Y0.7555  
G00 Z0.1000  
G00 X-1.2309 Y0.5995  
G01 Z-0.0070 F10    
G01 X-1.3091 Y0.5995  F20    
G01 X-1.3239 Y0.6057  
G01 X-1.3353 Y0.6171  
G01 X-1.3415 Y0.6319  
G01 X-1.3415 Y0.6481  
G01 X-1.3375 Y0.6578  
G01 X-1.3425 Y0.6527  
G01 X-1.3425 Y0.6172  
G01 X-1.3058 Y0.5805  
G01 X-1.2309 Y0.5805  
G01 X-1.2161 Y0.5743  
G01 X-1.2047 Y0.5629  
G01 X-1.1985 Y0.5481  
G01 X-1.1985 Y0.5319  
G01 X-1.2047 Y0.5171  
G01 X-1.2142 Y0.5075  
G01 X-0.8922 Y0.5075  
G01 X-0.8251 Y0.5746  
G01 X-0.8365 Y0.5860  
G01 X-0.8415 Y0.5982  
G01 X-0.8465 Y0.5860  
G01 X-0.8579 Y0.5746  
G01 X-0.8728 Y0.5684  
G01 X-0.8889 Y0.5684  
G01 X-0.9038 Y0.5746  
G01 X-0.9152 Y0.5860  
G01 X-0.9214 Y0.6009  
G01 X-0.9214 Y0.6125  
G01 X-1.2092 Y0.6125  
G01 X-1.2161 Y0.6057  
G01 X-1.2309 Y0.5995  
G00 Z0.1000  
G00 X-0.9214 Y0.6790  
G01 Z-0.0070 F10    
G01 X-0.9152 Y0.6939  F20    
G01 X-0.9038 Y0.7053  
G01 X-0.8984 Y0.7075  
G01 X-0.9077 Y0.7075  
G01 X-0.9427 Y0.6725  
G01 X-0.9572 Y0.6725  
G01 X-1.2142 Y0.6725  
G01 X-1.2047 Y0.6629  
G01 X-1.1985 Y0.6481  
G01 X-1.1985 Y0.6475  
G01 X-0.9214 Y0.6475  
G01 X-0.9214 Y0.6790  
G00 Z0.1000  
G00 X-1.3258 Y1.0075  
G01 Z-0.0070 F10    
G01 X-1.3353 Y1.0171  F20    
G01 X-1.3415 Y1.0319  
G01 X-1.3415 Y1.0481  
G01 X-1.3353 Y1.0629  
G01 X-1.3239 Y1.0743  
G01 X-1.3091 Y1.0805  
G01 X-1.2309 Y1.0805  
G01 X-1.2161 Y1.0743  
G01 X-1.2092 Y1.0675  
G01 X-0.4972 Y1.0675  
G01 X-0.4827 Y1.0675  
G01 X-0.4527 Y1.0375  
G01 X-0.4425 Y1.0272  
G01 X-0.4425 Y1.0248  
G01 X-0.4410 Y1.0263  
G01 X-0.5072 Y1.0925  
G01 X-1.1527 Y1.0925  
G01 X-1.1672 Y1.0925  
G01 X-1.2052 Y1.1305  
G01 X-1.2083 Y1.1275  
G01 X-1.2517 Y1.1275  
G01 X-1.2647 Y1.1405  
G01 X-1.2925 Y1.1128  
G01 X-1.3027 Y1.1025  
G01 X-1.4127 Y1.1025  
G01 X-1.4272 Y1.1025  
G01 X-1.4472 Y1.1225  
G01 X-1.4575 Y1.1327  
G01 X-1.4575 Y1.1452  
G01 X-1.4690 Y1.1337  
G01 X-1.3427 Y1.0075  
G01 X-1.3327 Y1.0075  
G01 X-1.3258 Y1.0075  
G00 Z0.1000  
G00 X-1.3575 Y0.7780  
G01 Z-0.0070 F10    
G01 X-1.3365 Y0.7601  F20    
G01 X-1.3353 Y0.7629  
G01 X-1.3258 Y0.7725  
G01 X-1.3372 Y0.7725  
G01 X-1.3475 Y0.7827  
G01 X-1.3575 Y0.7928  
G01 X-1.3575 Y0.7780  
G00 Z0.1000  
G00 X-0.9607 Y0.8591  
G01 Z-0.0070 F10    
G01 X-0.9546 Y0.8740  F20    
G01 X-0.9461 Y0.8825  
G01 X-1.1427 Y0.8825  
G01 X-1.1925 Y0.8327  
G01 X-1.2022 Y0.8231  
G01 X-1.2047 Y0.8171  
G01 X-1.2142 Y0.8075  
G01 X-1.2022 Y0.8075  
G01 X-1.1825 Y0.8272  
G01 X-1.1722 Y0.8375  
G01 X-0.9607 Y0.8375  
G01 X-0.9607 Y0.8591  
G00 Z0.1000  
G00 X-1.2047 Y0.7629  
G01 Z-0.0070 F10    
G01 X-1.1985 Y0.7481  F20    
G01 X-1.1985 Y0.7319  
G01 X-1.2047 Y0.7171  
G01 X-1.2142 Y0.7075  
G01 X-0.9572 Y0.7075  
G01 X-0.9325 Y0.7322  
G01 X-0.9222 Y0.7425  
G01 X-0.8822 Y0.7425  
G01 X-0.8672 Y0.7575  
G01 X-0.8758 Y0.7661  
G01 X-0.8809 Y0.7783  
G01 X-0.8859 Y0.7661  
G01 X-0.8973 Y0.7547  
G01 X-0.9122 Y0.7486  
G01 X-0.9283 Y0.7486  
G01 X-0.9432 Y0.7547  
G01 X-0.9546 Y0.7661  
G01 X-0.9607 Y0.7810  
G01 X-0.9607 Y0.8025  
G01 X-1.1577 Y0.8025  
G01 X-1.1877 Y0.7725  
G01 X-1.2022 Y0.7725  
G01 X-1.2142 Y0.7725  
G01 X-1.2047 Y0.7629  
G00 Z0.1000  
G00 X-1.5075 Y1.1227  
G01 Z-0.0070 F10    
G01 X-1.5075 Y1.1302  F20    
G01 X-1.5305 Y1.1532  
G01 X-1.5305 Y1.1825  
G01 X-1.7072 Y1.1825  
G01 X-1.7113 Y1.1811  
G01 X-1.7135 Y1.1822  
G01 X-1.7203 Y1.1755  
G01 X-1.7280 Y1.1723  
G01 X-1.6975 Y1.1417  
G01 X-1.6975 Y1.0983  
G01 X-1.7283 Y1.0675  
G01 X-1.7717 Y1.0675  
G01 X-1.8025 Y1.0983  
G01 X-1.8025 Y1.1417  
G01 X-1.7995 Y1.1447  
G01 X-1.8272 Y1.1725  
G01 X-1.9078 Y1.1725  
G01 X-1.7727 Y1.0375  
G01 X-1.7272 Y1.0375  
G01 X-1.6472 Y1.1175  
G01 X-1.6327 Y1.1175  
G01 X-1.5027 Y1.1175  
G01 X-1.4925 Y1.1072  
G01 X-1.4625 Y1.0772  
G01 X-1.4625 Y1.0627  
G01 X-1.4625 Y1.0470  
G01 X-1.3625 Y0.9422  
G01 X-1.3625 Y0.9777  
G01 X-1.5075 Y1.1227  
G00 Z0.1000  
G00 X-1.3258 Y0.9725  
G01 Z-0.0070 F10    
G01 X-1.3275 Y0.9725  F20    
G01 X-1.3275 Y0.9708  
G01 X-1.3258 Y0.9725  
G00 Z0.1000  
G00 X-1.2309 Y0.8995  
G01 Z-0.0070 F10    
G01 X-1.3091 Y0.8995  F20    
G01 X-1.3239 Y0.9057  
G01 X-1.3275 Y0.9092  
G01 X-1.3275 Y0.8708  
G01 X-1.3239 Y0.8743  
G01 X-1.3091 Y0.8805  
G01 X-1.2309 Y0.8805  
G01 X-1.2161 Y0.8743  
G01 X-1.2082 Y0.8665  
G01 X-1.1572 Y0.9175  
G01 X-1.1427 Y0.9175  
G01 X-0.4927 Y0.9175  
G01 X-0.4825 Y0.9072  
G01 X-0.3427 Y0.7675  
G01 X-0.3204 Y0.7675  
G01 X-0.3345 Y0.7816  
G01 X-0.3345 Y0.7825  
G01 X-0.3353 Y0.7825  
G01 X-0.3422 Y0.7825  
G01 X-0.3425 Y0.7828  
G01 X-0.3429 Y0.7828  
G01 X-0.3476 Y0.7879  
G01 X-0.3525 Y0.7927  
G01 X-0.3525 Y0.7931  
G01 X-0.4726 Y0.9225  
G01 X-1.2024 Y0.9225  
G01 X-1.2047 Y0.9171  
G01 X-1.2161 Y0.9057  
G01 X-1.2309 Y0.8995  
G00 Z0.1000  
G00 X-1.2047 Y0.9629  
G01 Z-0.0070 F10    
G01 X-1.2024 Y0.9575  F20    
G01 X-0.4719 Y0.9575  
G01 X-0.4716 Y0.9578  
G01 X-0.4647 Y0.9575  
G01 X-0.4622 Y0.9575  
G01 X-0.4775 Y0.9727  
G01 X-0.4775 Y0.9752  
G01 X-0.4932 Y0.9595  
G01 X-0.5268 Y0.9595  
G01 X-0.5398 Y0.9725  
G01 X-1.2142 Y0.9725  
G01 X-1.2047 Y0.9629  
G00 Z0.1000  
G00 X-0.5505 Y1.0168  
G01 Z-0.0070 F10    
G01 X-0.5348 Y1.0325  F20    
G01 X-1.1985 Y1.0325  
G01 X-1.1985 Y1.0319  
G01 X-1.2047 Y1.0171  
G01 X-1.2142 Y1.0075  
G01 X-0.5505 Y1.0075  
G01 X-0.5505 Y1.0168  
G00 Z0.1000  
G00 X-1.4732 Y1.2105  
G01 Z-0.0070 F10    
G01 X-1.4575 Y1.1948  F20    
G01 X-1.4575 Y1.2052  
G01 X-1.4805 Y1.2282  
G01 X-1.4805 Y1.2607  
G01 X-1.4922 Y1.2725  
G01 X-1.7627 Y1.2725  
G01 X-1.7644 Y1.2709  
G01 X-1.7604 Y1.2725  
G01 X-1.7396 Y1.2725  
G01 X-1.7203 Y1.2645  
G01 X-1.7055 Y1.2497  
G01 X-1.6975 Y1.2304  
G01 X-1.6975 Y1.2175  
G01 X-1.5127 Y1.2175  
G01 X-1.5058 Y1.2105  
G01 X-1.4732 Y1.2105  
G00 Z0.1000  
G00 X-1.3875 Y0.5522  
G01 Z-0.0070 F10    
G01 X-1.3825 Y0.5472  F20    
G01 X-1.3825 Y0.5327  
G01 X-1.3875 Y0.5277  
G01 X-1.3875 Y0.5075  
G01 X-1.3258 Y0.5075  
G01 X-1.3353 Y0.5171  
G01 X-1.3415 Y0.5319  
G01 X-1.3415 Y0.5481  
G01 X-1.3360 Y0.5613  
G01 X-1.3775 Y0.6027  
G01 X-1.3775 Y0.6172  
G01 X-1.3775 Y0.6672  
G01 X-1.3672 Y0.6775  
G01 X-1.3372 Y0.7075  
G01 X-1.3258 Y0.7075  
G01 X-1.3353 Y0.7171  
G01 X-1.3376 Y0.7225  
G01 X-1.3393 Y0.7225  
G01 X-1.3459 Y0.7220  
G01 X-1.3465 Y0.7225  
G01 X-1.3472 Y0.7225  
G01 X-1.3519 Y0.7271  
G01 X-1.3815 Y0.7525  
G01 X-1.3822 Y0.7525  
G01 X-1.3869 Y0.7572  
G01 X-1.3875 Y0.7577  
G01 X-1.3875 Y0.5522  
G00 Z0.1000  
G00 X-1.5125 Y0.7708  
G01 Z-0.0070 F10    
G01 X-1.5125 Y0.7725  F20    
G01 X-1.5142 Y0.7725  
G01 X-1.5125 Y0.7708  
G00 Z0.1000  
G00 X-1.4322 Y0.1275  
G01 Z-0.0070 F10    
G01 X-1.4375 Y0.1327  F20    
G01 X-1.4675 Y0.1627  
G01 X-1.4675 Y0.1772  
G01 X-1.4675 Y0.5987  
G01 X-1.4683 Y0.6047  
G01 X-1.4675 Y0.6058  
G01 X-1.4675 Y0.6072  
G01 X-1.4633 Y0.6115  
G01 X-1.4525 Y0.6258  
G01 X-1.4525 Y0.6377  
G01 X-1.4725 Y0.6137  
G01 X-1.4725 Y0.1472  
G01 X-1.4527 Y0.1275  
G01 X-1.4322 Y0.1275  
G00 Z0.1000  
G00 X-1.7720 Y1.1723  
G01 Z-0.0070 F10    
G01 X-1.7797 Y1.1755  F20    
G01 X-1.7945 Y1.1903  
G01 X-1.8025 Y1.2096  
G01 X-1.8025 Y1.2304  
G01 X-1.8009 Y1.2344  
G01 X-1.8025 Y1.2327  
G01 X-1.8025 Y1.1972  
G01 X-1.7747 Y1.1695  
G01 X-1.7720 Y1.1723  
G00 Z0.1000  
G00 X-2.0847 Y0.1271  
G01 Z-0.0070 F10    
G01 X-2.0961 Y0.1157  F20    
G01 X-2.1109 Y0.1095  
G01 X-2.1891 Y0.1095  
G01 X-2.2039 Y0.1157  
G01 X-2.2153 Y0.1271  
G01 X-2.2215 Y0.1419  
G01 X-2.2215 Y0.1581  
G01 X-2.2153 Y0.1729  
G01 X-2.2039 Y0.1843  
G01 X-2.1891 Y0.1905  
G01 X-2.1275 Y0.1905  
G01 X-2.1275 Y0.2027  
G01 X-2.1342 Y0.2095  
G01 X-2.1891 Y0.2095  
G01 X-2.2039 Y0.2157  
G01 X-2.2153 Y0.2271  
G01 X-2.2215 Y0.2419  
G01 X-2.2215 Y0.2581  
G01 X-2.2153 Y0.2729  
G01 X-2.2039 Y0.2843  
G01 X-2.1891 Y0.2905  
G01 X-2.1275 Y0.2905  
G01 X-2.1275 Y0.3027  
G01 X-2.1342 Y0.3095  
G01 X-2.1891 Y0.3095  
G01 X-2.2039 Y0.3157  
G01 X-2.2153 Y0.3271  
G01 X-2.2176 Y0.3325  
G01 X-2.3125 Y0.3325  
G01 X-2.3125 Y0.1272  
G01 X-2.2228 Y0.0375  
G01 X-2.0572 Y0.0375  
G01 X-2.0625 Y0.0427  
G01 X-2.0722 Y0.0525  
G01 X-2.0825 Y0.0627  
G01 X-2.0825 Y0.1323  
G01 X-2.0847 Y0.1271  
G00 Z0.1000  
G00 X-2.0847 Y0.2271  
G01 Z-0.0070 F10    
G01 X-2.0935 Y0.2182  F20    
G01 X-2.0925 Y0.2172  
G01 X-2.0925 Y0.2027  
G01 X-2.0925 Y0.1808  
G01 X-2.0847 Y0.1729  
G01 X-2.0825 Y0.1677  
G01 X-2.0825 Y0.2323  
G01 X-2.0847 Y0.2271  
G00 Z0.1000  
G00 X-2.0847 Y0.3271  
G01 Z-0.0070 F10    
G01 X-2.0935 Y0.3182  F20    
G01 X-2.0925 Y0.3172  
G01 X-2.0925 Y0.3027  
G01 X-2.0925 Y0.2808  
G01 X-2.0847 Y0.2729  
G01 X-2.0825 Y0.2677  
G01 X-2.0825 Y0.3323  
G01 X-2.0847 Y0.3271  
G00 Z0.1000  
G00 X-2.0825 Y0.3677  
G01 Z-0.0070 F10    
G01 X-2.0825 Y0.3709  F20    
G01 X-2.0844 Y0.3723  
G01 X-2.0825 Y0.3677  
G00 Z0.1000  
G00 X-2.0577 Y0.3975  
G01 Z-0.0070 F10    
