(.../john/src/pcbgcode/pcb-gcode.ulp)
(Copyright 2005 - 2012 by John Johnson)
(See readme.txt for licensing terms.)
(This file generated from the board:)
(.../docs/examples/04151_lcdi2c.brd)
(Current profile is .../pcb-gcode-3.6.2.4/profiles/generic.pp  )
(This file generated 8/21/22 1:59 PM)
(Settings from pcb-machine.h)
(spindle on time = 3.0000)
(  Tool Size)
(0.0070 )
(spindle speed = 30000.0000)
(tool change at 0.0000 0.0000 1.0000 )
(feed rate xy = F20.00 )
(feed rate z  = F10.00 )
(Z Axis Settings)
(  High     Up        Down     Drill)
(0.5000 	0.1000 	-0.0070 	-0.0700 )
(Settings from pcb-defaults.h)
(isolate min = 0.0010)
(isolate max = 0.0200)
(isolate step = 0.0050)
(Generated top outlines, top drill, bottom outlines, bottom drill, )
(Unit of measure: inch)
(Beginning of every file)
(Beginning of every bottom file)
(Outline Begin)
(Bottom outline Begin)
(Inch Mode)
G20
(Absolute Coordinates)
G90
(Set XY plane for z interpolation)
G17
S30000
G00 Z0.5000 
G00 X0.0000 Y0.0000 
M03
G04 P3.000000
G00 Z0.1000 
G00 X-0.0200 Y0.0773 
G01 Z-0.0070 F10.00 
G01 X-0.0600 Y0.0373 F20.00 
G01 X-0.0623 Y0.0350 
G01 X-0.0652 Y0.0334 
G01 X-0.0684 Y0.0325 
G01 X-0.5816 Y0.0325 
G01 X-0.5848 Y0.0334 
G01 X-0.5877 Y0.0350 
G01 X-0.5900 Y0.0373 
G01 X-0.6972 Y0.1445 
G01 X-0.7495 Y0.1445 
G01 X-0.7564 Y0.1459 
G01 X-0.7628 Y0.1485 
G01 X-0.7686 Y0.1524 
G01 X-0.7736 Y0.1574 
G01 X-0.7775 Y0.1632 
G01 X-0.7801 Y0.1696 
G01 X-0.7815 Y0.1765 
G01 X-0.7815 Y0.1835 
G01 X-0.7801 Y0.1904 
G01 X-0.7775 Y0.1968 
G01 X-0.7736 Y0.2026 
G01 X-0.7686 Y0.2076 
G01 X-0.7628 Y0.2115 
G01 X-0.7564 Y0.2141 
G01 X-0.7495 Y0.2155 
G01 X-0.6805 Y0.2155 
G01 X-0.6736 Y0.2141 
G01 X-0.6672 Y0.2115 
G01 X-0.6614 Y0.2076 
G01 X-0.6564 Y0.2026 
G01 X-0.6525 Y0.1968 
G01 X-0.6499 Y0.1904 
G01 X-0.6485 Y0.1835 
G01 X-0.6485 Y0.1765 
G01 X-0.6499 Y0.1696 
G01 X-0.6525 Y0.1632 
G01 X-0.6564 Y0.1574 
G01 X-0.6614 Y0.1524 
G01 X-0.6664 Y0.1491 
G01 X-0.5748 Y0.0575 
G01 X-0.0752 Y0.0575 
G01 X-0.0425 Y0.0902 
G01 X-0.0425 Y0.9647 
G01 X-0.3501 Y1.2625 
G01 X-0.4598 Y1.2625 
G01 X-0.4625 Y1.2598 
G01 X-0.4625 Y1.1275 
G01 X-0.3534 Y1.1275 
G01 X-0.3502 Y1.1266 
G01 X-0.3473 Y1.1250 
G01 X-0.3450 Y1.1227 
G01 X-0.2800 Y1.0577 
G01 X-0.2784 Y1.0548 
G01 X-0.2775 Y1.0516 
G01 X-0.2775 Y1.0395 
G01 X-0.2736 Y1.0395 
G01 X-0.2505 Y1.0164 
G01 X-0.2505 Y0.9836 
G01 X-0.2736 Y0.9605 
G01 X-0.3064 Y0.9605 
G01 X-0.3295 Y0.9836 
G01 X-0.3295 Y1.0164 
G01 X-0.3064 Y1.0395 
G01 X-0.3025 Y1.0395 
G01 X-0.3025 Y1.0448 
G01 X-0.3602 Y1.1025 
G01 X-0.4951 Y1.1025 
G01 X-0.4951 Y1.0825 
G01 X-0.4958 Y1.0808 
G01 X-0.4970 Y1.0796 
G01 X-0.4987 Y1.0789 
G01 X-0.5713 Y1.0789 
G01 X-0.5730 Y1.0796 
G01 X-0.5742 Y1.0808 
G01 X-0.5749 Y1.0825 
G01 X-0.5749 Y1.1024 
G01 X-0.5765 Y1.1024 
G01 X-0.5797 Y1.1032 
G01 X-0.5825 Y1.1048 
G01 X-0.5825 Y1.0034 
G01 X-0.5834 Y1.0002 
G01 X-0.5850 Y0.9973 
G01 X-0.5873 Y0.9950 
G01 X-0.6775 Y0.9048 
G01 X-0.6775 Y0.7684 
G01 X-0.6784 Y0.7652 
G01 X-0.6800 Y0.7623 
G01 X-0.6823 Y0.7600 
G01 X-0.7223 Y0.7200 
G01 X-0.7252 Y0.7184 
G01 X-0.7284 Y0.7175 
G01 X-0.7798 Y0.7175 
G01 X-0.7896 Y0.7077 
G01 X-0.7896 Y0.7042 
G01 X-0.7853 Y0.7024 
G01 X-0.7795 Y0.6985 
G01 X-0.7746 Y0.6936 
G01 X-0.7707 Y0.6878 
G01 X-0.7680 Y0.6813 
G01 X-0.7666 Y0.6744 
G01 X-0.7666 Y0.6054 
G01 X-0.7680 Y0.5986 
G01 X-0.7707 Y0.5921 
G01 X-0.7746 Y0.5863 
G01 X-0.7795 Y0.5814 
G01 X-0.7853 Y0.5775 
G01 X-0.7918 Y0.5748 
G01 X-0.7986 Y0.5734 
G01 X-0.8056 Y0.5734 
G01 X-0.8125 Y0.5748 
G01 X-0.8189 Y0.5775 
G01 X-0.8248 Y0.5814 
G01 X-0.8297 Y0.5863 
G01 X-0.8336 Y0.5921 
G01 X-0.8363 Y0.5986 
G01 X-0.8376 Y0.6054 
G01 X-0.8376 Y0.6744 
G01 X-0.8363 Y0.6813 
G01 X-0.8336 Y0.6878 
G01 X-0.8297 Y0.6936 
G01 X-0.8248 Y0.6985 
G01 X-0.8189 Y0.7024 
G01 X-0.8146 Y0.7042 
G01 X-0.8146 Y0.7145 
G01 X-0.8138 Y0.7177 
G01 X-0.8121 Y0.7205 
G01 X-0.7950 Y0.7377 
G01 X-0.7927 Y0.7400 
G01 X-0.7898 Y0.7416 
G01 X-0.7866 Y0.7425 
G01 X-0.7352 Y0.7425 
G01 X-0.7025 Y0.7752 
G01 X-0.7025 Y0.9116 
G01 X-0.7016 Y0.9148 
G01 X-0.7000 Y0.9177 
G01 X-0.6075 Y1.0102 
G01 X-0.6075 Y1.1298 
G01 X-0.7002 Y1.2225 
G01 X-0.7875 Y1.2225 
G01 X-0.7875 Y1.2153 
G01 X-0.8153 Y1.1875 
G01 X-0.8547 Y1.1875 
G01 X-0.8825 Y1.2153 
G01 X-0.8825 Y1.2225 
G01 X-1.0345 Y1.2225 
G01 X-1.0345 Y1.2153 
G01 X-1.0553 Y1.1945 
G01 X-1.0847 Y1.1945 
G01 X-1.1055 Y1.2153 
G01 X-1.1055 Y1.2175 
G01 X-1.3025 Y1.2175 
G01 X-1.3025 Y1.2053 
G01 X-1.3303 Y1.1775 
G01 X-1.3697 Y1.1775 
G01 X-1.3975 Y1.2053 
G01 X-1.3975 Y1.2175 
G01 X-1.4687 Y1.2175 
G01 X-1.4687 Y1.1873 
G01 X-1.4694 Y1.1856 
G01 X-1.4706 Y1.1844 
G01 X-1.4723 Y1.1837 
G01 X-1.5577 Y1.1837 
G01 X-1.5594 Y1.1844 
G01 X-1.5606 Y1.1856 
G01 X-1.5613 Y1.1873 
G01 X-1.5613 Y1.2727 
G01 X-1.5606 Y1.2744 
G01 X-1.5594 Y1.2756 
G01 X-1.5577 Y1.2763 
G01 X-1.4723 Y1.2763 
G01 X-1.4706 Y1.2756 
G01 X-1.4694 Y1.2744 
G01 X-1.4687 Y1.2727 
G01 X-1.4687 Y1.2425 
G01 X-1.3975 Y1.2425 
G01 X-1.3975 Y1.2447 
G01 X-1.3697 Y1.2725 
G01 X-1.3303 Y1.2725 
G01 X-1.3025 Y1.2447 
G01 X-1.3025 Y1.2425 
G01 X-1.1055 Y1.2425 
G01 X-1.1055 Y1.2447 
G01 X-1.0847 Y1.2655 
G01 X-1.0553 Y1.2655 
G01 X-1.0373 Y1.2475 
G01 X-0.8825 Y1.2475 
G01 X-0.8825 Y1.2547 
G01 X-0.8547 Y1.2825 
G01 X-0.8153 Y1.2825 
G01 X-0.7875 Y1.2547 
G01 X-0.7875 Y1.2475 
G01 X-0.6934 Y1.2475 
G01 X-0.6902 Y1.2466 
G01 X-0.6873 Y1.2450 
G01 X-0.6850 Y1.2427 
G01 X-0.5873 Y1.1450 
G01 X-0.5850 Y1.1427 
G01 X-0.5749 Y1.1326 
G01 X-0.5749 Y1.1473 
G01 X-0.5742 Y1.1489 
G01 X-0.5730 Y1.1502 
G01 X-0.5713 Y1.1509 
G01 X-0.4987 Y1.1509 
G01 X-0.4970 Y1.1502 
G01 X-0.4958 Y1.1489 
G01 X-0.4951 Y1.1473 
G01 X-0.4951 Y1.1275 
G01 X-0.4875 Y1.1275 
G01 X-0.4875 Y1.2666 
G01 X-0.4866 Y1.2698 
G01 X-0.4850 Y1.2727 
G01 X-0.4827 Y1.2750 
G01 X-0.4727 Y1.2850 
G01 X-0.4698 Y1.2866 
G01 X-0.4666 Y1.2875 
G01 X-0.3451 Y1.2875 
G01 X-0.3436 Y1.2875 
G01 X-0.3434 Y1.2875 
G01 X-0.3419 Y1.2871 
G01 X-0.3404 Y1.2867 
G01 X-0.3402 Y1.2866 
G01 X-0.3388 Y1.2859 
G01 X-0.3375 Y1.2851 
G01 X-0.3373 Y1.2850 
G01 X-0.3362 Y1.2839 
G01 X-0.0224 Y0.9801 
G01 X-0.0212 Y0.9789 
G01 X-0.0201 Y0.9778 
G01 X-0.0200 Y0.9777 
G01 X-0.0192 Y0.9763 
G01 X-0.0184 Y0.9750 
G01 X-0.0184 Y0.9748 
G01 X-0.0180 Y0.9733 
G01 X-0.0175 Y0.9718 
G01 X-0.0175 Y0.9717 
G01 X-0.0175 Y0.9701 
G01 X-0.0175 Y0.9686 
G01 X-0.0175 Y0.0834 
G01 X-0.0184 Y0.0802 
G01 X-0.0200 Y0.0773 
G00 Z0.1000 
G00 X-0.2072 Y0.1601 
G01 Z-0.0070 F10.00 
G01 X-0.2073 Y0.1601 F20.00 
G01 X-0.2087 Y0.1592 
G01 X-0.2100 Y0.1584 
G01 X-0.2102 Y0.1584 
G01 X-0.2117 Y0.1580 
G01 X-0.2132 Y0.1575 
G01 X-0.2133 Y0.1575 
G01 X-0.2149 Y0.1575 
G01 X-0.2164 Y0.1575 
G01 X-0.5616 Y0.1575 
G01 X-0.5648 Y0.1584 
G01 X-0.5677 Y0.1600 
G01 X-0.6402 Y0.2325 
G01 X-0.7998 Y0.2325 
G01 X-0.9250 Y0.1073 
G01 X-0.9273 Y0.1050 
G01 X-0.9302 Y0.1034 
G01 X-0.9334 Y0.1025 
G01 X-1.3266 Y0.1025 
G01 X-1.3298 Y0.1034 
G01 X-1.3327 Y0.1050 
G01 X-1.3614 Y0.1337 
G01 X-1.4327 Y0.1337 
G01 X-1.4344 Y0.1344 
G01 X-1.4356 Y0.1356 
G01 X-1.4363 Y0.1373 
G01 X-1.4363 Y0.2227 
G01 X-1.4356 Y0.2244 
G01 X-1.4344 Y0.2256 
G01 X-1.4327 Y0.2263 
G01 X-1.3473 Y0.2263 
G01 X-1.3456 Y0.2256 
G01 X-1.3444 Y0.2244 
G01 X-1.3437 Y0.2227 
G01 X-1.3437 Y0.1514 
G01 X-1.3198 Y0.1275 
G01 X-0.9402 Y0.1275 
G01 X-0.8127 Y0.2550 
G01 X-0.8098 Y0.2566 
G01 X-0.8066 Y0.2575 
G01 X-0.6334 Y0.2575 
G01 X-0.6302 Y0.2566 
G01 X-0.6273 Y0.2550 
G01 X-0.6250 Y0.2527 
G01 X-0.5548 Y0.1825 
G01 X-0.2203 Y0.1825 
G01 X-0.0725 Y0.3351 
G01 X-0.0725 Y0.8000 
G01 X-0.1511 Y0.8830 
G01 X-0.1736 Y0.8605 
G01 X-0.2064 Y0.8605 
G01 X-0.2295 Y0.8836 
G01 X-0.2295 Y0.9164 
G01 X-0.2064 Y0.9395 
G01 X-0.1736 Y0.9395 
G01 X-0.1505 Y0.9164 
G01 X-0.1505 Y0.9125 
G01 X-0.1498 Y0.9125 
G01 X-0.1484 Y0.9125 
G01 X-0.1482 Y0.9125 
G01 X-0.1480 Y0.9125 
G01 X-0.1466 Y0.9120 
G01 X-0.1452 Y0.9116 
G01 X-0.1450 Y0.9116 
G01 X-0.1449 Y0.9115 
G01 X-0.1436 Y0.9107 
G01 X-0.1423 Y0.9100 
G01 X-0.1422 Y0.9099 
G01 X-0.1421 Y0.9098 
G01 X-0.1410 Y0.9087 
G01 X-0.1400 Y0.9077 
G01 X-0.1399 Y0.9075 
G01 X-0.0510 Y0.8137 
G01 X-0.0500 Y0.8127 
G01 X-0.0499 Y0.8125 
G01 X-0.0498 Y0.8124 
G01 X-0.0491 Y0.8111 
G01 X-0.0484 Y0.8098 
G01 X-0.0483 Y0.8097 
G01 X-0.0482 Y0.8095 
G01 X-0.0479 Y0.8081 
G01 X-0.0475 Y0.8066 
G01 X-0.0475 Y0.8065 
G01 X-0.0475 Y0.8063 
G01 X-0.0475 Y0.8048 
G01 X-0.0475 Y0.3301 
G01 X-0.0475 Y0.3286 
G01 X-0.0475 Y0.3284 
G01 X-0.0479 Y0.3269 
G01 X-0.0483 Y0.3254 
G01 X-0.0484 Y0.3252 
G01 X-0.0491 Y0.3238 
G01 X-0.0499 Y0.3225 
G01 X-0.0500 Y0.3223 
G01 X-0.0511 Y0.3212 
G01 X-0.2049 Y0.1624 
G01 X-0.2061 Y0.1612 
G01 X-0.2072 Y0.1601 
G00 Z0.1000 
G00 X-0.1965 Y0.2225 
G01 Z-0.0070 F10.00 
G01 X-0.4637 Y0.2225 F20.00 
G01 X-0.4637 Y0.1923 
G01 X-0.4644 Y0.1906 
G01 X-0.4656 Y0.1894 
G01 X-0.4673 Y0.1887 
G01 X-0.5527 Y0.1887 
G01 X-0.5544 Y0.1894 
G01 X-0.5556 Y0.1906 
G01 X-0.5563 Y0.1923 
G01 X-0.5563 Y0.2777 
G01 X-0.5556 Y0.2794 
G01 X-0.5544 Y0.2806 
G01 X-0.5527 Y0.2813 
G01 X-0.4673 Y0.2813 
G01 X-0.4656 Y0.2806 
G01 X-0.4644 Y0.2794 
G01 X-0.4637 Y0.2777 
G01 X-0.4637 Y0.2475 
G01 X-0.2003 Y0.2475 
G01 X-0.1025 Y0.3500 
G01 X-0.1025 Y0.7456 
G01 X-0.1360 Y0.7875 
G01 X-0.1505 Y0.7875 
G01 X-0.1505 Y0.7836 
G01 X-0.1736 Y0.7605 
G01 X-0.2064 Y0.7605 
G01 X-0.2295 Y0.7836 
G01 X-0.2295 Y0.8164 
G01 X-0.2064 Y0.8395 
G01 X-0.1736 Y0.8395 
G01 X-0.1505 Y0.8164 
G01 X-0.1505 Y0.8125 
G01 X-0.1309 Y0.8125 
G01 X-0.1303 Y0.8126 
G01 X-0.1293 Y0.8125 
G01 X-0.1284 Y0.8125 
G01 X-0.1277 Y0.8123 
G01 X-0.1270 Y0.8122 
G01 X-0.1261 Y0.8119 
G01 X-0.1252 Y0.8116 
G01 X-0.1246 Y0.8113 
G01 X-0.1239 Y0.8110 
G01 X-0.1232 Y0.8105 
G01 X-0.1223 Y0.8100 
G01 X-0.1218 Y0.8095 
G01 X-0.1213 Y0.8091 
G01 X-0.1207 Y0.8083 
G01 X-0.1200 Y0.8077 
G01 X-0.1196 Y0.8071 
G01 X-0.0807 Y0.7583 
G01 X-0.0800 Y0.7577 
G01 X-0.0796 Y0.7571 
G01 X-0.0792 Y0.7565 
G01 X-0.0788 Y0.7557 
G01 X-0.0784 Y0.7548 
G01 X-0.0782 Y0.7541 
G01 X-0.0779 Y0.7535 
G01 X-0.0777 Y0.7526 
G01 X-0.0775 Y0.7516 
G01 X-0.0775 Y0.7509 
G01 X-0.0774 Y0.7503 
G01 X-0.0775 Y0.7493 
G01 X-0.0775 Y0.3451 
G01 X-0.0775 Y0.3436 
G01 X-0.0775 Y0.3435 
G01 X-0.0775 Y0.3434 
G01 X-0.0779 Y0.3419 
G01 X-0.0782 Y0.3404 
G01 X-0.0783 Y0.3403 
G01 X-0.0784 Y0.3402 
G01 X-0.0791 Y0.3389 
G01 X-0.0798 Y0.3376 
G01 X-0.0799 Y0.3375 
G01 X-0.0800 Y0.3373 
G01 X-0.0811 Y0.3363 
G01 X-0.1849 Y0.2275 
G01 X-0.1850 Y0.2273 
G01 X-0.1861 Y0.2263 
G01 X-0.1871 Y0.2252 
G01 X-0.1872 Y0.2251 
G01 X-0.1873 Y0.2250 
G01 X-0.1886 Y0.2242 
G01 X-0.1899 Y0.2235 
G01 X-0.1900 Y0.2234 
G01 X-0.1902 Y0.2234 
G01 X-0.1916 Y0.2230 
G01 X-0.1931 Y0.2225 
G01 X-0.1932 Y0.2225 
G01 X-0.1934 Y0.2225 
G01 X-0.1949 Y0.2225 
G01 X-0.1964 Y0.2225 
G01 X-0.1965 Y0.2225 
G00 Z0.1000 
G00 X-0.1973 Y0.2800 
G01 Z-0.0070 F10.00 
G01 X-0.2002 Y0.2784 F20.00 
G01 X-0.2034 Y0.2775 
G01 X-0.3916 Y0.2775 
G01 X-0.3948 Y0.2784 
G01 X-0.3977 Y0.2800 
G01 X-0.4402 Y0.3225 
G01 X-1.7716 Y0.3225 
G01 X-1.7748 Y0.3234 
G01 X-1.7777 Y0.3250 
G01 X-1.8427 Y0.3900 
G01 X-1.8450 Y0.3923 
G01 X-1.8466 Y0.3952 
G01 X-1.8475 Y0.3984 
G01 X-1.8475 Y0.7266 
G01 X-1.8466 Y0.7298 
G01 X-1.8450 Y0.7327 
G01 X-1.8427 Y0.7350 
G01 X-1.8398 Y0.7366 
G01 X-1.8366 Y0.7375 
G01 X-1.7989 Y0.7375 
G01 X-1.7989 Y0.7377 
G01 X-1.7982 Y0.7394 
G01 X-1.7970 Y0.7406 
G01 X-1.7953 Y0.7413 
G01 X-1.7069 Y0.7413 
G01 X-1.7052 Y0.7406 
G01 X-1.7040 Y0.7394 
G01 X-1.7033 Y0.7377 
G01 X-1.7033 Y0.7123 
G01 X-1.7040 Y0.7106 
G01 X-1.7052 Y0.7094 
G01 X-1.7069 Y0.7087 
G01 X-1.7953 Y0.7087 
G01 X-1.7970 Y0.7094 
G01 X-1.7982 Y0.7106 
G01 X-1.7989 Y0.7123 
G01 X-1.7989 Y0.7125 
G01 X-1.8225 Y0.7125 
G01 X-1.8225 Y0.4052 
G01 X-1.7648 Y0.3475 
G01 X-0.4334 Y0.3475 
G01 X-0.4302 Y0.3466 
G01 X-0.4273 Y0.3450 
G01 X-0.4250 Y0.3427 
G01 X-0.3848 Y0.3025 
G01 X-0.2102 Y0.3025 
G01 X-0.1325 Y0.3802 
G01 X-0.1325 Y0.4648 
G01 X-0.1509 Y0.4832 
G01 X-0.1736 Y0.4605 
G01 X-0.2064 Y0.4605 
G01 X-0.2295 Y0.4836 
G01 X-0.2295 Y0.5164 
G01 X-0.2064 Y0.5395 
G01 X-0.1736 Y0.5395 
G01 X-0.1505 Y0.5164 
G01 X-0.1505 Y0.5125 
G01 X-0.1484 Y0.5125 
G01 X-0.1452 Y0.5116 
G01 X-0.1423 Y0.5100 
G01 X-0.1100 Y0.4777 
G01 X-0.1084 Y0.4748 
G01 X-0.1075 Y0.4716 
G01 X-0.1075 Y0.3734 
G01 X-0.1084 Y0.3702 
G01 X-0.1100 Y0.3673 
G01 X-0.1950 Y0.2823 
G01 X-0.1973 Y0.2800 
G00 Z0.1000 
G00 X-0.2400 Y0.3173 
G01 Z-0.0070 F10.00 
G01 X-0.2423 Y0.3150 F20.00 
G01 X-0.2452 Y0.3134 
G01 X-0.2484 Y0.3125 
G01 X-0.3566 Y0.3125 
G01 X-0.3598 Y0.3134 
G01 X-0.3627 Y0.3150 
G01 X-0.4002 Y0.3525 
G01 X-1.5966 Y0.3525 
G01 X-1.5998 Y0.3534 
G01 X-1.6027 Y0.3550 
G01 X-1.6727 Y0.4250 
G01 X-1.6750 Y0.4273 
G01 X-1.6766 Y0.4302 
G01 X-1.6775 Y0.4334 
G01 X-1.6775 Y0.5948 
G01 X-1.6952 Y0.6125 
G01 X-1.7033 Y0.6125 
G01 X-1.7033 Y0.6123 
G01 X-1.7040 Y0.6106 
G01 X-1.7052 Y0.6094 
G01 X-1.7069 Y0.6087 
G01 X-1.7953 Y0.6087 
G01 X-1.7970 Y0.6094 
G01 X-1.7982 Y0.6106 
G01 X-1.7989 Y0.6123 
G01 X-1.7989 Y0.6377 
G01 X-1.7982 Y0.6394 
G01 X-1.7970 Y0.6406 
G01 X-1.7953 Y0.6413 
G01 X-1.7069 Y0.6413 
G01 X-1.7052 Y0.6406 
G01 X-1.7040 Y0.6394 
G01 X-1.7033 Y0.6377 
G01 X-1.7033 Y0.6375 
G01 X-1.6884 Y0.6375 
G01 X-1.6852 Y0.6366 
G01 X-1.6823 Y0.6350 
G01 X-1.6800 Y0.6327 
G01 X-1.6550 Y0.6077 
G01 X-1.6534 Y0.6048 
G01 X-1.6525 Y0.6016 
G01 X-1.6525 Y0.4402 
G01 X-1.5898 Y0.3775 
G01 X-0.3934 Y0.3775 
G01 X-0.3902 Y0.3766 
G01 X-0.3873 Y0.3750 
G01 X-0.3850 Y0.3727 
G01 X-0.3498 Y0.3375 
G01 X-0.2552 Y0.3375 
G01 X-0.2193 Y0.3734 
G01 X-0.2295 Y0.3836 
G01 X-0.2295 Y0.4164 
G01 X-0.2064 Y0.4395 
G01 X-0.1736 Y0.4395 
G01 X-0.1505 Y0.4164 
G01 X-0.1505 Y0.3836 
G01 X-0.1736 Y0.3605 
G01 X-0.1968 Y0.3605 
G01 X-0.2400 Y0.3173 
G00 Z0.1000 
G00 X-0.2505 Y0.3836 
G01 Z-0.0070 F10.00 
G01 X-0.2736 Y0.3605 F20.00 
G01 X-0.3064 Y0.3605 
G01 X-0.3295 Y0.3836 
G01 X-0.3295 Y0.3875 
G01 X-1.5716 Y0.3875 
G01 X-1.5748 Y0.3884 
G01 X-1.5777 Y0.3900 
G01 X-1.5800 Y0.3923 
G01 X-1.6400 Y0.4523 
G01 X-1.6416 Y0.4552 
G01 X-1.6425 Y0.4584 
G01 X-1.6425 Y0.6148 
G01 X-1.6902 Y0.6625 
G01 X-1.7033 Y0.6625 
G01 X-1.7033 Y0.6623 
G01 X-1.7040 Y0.6606 
G01 X-1.7052 Y0.6594 
G01 X-1.7069 Y0.6587 
G01 X-1.7953 Y0.6587 
G01 X-1.7970 Y0.6594 
G01 X-1.7982 Y0.6606 
G01 X-1.7989 Y0.6623 
G01 X-1.7989 Y0.6877 
G01 X-1.7982 Y0.6894 
G01 X-1.7970 Y0.6906 
G01 X-1.7953 Y0.6913 
G01 X-1.7069 Y0.6913 
G01 X-1.7052 Y0.6906 
G01 X-1.7040 Y0.6894 
G01 X-1.7033 Y0.6877 
G01 X-1.7033 Y0.6875 
G01 X-1.6834 Y0.6875 
G01 X-1.6802 Y0.6866 
G01 X-1.6773 Y0.6850 
G01 X-1.6223 Y0.6300 
G01 X-1.6200 Y0.6277 
G01 X-1.6184 Y0.6248 
G01 X-1.6175 Y0.6216 
G01 X-1.6175 Y0.4652 
G01 X-1.5648 Y0.4125 
G01 X-0.3295 Y0.4125 
G01 X-0.3295 Y0.4164 
G01 X-0.3064 Y0.4395 
G01 X-0.2736 Y0.4395 
G01 X-0.2505 Y0.4164 
G01 X-0.2505 Y0.3836 
G00 Z0.1000 
G00 X-0.2505 Y0.4836 
G01 Z-0.0070 F10.00 
G01 X-0.2736 Y0.4605 F20.00 
G01 X-0.3064 Y0.4605 
G01 X-0.3295 Y0.4836 
G01 X-0.3295 Y0.4875 
G01 X-0.3437 Y0.4875 
G01 X-0.3437 Y0.4573 
G01 X-0.3444 Y0.4556 
G01 X-0.3456 Y0.4544 
G01 X-0.3473 Y0.4537 
G01 X-0.4327 Y0.4537 
G01 X-0.4344 Y0.4544 
G01 X-0.4356 Y0.4556 
G01 X-0.4363 Y0.4573 
G01 X-0.4363 Y0.5427 
G01 X-0.4356 Y0.5444 
G01 X-0.4344 Y0.5456 
G01 X-0.4327 Y0.5463 
G01 X-0.3473 Y0.5463 
G01 X-0.3456 Y0.5456 
G01 X-0.3444 Y0.5444 
G01 X-0.3437 Y0.5427 
G01 X-0.3437 Y0.5125 
G01 X-0.3295 Y0.5125 
G01 X-0.3295 Y0.5164 
G01 X-0.3064 Y0.5395 
G01 X-0.2736 Y0.5395 
G01 X-0.2505 Y0.5164 
G01 X-0.2505 Y0.4836 
G00 Z0.1000 
G00 X-0.2505 Y0.5836 
G01 Z-0.0070 F10.00 
G01 X-0.2736 Y0.5605 F20.00 
G01 X-0.3064 Y0.5605 
G01 X-0.3295 Y0.5836 
G01 X-0.3295 Y0.6164 
G01 X-0.3064 Y0.6395 
G01 X-0.2736 Y0.6395 
G01 X-0.2505 Y0.6164 
G01 X-0.2505 Y0.5836 
G00 Z0.1000 
G00 X-0.2295 Y0.5836 
G01 Z-0.0070 F10.00 
G01 X-0.2295 Y0.6164 F20.00 
G01 X-0.2064 Y0.6395 
G01 X-0.1736 Y0.6395 
G01 X-0.1505 Y0.6164 
G01 X-0.1505 Y0.5836 
G01 X-0.1736 Y0.5605 
G01 X-0.2064 Y0.5605 
G01 X-0.2295 Y0.5836 
G00 Z0.1000 
G00 X-0.2295 Y0.6836 
G01 Z-0.0070 F10.00 
G01 X-0.2295 Y0.7164 F20.00 
G01 X-0.2064 Y0.7395 
G01 X-0.1736 Y0.7395 
G01 X-0.1505 Y0.7164 
G01 X-0.1505 Y0.6836 
G01 X-0.1736 Y0.6605 
G01 X-0.2064 Y0.6605 
G01 X-0.2295 Y0.6836 
G00 Z0.1000 
G00 X-0.2505 Y0.6836 
G01 Z-0.0070 F10.00 
G01 X-0.2736 Y0.6605 F20.00 
G01 X-0.3064 Y0.6605 
G01 X-0.3295 Y0.6836 
G01 X-0.3295 Y0.7164 
G01 X-0.3064 Y0.7395 
G01 X-0.2736 Y0.7395 
G01 X-0.2505 Y0.7164 
G01 X-0.2505 Y0.6836 
G00 Z0.1000 
G00 X-0.2505 Y0.7836 
G01 Z-0.0070 F10.00 
G01 X-0.2736 Y0.7605 F20.00 
G01 X-0.3064 Y0.7605 
G01 X-0.3295 Y0.7836 
G01 X-0.3295 Y0.7875 
G01 X-0.3523 Y0.7875 
G01 X-0.3575 Y0.7770 
G01 X-0.3575 Y0.5634 
G01 X-0.3584 Y0.5602 
G01 X-0.3600 Y0.5573 
G01 X-0.3623 Y0.5550 
G01 X-0.3652 Y0.5534 
G01 X-0.3684 Y0.5525 
G01 X-0.4375 Y0.5525 
G01 X-0.4375 Y0.4334 
G01 X-0.4384 Y0.4302 
G01 X-0.4400 Y0.4273 
G01 X-0.4423 Y0.4250 
G01 X-0.4452 Y0.4234 
G01 X-0.4484 Y0.4225 
G01 X-0.9966 Y0.4225 
G01 X-0.9998 Y0.4234 
G01 X-1.0027 Y0.4250 
G01 X-1.0050 Y0.4273 
G01 X-1.1902 Y0.6125 
G01 X-1.3411 Y0.6125 
G01 X-1.3411 Y0.6123 
G01 X-1.3418 Y0.6106 
G01 X-1.3430 Y0.6094 
G01 X-1.3447 Y0.6087 
G01 X-1.4331 Y0.6087 
G01 X-1.4348 Y0.6094 
G01 X-1.4360 Y0.6106 
G01 X-1.4367 Y0.6123 
G01 X-1.4367 Y0.6377 
G01 X-1.4360 Y0.6394 
G01 X-1.4348 Y0.6406 
G01 X-1.4331 Y0.6413 
G01 X-1.3447 Y0.6413 
G01 X-1.3430 Y0.6406 
G01 X-1.3418 Y0.6394 
G01 X-1.3411 Y0.6377 
G01 X-1.3411 Y0.6375 
G01 X-1.1834 Y0.6375 
G01 X-1.1802 Y0.6366 
G01 X-1.1773 Y0.6350 
G01 X-0.9898 Y0.4475 
G01 X-0.4625 Y0.4475 
G01 X-0.4625 Y0.5666 
G01 X-0.4616 Y0.5698 
G01 X-0.4600 Y0.5727 
G01 X-0.4577 Y0.5750 
G01 X-0.4548 Y0.5766 
G01 X-0.4516 Y0.5775 
G01 X-0.3825 Y0.5775 
G01 X-0.3825 Y0.7796 
G01 X-0.3826 Y0.7809 
G01 X-0.3825 Y0.7813 
G01 X-0.3825 Y0.7816 
G01 X-0.3822 Y0.7829 
G01 X-0.3819 Y0.7841 
G01 X-0.3817 Y0.7845 
G01 X-0.3816 Y0.7848 
G01 X-0.3810 Y0.7859 
G01 X-0.3717 Y0.8045 
G01 X-0.3716 Y0.8048 
G01 X-0.3710 Y0.8059 
G01 X-0.3704 Y0.8071 
G01 X-0.3702 Y0.8073 
G01 X-0.3700 Y0.8077 
G01 X-0.3691 Y0.8086 
G01 X-0.3683 Y0.8095 
G01 X-0.3679 Y0.8097 
G01 X-0.3677 Y0.8100 
G01 X-0.3666 Y0.8106 
G01 X-0.3655 Y0.8113 
G01 X-0.3652 Y0.8115 
G01 X-0.3648 Y0.8116 
G01 X-0.3636 Y0.8120 
G01 X-0.3624 Y0.8124 
G01 X-0.3620 Y0.8124 
G01 X-0.3616 Y0.8125 
G01 X-0.3604 Y0.8125 
G01 X-0.3591 Y0.8126 
G01 X-0.3587 Y0.8125 
G01 X-0.3295 Y0.8125 
G01 X-0.3295 Y0.8164 
G01 X-0.3064 Y0.8395 
G01 X-0.2736 Y0.8395 
G01 X-0.2505 Y0.8164 
G01 X-0.2505 Y0.7836 
G00 Z0.1000 
G00 X-0.2505 Y0.8836 
G01 Z-0.0070 F10.00 
G01 X-0.2736 Y0.8605 F20.00 
G01 X-0.3064 Y0.8605 
G01 X-0.3295 Y0.8836 
G01 X-0.3295 Y0.8875 
G01 X-0.3537 Y0.8875 
G01 X-0.3537 Y0.8573 
G01 X-0.3544 Y0.8556 
G01 X-0.3556 Y0.8544 
G01 X-0.3573 Y0.8537 
G01 X-0.4427 Y0.8537 
G01 X-0.4444 Y0.8544 
G01 X-0.4456 Y0.8556 
G01 X-0.4463 Y0.8573 
G01 X-0.4463 Y0.9427 
G01 X-0.4456 Y0.9444 
G01 X-0.4444 Y0.9456 
G01 X-0.4427 Y0.9463 
G01 X-0.3573 Y0.9463 
G01 X-0.3556 Y0.9456 
G01 X-0.3544 Y0.9444 
G01 X-0.3537 Y0.9427 
G01 X-0.3537 Y0.9125 
G01 X-0.3295 Y0.9125 
G01 X-0.3295 Y0.9164 
G01 X-0.3064 Y0.9395 
G01 X-0.2736 Y0.9395 
G01 X-0.2505 Y0.9164 
G01 X-0.2505 Y0.8836 
G00 Z0.1000 
G00 X-0.2295 Y0.9836 
G01 Z-0.0070 F10.00 
G01 X-0.2295 Y1.0164 F20.00 
G01 X-0.2118 Y1.0341 
G01 X-0.3552 Y1.1775 
G01 X-0.3637 Y1.1775 
G01 X-0.3637 Y1.1473 
G01 X-0.3644 Y1.1456 
G01 X-0.3656 Y1.1444 
G01 X-0.3673 Y1.1437 
G01 X-0.4527 Y1.1437 
G01 X-0.4544 Y1.1444 
G01 X-0.4556 Y1.1456 
G01 X-0.4563 Y1.1473 
G01 X-0.4563 Y1.2327 
G01 X-0.4556 Y1.2344 
G01 X-0.4544 Y1.2356 
G01 X-0.4527 Y1.2363 
G01 X-0.3673 Y1.2363 
G01 X-0.3656 Y1.2356 
G01 X-0.3644 Y1.2344 
G01 X-0.3637 Y1.2327 
G01 X-0.3637 Y1.2025 
G01 X-0.3484 Y1.2025 
G01 X-0.3452 Y1.2016 
G01 X-0.3423 Y1.2000 
G01 X-0.3400 Y1.1977 
G01 X-0.1818 Y1.0395 
G01 X-0.1736 Y1.0395 
G01 X-0.1505 Y1.0164 
G01 X-0.1505 Y0.9836 
G01 X-0.1736 Y0.9605 
G01 X-0.2064 Y0.9605 
G01 X-0.2295 Y0.9836 
G00 Z0.1000 
G00 X-0.4637 Y1.0177 
G01 Z-0.0070 F10.00 
G01 X-0.4637 Y0.9323 F20.00 
G01 X-0.4644 Y0.9306 
G01 X-0.4656 Y0.9294 
G01 X-0.4673 Y0.9287 
G01 X-0.4925 Y0.9287 
G01 X-0.4925 Y0.8852 
G01 X-0.4173 Y0.8100 
G01 X-0.4150 Y0.8077 
G01 X-0.4134 Y0.8048 
G01 X-0.4125 Y0.8016 
G01 X-0.4125 Y0.6184 
G01 X-0.4134 Y0.6152 
G01 X-0.4150 Y0.6123 
G01 X-0.4173 Y0.6100 
G01 X-0.4202 Y0.6084 
G01 X-0.4234 Y0.6075 
G01 X-0.6324 Y0.6075 
G01 X-0.6339 Y0.6075 
G01 X-0.6341 Y0.6075 
G01 X-0.6356 Y0.6079 
G01 X-0.6371 Y0.6083 
G01 X-0.6373 Y0.6084 
G01 X-0.6386 Y0.6091 
G01 X-0.6879 Y0.6367 
G01 X-0.6879 Y0.6054 
G01 X-0.6893 Y0.5986 
G01 X-0.6919 Y0.5921 
G01 X-0.6958 Y0.5863 
G01 X-0.7008 Y0.5814 
G01 X-0.7066 Y0.5775 
G01 X-0.7130 Y0.5748 
G01 X-0.7199 Y0.5734 
G01 X-0.7269 Y0.5734 
G01 X-0.7337 Y0.5748 
G01 X-0.7402 Y0.5775 
G01 X-0.7460 Y0.5814 
G01 X-0.7510 Y0.5863 
G01 X-0.7548 Y0.5921 
G01 X-0.7575 Y0.5986 
G01 X-0.7589 Y0.6054 
G01 X-0.7589 Y0.6744 
G01 X-0.7575 Y0.6813 
G01 X-0.7548 Y0.6878 
G01 X-0.7510 Y0.6936 
G01 X-0.7460 Y0.6985 
G01 X-0.7402 Y0.7024 
G01 X-0.7337 Y0.7051 
G01 X-0.7269 Y0.7064 
G01 X-0.7199 Y0.7064 
G01 X-0.7130 Y0.7051 
G01 X-0.7066 Y0.7024 
G01 X-0.7008 Y0.6985 
G01 X-0.6958 Y0.6936 
G01 X-0.6919 Y0.6878 
G01 X-0.6893 Y0.6813 
G01 X-0.6879 Y0.6744 
G01 X-0.6879 Y0.6654 
G01 X-0.6292 Y0.6325 
G01 X-0.4375 Y0.6325 
G01 X-0.4375 Y0.7948 
G01 X-0.5150 Y0.8723 
G01 X-0.5166 Y0.8752 
G01 X-0.5175 Y0.8784 
G01 X-0.5175 Y0.9287 
G01 X-0.5527 Y0.9287 
G01 X-0.5544 Y0.9294 
G01 X-0.5556 Y0.9306 
G01 X-0.5563 Y0.9323 
G01 X-0.5563 Y1.0177 
G01 X-0.5556 Y1.0194 
G01 X-0.5544 Y1.0206 
G01 X-0.5527 Y1.0213 
G01 X-0.4673 Y1.0213 
G01 X-0.4656 Y1.0206 
G01 X-0.4644 Y1.0194 
G01 X-0.4637 Y1.0177 
G00 Z0.1000 
G00 X-0.6344 Y1.0206 
G01 Z-0.0070 F10.00 
G01 X-0.6356 Y1.0194 F20.00 
G01 X-0.6373 Y1.0187 
G01 X-0.7227 Y1.0187 
G01 X-0.7244 Y1.0194 
G01 X-0.7256 Y1.0206 
G01 X-0.7263 Y1.0223 
G01 X-0.7263 Y1.0375 
G01 X-0.7353 Y1.0375 
G01 X-0.7503 Y1.0226 
G01 X-0.7503 Y0.8843 
G01 X-0.7459 Y0.8825 
G01 X-0.7401 Y0.8786 
G01 X-0.7352 Y0.8737 
G01 X-0.7313 Y0.8679 
G01 X-0.7286 Y0.8614 
G01 X-0.7273 Y0.8546 
G01 X-0.7273 Y0.7856 
G01 X-0.7286 Y0.7787 
G01 X-0.7313 Y0.7722 
G01 X-0.7352 Y0.7664 
G01 X-0.7401 Y0.7615 
G01 X-0.7459 Y0.7576 
G01 X-0.7524 Y0.7549 
G01 X-0.7593 Y0.7536 
G01 X-0.7663 Y0.7536 
G01 X-0.7731 Y0.7549 
G01 X-0.7796 Y0.7576 
G01 X-0.7854 Y0.7615 
G01 X-0.7903 Y0.7664 
G01 X-0.7942 Y0.7722 
G01 X-0.7969 Y0.7787 
G01 X-0.7983 Y0.7856 
G01 X-0.7983 Y0.8546 
G01 X-0.7969 Y0.8614 
G01 X-0.7942 Y0.8679 
G01 X-0.7903 Y0.8737 
G01 X-0.7854 Y0.8786 
G01 X-0.7796 Y0.8825 
G01 X-0.7753 Y0.8843 
G01 X-0.7753 Y1.0226 
G01 X-0.8404 Y1.0878 
G01 X-0.8461 Y1.0887 
G01 X-0.8532 Y1.0910 
G01 X-0.8599 Y1.0944 
G01 X-0.8659 Y1.0988 
G01 X-0.8712 Y1.1041 
G01 X-0.8756 Y1.1101 
G01 X-0.8790 Y1.1168 
G01 X-0.8809 Y1.1225 
G01 X-1.0016 Y1.1225 
G01 X-1.0022 Y1.1226 
G01 X-1.0053 Y1.1195 
G01 X-1.0075 Y1.1195 
G01 X-1.0075 Y1.1063 
G01 X-0.9773 Y1.1063 
G01 X-0.9756 Y1.1056 
G01 X-0.9744 Y1.1044 
G01 X-0.9737 Y1.1027 
G01 X-0.9737 Y1.0173 
G01 X-0.9744 Y1.0156 
G01 X-0.9756 Y1.0144 
G01 X-0.9773 Y1.0137 
G01 X-1.0627 Y1.0137 
G01 X-1.0644 Y1.0144 
G01 X-1.0656 Y1.0156 
G01 X-1.0663 Y1.0173 
G01 X-1.0663 Y1.1027 
G01 X-1.0656 Y1.1044 
G01 X-1.0644 Y1.1056 
G01 X-1.0627 Y1.1063 
G01 X-1.0325 Y1.1063 
G01 X-1.0325 Y1.1195 
G01 X-1.0347 Y1.1195 
G01 X-1.0555 Y1.1403 
G01 X-1.0555 Y1.1697 
G01 X-1.0347 Y1.1905 
G01 X-1.0053 Y1.1905 
G01 X-0.9845 Y1.1697 
G01 X-0.9845 Y1.1475 
G01 X-0.8809 Y1.1475 
G01 X-0.8790 Y1.1532 
G01 X-0.8756 Y1.1599 
G01 X-0.8712 Y1.1659 
G01 X-0.8659 Y1.1712 
G01 X-0.8599 Y1.1756 
G01 X-0.8532 Y1.1790 
G01 X-0.8461 Y1.1813 
G01 X-0.8387 Y1.1825 
G01 X-0.8313 Y1.1825 
G01 X-0.8239 Y1.1813 
G01 X-0.8168 Y1.1790 
G01 X-0.8101 Y1.1756 
G01 X-0.8041 Y1.1712 
G01 X-0.7988 Y1.1659 
G01 X-0.7944 Y1.1599 
G01 X-0.7910 Y1.1532 
G01 X-0.7887 Y1.1461 
G01 X-0.7875 Y1.1387 
G01 X-0.7875 Y1.1313 
G01 X-0.7887 Y1.1239 
G01 X-0.7910 Y1.1168 
G01 X-0.7944 Y1.1101 
G01 X-0.7988 Y1.1041 
G01 X-0.8041 Y1.0988 
G01 X-0.8101 Y1.0944 
G01 X-0.8112 Y1.0938 
G01 X-0.7628 Y1.0454 
G01 X-0.7482 Y1.0600 
G01 X-0.7453 Y1.0616 
G01 X-0.7422 Y1.0625 
G01 X-0.7263 Y1.0625 
G01 X-0.7263 Y1.1077 
G01 X-0.7256 Y1.1094 
G01 X-0.7244 Y1.1106 
G01 X-0.7227 Y1.1113 
G01 X-0.6373 Y1.1113 
G01 X-0.6356 Y1.1106 
G01 X-0.6344 Y1.1094 
G01 X-0.6337 Y1.1077 
G01 X-0.6337 Y1.0223 
G01 X-0.6344 Y1.0206 
G00 Z0.1000 
G00 X-0.5730 Y1.1898 
G01 Z-0.0070 F10.00 
G01 X-0.5742 Y1.1911 F20.00 
G01 X-0.5749 Y1.1927 
G01 X-0.5749 Y1.2575 
G01 X-0.5742 Y1.2592 
G01 X-0.5730 Y1.2604 
G01 X-0.5713 Y1.2611 
G01 X-0.5638 Y1.2611 
G01 X-0.5852 Y1.2825 
G01 X-1.5998 Y1.2825 
G01 X-1.6275 Y1.2548 
G01 X-1.6275 Y1.1652 
G01 X-1.5998 Y1.1375 
G01 X-1.3959 Y1.1375 
G01 X-1.3940 Y1.1432 
G01 X-1.3906 Y1.1499 
G01 X-1.3862 Y1.1559 
G01 X-1.3809 Y1.1612 
G01 X-1.3749 Y1.1656 
G01 X-1.3682 Y1.1690 
G01 X-1.3611 Y1.1713 
G01 X-1.3537 Y1.1725 
G01 X-1.3463 Y1.1725 
G01 X-1.3389 Y1.1713 
G01 X-1.3318 Y1.1690 
G01 X-1.3251 Y1.1656 
G01 X-1.3191 Y1.1612 
G01 X-1.3138 Y1.1559 
G01 X-1.3094 Y1.1499 
G01 X-1.3060 Y1.1432 
G01 X-1.3041 Y1.1375 
G01 X-1.1552 Y1.1375 
G01 X-1.1539 Y1.1387 
G01 X-1.1555 Y1.1403 
G01 X-1.1555 Y1.1697 
G01 X-1.1347 Y1.1905 
G01 X-1.1053 Y1.1905 
G01 X-1.0845 Y1.1697 
G01 X-1.0845 Y1.1403 
G01 X-1.1053 Y1.1195 
G01 X-1.1075 Y1.1195 
G01 X-1.1075 Y0.8952 
G01 X-1.0098 Y0.7975 
G01 X-0.9557 Y0.7975 
G01 X-0.9557 Y0.8546 
G01 X-0.9544 Y0.8614 
G01 X-0.9517 Y0.8679 
G01 X-0.9478 Y0.8737 
G01 X-0.9429 Y0.8786 
G01 X-0.9371 Y0.8825 
G01 X-0.9306 Y0.8852 
G01 X-0.9237 Y0.8866 
G01 X-0.9167 Y0.8866 
G01 X-0.9099 Y0.8852 
G01 X-0.9034 Y0.8825 
G01 X-0.8976 Y0.8786 
G01 X-0.8927 Y0.8737 
G01 X-0.8888 Y0.8679 
G01 X-0.8861 Y0.8614 
G01 X-0.8847 Y0.8546 
G01 X-0.8847 Y0.7856 
G01 X-0.8861 Y0.7787 
G01 X-0.8888 Y0.7722 
G01 X-0.8927 Y0.7664 
G01 X-0.8976 Y0.7615 
G01 X-0.9034 Y0.7576 
G01 X-0.9099 Y0.7549 
G01 X-0.9167 Y0.7536 
G01 X-0.9237 Y0.7536 
G01 X-0.9306 Y0.7549 
G01 X-0.9371 Y0.7576 
G01 X-0.9429 Y0.7615 
G01 X-0.9478 Y0.7664 
G01 X-0.9517 Y0.7722 
G01 X-0.9518 Y0.7725 
G01 X-1.0166 Y0.7725 
G01 X-1.0198 Y0.7734 
G01 X-1.0227 Y0.7750 
G01 X-1.1300 Y0.8823 
G01 X-1.1316 Y0.8852 
G01 X-1.1325 Y0.8884 
G01 X-1.1325 Y1.1195 
G01 X-1.1347 Y1.1195 
G01 X-1.1363 Y1.1211 
G01 X-1.1423 Y1.1150 
G01 X-1.1452 Y1.1134 
G01 X-1.1484 Y1.1125 
G01 X-1.3041 Y1.1125 
G01 X-1.3060 Y1.1068 
G01 X-1.3094 Y1.1001 
G01 X-1.3138 Y1.0941 
G01 X-1.3191 Y1.0888 
G01 X-1.3251 Y1.0844 
G01 X-1.3318 Y1.0810 
G01 X-1.3389 Y1.0787 
G01 X-1.3463 Y1.0775 
G01 X-1.3537 Y1.0775 
G01 X-1.3611 Y1.0787 
G01 X-1.3682 Y1.0810 
G01 X-1.3749 Y1.0844 
G01 X-1.3809 Y1.0888 
G01 X-1.3862 Y1.0941 
G01 X-1.3906 Y1.1001 
G01 X-1.3940 Y1.1068 
G01 X-1.3959 Y1.1125 
G01 X-1.6066 Y1.1125 
G01 X-1.6098 Y1.1134 
G01 X-1.6127 Y1.1150 
G01 X-1.6150 Y1.1173 
G01 X-1.6500 Y1.1523 
G01 X-1.6516 Y1.1552 
G01 X-1.6525 Y1.1584 
G01 X-1.6525 Y1.2616 
G01 X-1.6516 Y1.2648 
G01 X-1.6500 Y1.2677 
G01 X-1.6477 Y1.2700 
G01 X-1.6127 Y1.3050 
G01 X-1.6098 Y1.3066 
G01 X-1.6066 Y1.3075 
G01 X-0.5784 Y1.3075 
G01 X-0.5752 Y1.3066 
G01 X-0.5723 Y1.3050 
G01 X-0.5700 Y1.3027 
G01 X-0.5284 Y1.2611 
G01 X-0.4987 Y1.2611 
G01 X-0.4970 Y1.2604 
G01 X-0.4958 Y1.2592 
G01 X-0.4951 Y1.2575 
G01 X-0.4951 Y1.1927 
G01 X-0.4958 Y1.1911 
G01 X-0.4970 Y1.1898 
G01 X-0.4987 Y1.1891 
G01 X-0.5713 Y1.1891 
G01 X-0.5730 Y1.1898 
G00 Z0.1000 
G00 X-0.8189 Y0.8786 
G01 Z-0.0070 F10.00 
G01 X-0.8139 Y0.8737 F20.00 
G01 X-0.8100 Y0.8679 
G01 X-0.8074 Y0.8614 
G01 X-0.8060 Y0.8546 
G01 X-0.8060 Y0.7856 
G01 X-0.8074 Y0.7787 
G01 X-0.8100 Y0.7722 
G01 X-0.8139 Y0.7664 
G01 X-0.8189 Y0.7615 
G01 X-0.8247 Y0.7576 
G01 X-0.8311 Y0.7549 
G01 X-0.8380 Y0.7536 
G01 X-0.8450 Y0.7536 
G01 X-0.8481 Y0.7542 
G01 X-0.8750 Y0.7273 
G01 X-0.8773 Y0.7250 
G01 X-0.8802 Y0.7234 
G01 X-0.8834 Y0.7225 
G01 X-1.0066 Y0.7225 
G01 X-1.0098 Y0.7234 
G01 X-1.0127 Y0.7250 
G01 X-1.1002 Y0.8125 
G01 X-1.3411 Y0.8125 
G01 X-1.3411 Y0.8123 
G01 X-1.3418 Y0.8106 
G01 X-1.3430 Y0.8094 
G01 X-1.3447 Y0.8087 
G01 X-1.4331 Y0.8087 
G01 X-1.4348 Y0.8094 
G01 X-1.4360 Y0.8106 
G01 X-1.4367 Y0.8123 
G01 X-1.4367 Y0.8377 
G01 X-1.4360 Y0.8394 
G01 X-1.4348 Y0.8406 
G01 X-1.4331 Y0.8413 
G01 X-1.3447 Y0.8413 
G01 X-1.3430 Y0.8406 
G01 X-1.3418 Y0.8394 
G01 X-1.3411 Y0.8377 
G01 X-1.3411 Y0.8375 
G01 X-1.0934 Y0.8375 
G01 X-1.0902 Y0.8366 
G01 X-1.0873 Y0.8350 
G01 X-1.0850 Y0.8327 
G01 X-0.9998 Y0.7475 
G01 X-0.8902 Y0.7475 
G01 X-0.8699 Y0.7677 
G01 X-0.8730 Y0.7722 
G01 X-0.8756 Y0.7787 
G01 X-0.8770 Y0.7856 
G01 X-0.8770 Y0.8546 
G01 X-0.8756 Y0.8614 
G01 X-0.8730 Y0.8679 
G01 X-0.8691 Y0.8737 
G01 X-0.8641 Y0.8786 
G01 X-0.8583 Y0.8825 
G01 X-0.8519 Y0.8852 
G01 X-0.8450 Y0.8866 
G01 X-0.8380 Y0.8866 
G01 X-0.8311 Y0.8852 
G01 X-0.8247 Y0.8825 
G01 X-0.8189 Y0.8786 
G00 Z0.1000 
G00 X-0.8582 Y0.6985 
G01 Z-0.0070 F10.00 
G01 X-0.8533 Y0.6936 F20.00 
G01 X-0.8494 Y0.6878 
G01 X-0.8467 Y0.6813 
G01 X-0.8454 Y0.6744 
G01 X-0.8454 Y0.6054 
G01 X-0.8467 Y0.5986 
G01 X-0.8494 Y0.5921 
G01 X-0.8533 Y0.5863 
G01 X-0.8582 Y0.5814 
G01 X-0.8641 Y0.5775 
G01 X-0.8705 Y0.5748 
G01 X-0.8774 Y0.5734 
G01 X-0.8844 Y0.5734 
G01 X-0.8912 Y0.5748 
G01 X-0.8977 Y0.5775 
G01 X-0.9035 Y0.5814 
G01 X-0.9084 Y0.5863 
G01 X-0.9123 Y0.5921 
G01 X-0.9150 Y0.5986 
G01 X-0.9164 Y0.6054 
G01 X-0.9164 Y0.6584 
G01 X-1.1226 Y0.6584 
G01 X-1.1258 Y0.6593 
G01 X-1.1286 Y0.6609 
G01 X-1.2302 Y0.7625 
G01 X-1.3411 Y0.7625 
G01 X-1.3411 Y0.7623 
G01 X-1.3418 Y0.7606 
G01 X-1.3430 Y0.7594 
G01 X-1.3447 Y0.7587 
G01 X-1.4331 Y0.7587 
G01 X-1.4348 Y0.7594 
G01 X-1.4360 Y0.7606 
G01 X-1.4367 Y0.7623 
G01 X-1.4367 Y0.7877 
G01 X-1.4360 Y0.7894 
G01 X-1.4348 Y0.7906 
G01 X-1.4331 Y0.7913 
G01 X-1.3447 Y0.7913 
G01 X-1.3430 Y0.7906 
G01 X-1.3418 Y0.7894 
G01 X-1.3411 Y0.7877 
G01 X-1.3411 Y0.7875 
G01 X-1.2234 Y0.7875 
G01 X-1.2202 Y0.7866 
G01 X-1.2173 Y0.7850 
G01 X-1.2150 Y0.7827 
G01 X-1.1158 Y0.6834 
G01 X-0.9141 Y0.6834 
G01 X-0.9123 Y0.6878 
G01 X-0.9084 Y0.6936 
G01 X-0.9035 Y0.6985 
G01 X-0.8977 Y0.7024 
G01 X-0.8912 Y0.7051 
G01 X-0.8844 Y0.7064 
G01 X-0.8774 Y0.7064 
G01 X-0.8705 Y0.7051 
G01 X-0.8641 Y0.7024 
G01 X-0.8582 Y0.6985 
G00 Z0.1000 
G00 X-1.1773 Y0.6850 
G01 Z-0.0070 F10.00 
G01 X-1.0298 Y0.5375 F20.00 
G01 X-0.5663 Y0.5375 
G01 X-0.5663 Y0.5677 
G01 X-0.5656 Y0.5694 
G01 X-0.5644 Y0.5706 
G01 X-0.5627 Y0.5713 
G01 X-0.4773 Y0.5713 
G01 X-0.4756 Y0.5706 
G01 X-0.4744 Y0.5694 
G01 X-0.4737 Y0.5677 
G01 X-0.4737 Y0.4823 
G01 X-0.4744 Y0.4806 
G01 X-0.4756 Y0.4794 
G01 X-0.4773 Y0.4787 
G01 X-0.5627 Y0.4787 
G01 X-0.5644 Y0.4794 
G01 X-0.5656 Y0.4806 
G01 X-0.5663 Y0.4823 
G01 X-0.5663 Y0.5125 
G01 X-1.0366 Y0.5125 
G01 X-1.0398 Y0.5134 
G01 X-1.0427 Y0.5150 
G01 X-1.0450 Y0.5173 
G01 X-1.1902 Y0.6625 
G01 X-1.3411 Y0.6625 
G01 X-1.3411 Y0.6623 
G01 X-1.3418 Y0.6606 
G01 X-1.3430 Y0.6594 
G01 X-1.3447 Y0.6587 
G01 X-1.4331 Y0.6587 
G01 X-1.4348 Y0.6594 
G01 X-1.4360 Y0.6606 
G01 X-1.4367 Y0.6623 
G01 X-1.4367 Y0.6877 
G01 X-1.4360 Y0.6894 
G01 X-1.4348 Y0.6906 
G01 X-1.4331 Y0.6913 
G01 X-1.3447 Y0.6913 
G01 X-1.3430 Y0.6906 
G01 X-1.3418 Y0.6894 
G01 X-1.3411 Y0.6877 
G01 X-1.3411 Y0.6875 
G01 X-1.1834 Y0.6875 
G01 X-1.1802 Y0.6866 
G01 X-1.1773 Y0.6850 
G00 Z0.1000 
G00 X-1.3418 Y0.7106 
G01 Z-0.0070 F10.00 
G01 X-1.3430 Y0.7094 F20.00 
G01 X-1.3447 Y0.7087 
G01 X-1.4331 Y0.7087 
G01 X-1.4348 Y0.7094 
G01 X-1.4360 Y0.7106 
G01 X-1.4367 Y0.7123 
G01 X-1.4367 Y0.7125 
G01 X-1.5666 Y0.7125 
G01 X-1.5698 Y0.7134 
G01 X-1.5727 Y0.7150 
G01 X-1.6777 Y0.8200 
G01 X-1.6800 Y0.8223 
G01 X-1.6816 Y0.8252 
G01 X-1.6825 Y0.8284 
G01 X-1.6825 Y0.9448 
G01 X-1.7602 Y1.0225 
G01 X-2.1848 Y1.0225 
G01 X-2.3126 Y0.8947 
G01 X-2.3055 Y0.8876 
G01 X-2.3055 Y0.8424 
G01 X-2.3374 Y0.8105 
G01 X-2.3826 Y0.8105 
G01 X-2.4145 Y0.8424 
G01 X-2.4145 Y0.8876 
G01 X-2.3826 Y0.9195 
G01 X-2.3374 Y0.9195 
G01 X-2.3303 Y0.9124 
G01 X-2.1977 Y1.0450 
G01 X-2.1948 Y1.0466 
G01 X-2.1916 Y1.0475 
G01 X-1.7534 Y1.0475 
G01 X-1.7502 Y1.0466 
G01 X-1.7473 Y1.0450 
G01 X-1.7450 Y1.0427 
G01 X-1.6600 Y0.9577 
G01 X-1.6584 Y0.9548 
G01 X-1.6575 Y0.9516 
G01 X-1.6575 Y0.8352 
G01 X-1.5598 Y0.7375 
G01 X-1.4367 Y0.7375 
G01 X-1.4367 Y0.7377 
G01 X-1.4360 Y0.7394 
G01 X-1.4348 Y0.7406 
G01 X-1.4331 Y0.7413 
G01 X-1.3447 Y0.7413 
G01 X-1.3430 Y0.7406 
G01 X-1.3418 Y0.7394 
G01 X-1.3411 Y0.7377 
G01 X-1.3411 Y0.7123 
G01 X-1.3418 Y0.7106 
G00 Z0.1000 
G00 X-1.3430 Y0.5906 
G01 Z-0.0070 F10.00 
G01 X-1.3418 Y0.5894 F20.00 
G01 X-1.3411 Y0.5877 
G01 X-1.3411 Y0.5623 
G01 X-1.3418 Y0.5606 
G01 X-1.3430 Y0.5594 
G01 X-1.3447 Y0.5587 
G01 X-1.3775 Y0.5587 
G01 X-1.3775 Y0.5263 
G01 X-1.3473 Y0.5263 
G01 X-1.3456 Y0.5256 
G01 X-1.3444 Y0.5244 
G01 X-1.3437 Y0.5227 
G01 X-1.3437 Y0.4373 
G01 X-1.3444 Y0.4356 
G01 X-1.3456 Y0.4344 
G01 X-1.3473 Y0.4337 
G01 X-1.4327 Y0.4337 
G01 X-1.4344 Y0.4344 
G01 X-1.4356 Y0.4356 
G01 X-1.4363 Y0.4373 
G01 X-1.4363 Y0.5227 
G01 X-1.4356 Y0.5244 
G01 X-1.4344 Y0.5256 
G01 X-1.4327 Y0.5263 
G01 X-1.4025 Y0.5263 
G01 X-1.4025 Y0.5587 
G01 X-1.4331 Y0.5587 
G01 X-1.4348 Y0.5594 
G01 X-1.4360 Y0.5606 
G01 X-1.4367 Y0.5623 
G01 X-1.4367 Y0.5877 
G01 X-1.4360 Y0.5894 
G01 X-1.4348 Y0.5906 
G01 X-1.4331 Y0.5913 
G01 X-1.3447 Y0.5913 
G01 X-1.3430 Y0.5906 
G00 Z0.1000 
G00 X-1.3430 Y0.8594 
G01 Z-0.0070 F10.00 
G01 X-1.3447 Y0.8587 F20.00 
G01 X-1.4331 Y0.8587 
G01 X-1.4348 Y0.8594 
G01 X-1.4360 Y0.8606 
G01 X-1.4367 Y0.8623 
G01 X-1.4367 Y0.8877 
G01 X-1.4360 Y0.8894 
G01 X-1.4348 Y0.8906 
G01 X-1.4331 Y0.8913 
G01 X-1.3447 Y0.8913 
G01 X-1.3430 Y0.8906 
G01 X-1.3418 Y0.8894 
G01 X-1.3411 Y0.8877 
G01 X-1.3411 Y0.8875 
G01 X-1.3302 Y0.8875 
G01 X-1.2463 Y0.9714 
G01 X-1.2463 Y1.0427 
G01 X-1.2456 Y1.0444 
G01 X-1.2444 Y1.0456 
G01 X-1.2427 Y1.0463 
G01 X-1.1573 Y1.0463 
G01 X-1.1556 Y1.0456 
G01 X-1.1544 Y1.0444 
G01 X-1.1537 Y1.0427 
G01 X-1.1537 Y0.9573 
G01 X-1.1544 Y0.9556 
G01 X-1.1556 Y0.9544 
G01 X-1.1573 Y0.9537 
G01 X-1.2286 Y0.9537 
G01 X-1.3173 Y0.8650 
G01 X-1.3202 Y0.8634 
G01 X-1.3234 Y0.8625 
G01 X-1.3411 Y0.8625 
G01 X-1.3411 Y0.8623 
G01 X-1.3418 Y0.8606 
G01 X-1.3430 Y0.8594 
G00 Z0.1000 
G00 X-1.3430 Y0.9094 
G01 Z-0.0070 F10.00 
G01 X-1.3447 Y0.9087 F20.00 
G01 X-1.4331 Y0.9087 
G01 X-1.4348 Y0.9094 
G01 X-1.4360 Y0.9106 
G01 X-1.4367 Y0.9123 
G01 X-1.4367 Y0.9377 
G01 X-1.4360 Y0.9394 
G01 X-1.4348 Y0.9406 
G01 X-1.4331 Y0.9413 
G01 X-1.4014 Y0.9413 
G01 X-1.4014 Y0.9787 
G01 X-1.4152 Y0.9925 
G01 X-1.4175 Y0.9948 
G01 X-1.4750 Y0.9373 
G01 X-1.4773 Y0.9350 
G01 X-1.4802 Y0.9334 
G01 X-1.4834 Y0.9325 
G01 X-1.6016 Y0.9325 
G01 X-1.6048 Y0.9334 
G01 X-1.6077 Y0.9350 
G01 X-1.6327 Y0.9600 
G01 X-1.6350 Y0.9623 
G01 X-1.6366 Y0.9652 
G01 X-1.6375 Y0.9684 
G01 X-1.6375 Y0.9951 
G01 X-1.6575 Y0.9951 
G01 X-1.6592 Y0.9958 
G01 X-1.6604 Y0.9970 
G01 X-1.6611 Y0.9987 
G01 X-1.6611 Y1.0225 
G01 X-1.6989 Y1.0225 
G01 X-1.6995 Y1.0224 
G01 X-1.7006 Y1.0225 
G01 X-1.7016 Y1.0225 
G01 X-1.7022 Y1.0226 
G01 X-1.7028 Y1.0227 
G01 X-1.7038 Y1.0231 
G01 X-1.7048 Y1.0234 
G01 X-1.7053 Y1.0236 
G01 X-1.7059 Y1.0238 
G01 X-1.7067 Y1.0245 
G01 X-1.7077 Y1.0250 
G01 X-1.7081 Y1.0254 
G01 X-1.7085 Y1.0257 
G01 X-1.7092 Y1.0266 
G01 X-1.7100 Y1.0273 
G01 X-1.7103 Y1.0278 
G01 X-1.7309 Y1.0525 
G01 X-2.2591 Y1.0525 
G01 X-2.2599 Y1.0524 
G01 X-2.2607 Y1.0525 
G01 X-2.2616 Y1.0525 
G01 X-2.2624 Y1.0527 
G01 X-2.2631 Y1.0528 
G01 X-2.2640 Y1.0531 
G01 X-2.2648 Y1.0534 
G01 X-2.2655 Y1.0537 
G01 X-2.2662 Y1.0540 
G01 X-2.2669 Y1.0546 
G01 X-2.2677 Y1.0550 
G01 X-2.2682 Y1.0555 
G01 X-2.2871 Y1.0697 
G01 X-2.2880 Y1.0702 
G01 X-2.2884 Y1.0706 
G01 X-2.2888 Y1.0710 
G01 X-2.2895 Y1.0718 
G01 X-2.3315 Y1.1165 
G01 X-2.3374 Y1.1105 
G01 X-2.3826 Y1.1105 
G01 X-2.3897 Y1.1176 
G01 X-2.4375 Y1.0698 
G01 X-2.4375 Y0.1802 
G01 X-2.3898 Y0.1325 
G01 X-2.2755 Y0.1325 
G01 X-2.2755 Y0.1495 
G01 X-2.2741 Y0.1564 
G01 X-2.2715 Y0.1628 
G01 X-2.2676 Y0.1686 
G01 X-2.2626 Y0.1736 
G01 X-2.2568 Y0.1775 
G01 X-2.2504 Y0.1801 
G01 X-2.2435 Y0.1815 
G01 X-2.2365 Y0.1815 
G01 X-2.2296 Y0.1801 
G01 X-2.2232 Y0.1775 
G01 X-2.2174 Y0.1736 
G01 X-2.2124 Y0.1686 
G01 X-2.2085 Y0.1628 
G01 X-2.2059 Y0.1564 
G01 X-2.2045 Y0.1495 
G01 X-2.2045 Y0.1275 
G01 X-2.1755 Y0.1275 
G01 X-2.1755 Y0.1495 
G01 X-2.1741 Y0.1564 
G01 X-2.1715 Y0.1628 
G01 X-2.1676 Y0.1686 
G01 X-2.1626 Y0.1736 
G01 X-2.1568 Y0.1775 
G01 X-2.1504 Y0.1801 
G01 X-2.1435 Y0.1815 
G01 X-2.1365 Y0.1815 
G01 X-2.1296 Y0.1801 
G01 X-2.1232 Y0.1775 
G01 X-2.1174 Y0.1736 
G01 X-2.1124 Y0.1686 
G01 X-2.1085 Y0.1628 
G01 X-2.1059 Y0.1564 
G01 X-2.1045 Y0.1495 
G01 X-2.1045 Y0.1275 
G01 X-2.0755 Y0.1275 
G01 X-2.0755 Y0.1495 
G01 X-2.0741 Y0.1564 
G01 X-2.0715 Y0.1628 
G01 X-2.0676 Y0.1686 
G01 X-2.0626 Y0.1736 
G01 X-2.0568 Y0.1775 
G01 X-2.0504 Y0.1801 
G01 X-2.0435 Y0.1815 
G01 X-2.0365 Y0.1815 
G01 X-2.0296 Y0.1801 
G01 X-2.0232 Y0.1775 
G01 X-2.0174 Y0.1736 
G01 X-2.0124 Y0.1686 
G01 X-2.0085 Y0.1628 
G01 X-2.0059 Y0.1564 
G01 X-2.0045 Y0.1495 
G01 X-2.0045 Y0.1275 
G01 X-1.5902 Y0.1275 
G01 X-1.4527 Y0.2650 
G01 X-1.4498 Y0.2666 
G01 X-1.4466 Y0.2675 
G01 X-1.3184 Y0.2675 
G01 X-1.3152 Y0.2666 
G01 X-1.3123 Y0.2650 
G01 X-1.3100 Y0.2627 
G01 X-1.2600 Y0.2126 
G01 X-1.2564 Y0.2141 
G01 X-1.2495 Y0.2155 
G01 X-1.1805 Y0.2155 
G01 X-1.1736 Y0.2141 
G01 X-1.1672 Y0.2115 
G01 X-1.1614 Y0.2076 
G01 X-1.1564 Y0.2026 
G01 X-1.1525 Y0.1968 
G01 X-1.1499 Y0.1904 
G01 X-1.1485 Y0.1835 
G01 X-1.1485 Y0.1765 
G01 X-1.1499 Y0.1696 
G01 X-1.1525 Y0.1632 
G01 X-1.1564 Y0.1574 
G01 X-1.1614 Y0.1524 
G01 X-1.1672 Y0.1485 
G01 X-1.1736 Y0.1459 
G01 X-1.1805 Y0.1445 
G01 X-1.2495 Y0.1445 
G01 X-1.2564 Y0.1459 
G01 X-1.2628 Y0.1485 
G01 X-1.2686 Y0.1524 
G01 X-1.2736 Y0.1574 
G01 X-1.2775 Y0.1632 
G01 X-1.2801 Y0.1696 
G01 X-1.2815 Y0.1765 
G01 X-1.2815 Y0.1835 
G01 X-1.2801 Y0.1904 
G01 X-1.2781 Y0.1954 
G01 X-1.3252 Y0.2425 
G01 X-1.4349 Y0.2425 
G01 X-1.4350 Y0.2423 
G01 X-1.5700 Y0.1073 
G01 X-1.5723 Y0.1050 
G01 X-1.5752 Y0.1034 
G01 X-1.5784 Y0.1025 
G01 X-2.0045 Y0.1025 
G01 X-2.0045 Y0.0805 
G01 X-2.0059 Y0.0736 
G01 X-2.0085 Y0.0672 
G01 X-2.0124 Y0.0614 
G01 X-2.0174 Y0.0564 
G01 X-2.0232 Y0.0525 
G01 X-2.0296 Y0.0499 
G01 X-2.0365 Y0.0485 
G01 X-2.0435 Y0.0485 
G01 X-2.0504 Y0.0499 
G01 X-2.0568 Y0.0525 
G01 X-2.0626 Y0.0564 
G01 X-2.0676 Y0.0614 
G01 X-2.0715 Y0.0672 
G01 X-2.0741 Y0.0736 
G01 X-2.0755 Y0.0805 
G01 X-2.0755 Y0.1025 
G01 X-2.1045 Y0.1025 
G01 X-2.1045 Y0.0805 
G01 X-2.1059 Y0.0736 
G01 X-2.1085 Y0.0672 
G01 X-2.1124 Y0.0614 
G01 X-2.1174 Y0.0564 
G01 X-2.1232 Y0.0525 
G01 X-2.1296 Y0.0499 
G01 X-2.1365 Y0.0485 
G01 X-2.1435 Y0.0485 
G01 X-2.1504 Y0.0499 
G01 X-2.1568 Y0.0525 
G01 X-2.1626 Y0.0564 
G01 X-2.1676 Y0.0614 
G01 X-2.1715 Y0.0672 
G01 X-2.1741 Y0.0736 
G01 X-2.1755 Y0.0805 
G01 X-2.1755 Y0.1025 
G01 X-2.2045 Y0.1025 
G01 X-2.2045 Y0.0805 
G01 X-2.2059 Y0.0736 
G01 X-2.2085 Y0.0672 
G01 X-2.2124 Y0.0614 
G01 X-2.2174 Y0.0564 
G01 X-2.2232 Y0.0525 
G01 X-2.2296 Y0.0499 
G01 X-2.2365 Y0.0485 
G01 X-2.2435 Y0.0485 
G01 X-2.2504 Y0.0499 
G01 X-2.2568 Y0.0525 
G01 X-2.2626 Y0.0564 
G01 X-2.2676 Y0.0614 
G01 X-2.2715 Y0.0672 
G01 X-2.2741 Y0.0736 
G01 X-2.2755 Y0.0805 
G01 X-2.2755 Y0.1075 
G01 X-2.3966 Y0.1075 
G01 X-2.3998 Y0.1084 
G01 X-2.4027 Y0.1100 
G01 X-2.4050 Y0.1123 
G01 X-2.4577 Y0.1650 
G01 X-2.4600 Y0.1673 
G01 X-2.4616 Y0.1702 
G01 X-2.4625 Y0.1734 
G01 X-2.4625 Y1.0766 
G01 X-2.4616 Y1.0798 
G01 X-2.4600 Y1.0827 
G01 X-2.4074 Y1.1353 
G01 X-2.4145 Y1.1424 
G01 X-2.4145 Y1.1876 
G01 X-2.3826 Y1.2195 
G01 X-2.3374 Y1.2195 
G01 X-2.3055 Y1.1876 
G01 X-2.3055 Y1.1424 
G01 X-2.3138 Y1.1341 
G01 X-2.2716 Y1.0894 
G01 X-2.2558 Y1.0775 
G01 X-1.7261 Y1.0775 
G01 X-1.7255 Y1.0776 
G01 X-1.7244 Y1.0775 
G01 X-1.7234 Y1.0775 
G01 X-1.7228 Y1.0774 
G01 X-1.7222 Y1.0773 
G01 X-1.7212 Y1.0769 
G01 X-1.7202 Y1.0766 
G01 X-1.7197 Y1.0764 
G01 X-1.7191 Y1.0762 
G01 X-1.7183 Y1.0755 
G01 X-1.7173 Y1.0750 
G01 X-1.7169 Y1.0746 
G01 X-1.7165 Y1.0743 
G01 X-1.7158 Y1.0734 
G01 X-1.7150 Y1.0727 
G01 X-1.7147 Y1.0722 
G01 X-1.6941 Y1.0475 
G01 X-1.6611 Y1.0475 
G01 X-1.6611 Y1.0713 
G01 X-1.6604 Y1.0730 
G01 X-1.6592 Y1.0742 
G01 X-1.6575 Y1.0749 
G01 X-1.5927 Y1.0749 
G01 X-1.5911 Y1.0742 
G01 X-1.5898 Y1.0730 
G01 X-1.5891 Y1.0713 
G01 X-1.5891 Y0.9987 
G01 X-1.5898 Y0.9970 
G01 X-1.5911 Y0.9958 
G01 X-1.5927 Y0.9951 
G01 X-1.6125 Y0.9951 
G01 X-1.6125 Y0.9752 
G01 X-1.5948 Y0.9575 
G01 X-1.4902 Y0.9575 
G01 X-1.4277 Y1.0200 
G01 X-1.4248 Y1.0216 
G01 X-1.4216 Y1.0225 
G01 X-1.4134 Y1.0225 
G01 X-1.4102 Y1.0216 
G01 X-1.4075 Y1.0201 
G01 X-1.3927 Y1.0350 
G01 X-1.3898 Y1.0366 
G01 X-1.3866 Y1.0375 
G01 X-1.3713 Y1.0375 
G01 X-1.3713 Y1.0677 
G01 X-1.3706 Y1.0694 
G01 X-1.3694 Y1.0706 
G01 X-1.3677 Y1.0713 
G01 X-1.2823 Y1.0713 
G01 X-1.2806 Y1.0706 
G01 X-1.2794 Y1.0694 
G01 X-1.2787 Y1.0677 
G01 X-1.2787 Y0.9823 
G01 X-1.2794 Y0.9806 
G01 X-1.2806 Y0.9794 
G01 X-1.2823 Y0.9787 
G01 X-1.3677 Y0.9787 
G01 X-1.3694 Y0.9794 
G01 X-1.3706 Y0.9806 
G01 X-1.3713 Y0.9823 
G01 X-1.3713 Y1.0125 
G01 X-1.3798 Y1.0125 
G01 X-1.3898 Y1.0025 
G01 X-1.3789 Y0.9916 
G01 X-1.3772 Y0.9887 
G01 X-1.3764 Y0.9855 
G01 X-1.3764 Y0.9413 
G01 X-1.3447 Y0.9413 
G01 X-1.3430 Y0.9406 
G01 X-1.3418 Y0.9394 
G01 X-1.3411 Y0.9377 
G01 X-1.3411 Y0.9123 
G01 X-1.3418 Y0.9106 
G01 X-1.3430 Y0.9094 
G00 Z0.1000 
G00 X-1.4796 Y0.9970 
G01 Z-0.0070 F10.00 
G01 X-1.4808 Y0.9958 F20.00 
G01 X-1.4825 Y0.9951 
G01 X-1.5473 Y0.9951 
G01 X-1.5489 Y0.9958 
G01 X-1.5502 Y0.9970 
G01 X-1.5509 Y0.9987 
G01 X-1.5509 Y1.0713 
G01 X-1.5502 Y1.0730 
G01 X-1.5489 Y1.0742 
G01 X-1.5473 Y1.0749 
G01 X-1.5276 Y1.0749 
G01 X-1.5352 Y1.0825 
G01 X-1.7466 Y1.0825 
G01 X-1.7498 Y1.0834 
G01 X-1.7527 Y1.0850 
G01 X-1.7550 Y1.0873 
G01 X-1.7566 Y1.0902 
G01 X-1.7575 Y1.0934 
G01 X-1.7575 Y1.1837 
G01 X-1.7877 Y1.1837 
G01 X-1.7894 Y1.1844 
G01 X-1.7906 Y1.1856 
G01 X-1.7913 Y1.1873 
G01 X-1.7913 Y1.2727 
G01 X-1.7906 Y1.2744 
G01 X-1.7894 Y1.2756 
G01 X-1.7877 Y1.2763 
G01 X-1.7023 Y1.2763 
G01 X-1.7006 Y1.2756 
G01 X-1.6994 Y1.2744 
G01 X-1.6987 Y1.2727 
G01 X-1.6987 Y1.1873 
G01 X-1.6994 Y1.1856 
G01 X-1.7006 Y1.1844 
G01 X-1.7023 Y1.1837 
G01 X-1.7325 Y1.1837 
G01 X-1.7325 Y1.1075 
G01 X-1.5284 Y1.1075 
G01 X-1.5252 Y1.1066 
G01 X-1.5223 Y1.1050 
G01 X-1.5200 Y1.1027 
G01 X-1.5049 Y1.0876 
G01 X-1.5032 Y1.0847 
G01 X-1.5024 Y1.0815 
G01 X-1.5024 Y1.0749 
G01 X-1.4825 Y1.0749 
G01 X-1.4808 Y1.0742 
G01 X-1.4796 Y1.0730 
G01 X-1.4789 Y1.0713 
G01 X-1.4789 Y0.9987 
G01 X-1.4796 Y0.9970 
G00 Z0.1000 
G00 X-1.7052 Y0.9406 
G01 Z-0.0070 F10.00 
G01 X-1.7040 Y0.9394 F20.00 
G01 X-1.7033 Y0.9377 
G01 X-1.7033 Y0.9123 
G01 X-1.7040 Y0.9106 
G01 X-1.7052 Y0.9094 
G01 X-1.7069 Y0.9087 
G01 X-1.7953 Y0.9087 
G01 X-1.7970 Y0.9094 
G01 X-1.7982 Y0.9106 
G01 X-1.7989 Y0.9123 
G01 X-1.7989 Y0.9125 
G01 X-1.8780 Y0.9125 
G01 X-1.8780 Y0.8986 
G01 X-1.8787 Y0.8970 
G01 X-1.8800 Y0.8957 
G01 X-1.8816 Y0.8950 
G01 X-1.9464 Y0.8950 
G01 X-1.9481 Y0.8957 
G01 X-1.9493 Y0.8970 
G01 X-1.9500 Y0.8986 
G01 X-1.9500 Y0.9714 
G01 X-1.9493 Y0.9730 
G01 X-1.9481 Y0.9743 
G01 X-1.9464 Y0.9750 
G01 X-1.9327 Y0.9750 
G01 X-1.9502 Y0.9925 
G01 X-2.1498 Y0.9925 
G01 X-2.1925 Y0.9498 
G01 X-2.1925 Y0.8634 
G01 X-2.1934 Y0.8602 
G01 X-2.1950 Y0.8573 
G01 X-2.3825 Y0.6698 
G01 X-2.3825 Y0.3502 
G01 X-2.3248 Y0.2925 
G01 X-2.0702 Y0.2925 
G01 X-2.0525 Y0.3102 
G01 X-2.0525 Y0.3508 
G01 X-2.0568 Y0.3525 
G01 X-2.0626 Y0.3564 
G01 X-2.0676 Y0.3614 
G01 X-2.0715 Y0.3672 
G01 X-2.0741 Y0.3736 
G01 X-2.0755 Y0.3805 
G01 X-2.0755 Y0.4495 
G01 X-2.0741 Y0.4564 
G01 X-2.0715 Y0.4628 
G01 X-2.0676 Y0.4686 
G01 X-2.0626 Y0.4736 
G01 X-2.0568 Y0.4775 
G01 X-2.0504 Y0.4801 
G01 X-2.0435 Y0.4815 
G01 X-2.0365 Y0.4815 
G01 X-2.0296 Y0.4801 
G01 X-2.0232 Y0.4775 
G01 X-2.0174 Y0.4736 
G01 X-2.0124 Y0.4686 
G01 X-2.0085 Y0.4628 
G01 X-2.0059 Y0.4564 
G01 X-2.0045 Y0.4495 
G01 X-2.0045 Y0.3805 
G01 X-2.0059 Y0.3736 
G01 X-2.0085 Y0.3672 
G01 X-2.0124 Y0.3614 
G01 X-2.0174 Y0.3564 
G01 X-2.0232 Y0.3525 
G01 X-2.0275 Y0.3508 
G01 X-2.0275 Y0.3034 
G01 X-2.0284 Y0.3002 
G01 X-2.0300 Y0.2973 
G01 X-2.0323 Y0.2950 
G01 X-2.0573 Y0.2700 
G01 X-2.0602 Y0.2684 
G01 X-2.0634 Y0.2675 
G01 X-2.3316 Y0.2675 
G01 X-2.3348 Y0.2684 
G01 X-2.3377 Y0.2700 
G01 X-2.3400 Y0.2723 
G01 X-2.4050 Y0.3373 
G01 X-2.4066 Y0.3402 
G01 X-2.4075 Y0.3434 
G01 X-2.4075 Y0.6766 
G01 X-2.4066 Y0.6798 
G01 X-2.4050 Y0.6827 
G01 X-2.4027 Y0.6850 
G01 X-2.2175 Y0.8702 
G01 X-2.2175 Y0.9566 
G01 X-2.2166 Y0.9598 
G01 X-2.2150 Y0.9627 
G01 X-2.2127 Y0.9650 
G01 X-2.1627 Y1.0150 
G01 X-2.1598 Y1.0166 
G01 X-2.1566 Y1.0175 
G01 X-1.9434 Y1.0175 
G01 X-1.9402 Y1.0166 
G01 X-1.9373 Y1.0150 
G01 X-1.9350 Y1.0127 
G01 X-1.8990 Y0.9767 
G01 X-1.8980 Y0.9750 
G01 X-1.8816 Y0.9750 
G01 X-1.8800 Y0.9743 
G01 X-1.8787 Y0.9730 
G01 X-1.8780 Y0.9714 
G01 X-1.8780 Y0.9375 
G01 X-1.7989 Y0.9375 
G01 X-1.7989 Y0.9377 
G01 X-1.7982 Y0.9394 
G01 X-1.7970 Y0.9406 
G01 X-1.7953 Y0.9413 
G01 X-1.7069 Y0.9413 
G01 X-1.7052 Y0.9406 
G00 Z0.1000 
G00 X-1.7052 Y0.8906 
G01 Z-0.0070 F10.00 
G01 X-1.7040 Y0.8894 F20.00 
G01 X-1.7033 Y0.8877 
G01 X-1.7033 Y0.8623 
G01 X-1.7040 Y0.8606 
G01 X-1.7052 Y0.8594 
G01 X-1.7069 Y0.8587 
G01 X-1.7953 Y0.8587 
G01 X-1.7970 Y0.8594 
G01 X-1.7982 Y0.8606 
G01 X-1.7989 Y0.8623 
G01 X-1.7989 Y0.8625 
G01 X-1.8570 Y0.8625 
G01 X-1.9330 Y0.8245 
G01 X-1.9330 Y0.8071 
G01 X-1.9328 Y0.8065 
G01 X-1.9324 Y0.8058 
G01 X-1.9322 Y0.8050 
G01 X-1.9319 Y0.8043 
G01 X-1.9317 Y0.8035 
G01 X-1.9315 Y0.8026 
G01 X-1.9315 Y0.8018 
G01 X-1.9314 Y0.8010 
G01 X-1.9315 Y0.8002 
G01 X-1.9315 Y0.7993 
G01 X-1.9317 Y0.7986 
G01 X-1.9318 Y0.7978 
G01 X-1.9321 Y0.7970 
G01 X-1.9324 Y0.7962 
G01 X-1.9328 Y0.7955 
G01 X-1.9330 Y0.7949 
G01 X-1.9330 Y0.7836 
G01 X-1.9337 Y0.7820 
G01 X-1.9350 Y0.7807 
G01 X-1.9366 Y0.7800 
G01 X-1.9473 Y0.7800 
G01 X-1.9800 Y0.7473 
G01 X-1.9823 Y0.7450 
G01 X-1.9852 Y0.7434 
G01 X-1.9884 Y0.7425 
G01 X-2.2448 Y0.7425 
G01 X-2.3175 Y0.6698 
G01 X-2.3175 Y0.3622 
G01 X-2.2666 Y0.3325 
G01 X-2.1602 Y0.3325 
G01 X-2.1525 Y0.3402 
G01 X-2.1525 Y0.3508 
G01 X-2.1568 Y0.3525 
G01 X-2.1626 Y0.3564 
G01 X-2.1676 Y0.3614 
G01 X-2.1715 Y0.3672 
G01 X-2.1741 Y0.3736 
G01 X-2.1755 Y0.3805 
G01 X-2.1755 Y0.4495 
G01 X-2.1741 Y0.4564 
G01 X-2.1715 Y0.4628 
G01 X-2.1676 Y0.4686 
G01 X-2.1626 Y0.4736 
G01 X-2.1568 Y0.4775 
G01 X-2.1504 Y0.4801 
G01 X-2.1435 Y0.4815 
G01 X-2.1365 Y0.4815 
G01 X-2.1296 Y0.4801 
G01 X-2.1232 Y0.4775 
G01 X-2.1174 Y0.4736 
G01 X-2.1124 Y0.4686 
G01 X-2.1085 Y0.4628 
G01 X-2.1059 Y0.4564 
G01 X-2.1045 Y0.4495 
G01 X-2.1045 Y0.3805 
G01 X-2.1059 Y0.3736 
G01 X-2.1085 Y0.3672 
G01 X-2.1124 Y0.3614 
G01 X-2.1174 Y0.3564 
G01 X-2.1232 Y0.3525 
G01 X-2.1275 Y0.3508 
G01 X-2.1275 Y0.3334 
G01 X-2.1284 Y0.3302 
G01 X-2.1300 Y0.3273 
G01 X-2.1323 Y0.3250 
G01 X-2.1473 Y0.3100 
G01 X-2.1502 Y0.3084 
G01 X-2.1534 Y0.3075 
G01 X-2.2684 Y0.3075 
G01 X-2.2700 Y0.3075 
G01 X-2.2716 Y0.3075 
G01 X-2.2733 Y0.3079 
G01 X-2.2748 Y0.3084 
G01 X-2.2763 Y0.3092 
G01 X-2.2777 Y0.3100 
G01 X-2.3363 Y0.3442 
G01 X-2.3377 Y0.3450 
G01 X-2.3389 Y0.3462 
G01 X-2.3400 Y0.3473 
G01 X-2.3408 Y0.3488 
G01 X-2.3416 Y0.3502 
G01 X-2.3421 Y0.3518 
G01 X-2.3425 Y0.3534 
G01 X-2.3425 Y0.3550 
G01 X-2.3425 Y0.6766 
G01 X-2.3416 Y0.6798 
G01 X-2.3400 Y0.6827 
G01 X-2.3377 Y0.6850 
G01 X-2.2577 Y0.7650 
G01 X-2.2548 Y0.7666 
G01 X-2.2516 Y0.7675 
G01 X-1.9952 Y0.7675 
G01 X-1.9827 Y0.7800 
G01 X-2.0014 Y0.7800 
G01 X-2.0031 Y0.7807 
G01 X-2.0043 Y0.7820 
G01 X-2.0050 Y0.7836 
G01 X-2.0050 Y0.8564 
G01 X-2.0043 Y0.8580 
G01 X-2.0031 Y0.8593 
G01 X-2.0014 Y0.8600 
G01 X-1.9366 Y0.8600 
G01 X-1.9350 Y0.8593 
G01 X-1.9337 Y0.8580 
G01 X-1.9330 Y0.8564 
G01 X-1.9330 Y0.8525 
G01 X-1.8659 Y0.8860 
G01 X-1.8648 Y0.8866 
G01 X-1.8645 Y0.8867 
G01 X-1.8641 Y0.8869 
G01 X-1.8629 Y0.8872 
G01 X-1.8616 Y0.8875 
G01 X-1.8613 Y0.8875 
G01 X-1.8609 Y0.8876 
G01 X-1.8596 Y0.8875 
G01 X-1.7989 Y0.8875 
G01 X-1.7989 Y0.8877 
G01 X-1.7982 Y0.8894 
G01 X-1.7970 Y0.8906 
G01 X-1.7953 Y0.8913 
G01 X-1.7069 Y0.8913 
G01 X-1.7052 Y0.8906 
G00 Z0.1000 
G00 X-1.7052 Y0.8406 
G01 Z-0.0070 F10.00 
G01 X-1.7040 Y0.8394 F20.00 
G01 X-1.7033 Y0.8377 
G01 X-1.7033 Y0.8123 
G01 X-1.7040 Y0.8106 
G01 X-1.7052 Y0.8094 
G01 X-1.7069 Y0.8087 
G01 X-1.7953 Y0.8087 
G01 X-1.7970 Y0.8094 
G01 X-1.7982 Y0.8106 
G01 X-1.7989 Y0.8123 
G01 X-1.7989 Y0.8125 
G01 X-1.8498 Y0.8125 
G01 X-1.9380 Y0.7243 
G01 X-1.9380 Y0.6536 
G01 X-1.9387 Y0.6520 
G01 X-1.9400 Y0.6507 
G01 X-1.9416 Y0.6500 
G01 X-1.9630 Y0.6500 
G01 X-1.9640 Y0.6483 
G01 X-2.0050 Y0.6073 
G01 X-2.0073 Y0.6050 
G01 X-2.0102 Y0.6034 
G01 X-2.0134 Y0.6025 
G01 X-2.1848 Y0.6025 
G01 X-2.2275 Y0.5598 
G01 X-2.2275 Y0.4792 
G01 X-2.2232 Y0.4775 
G01 X-2.2174 Y0.4736 
G01 X-2.2124 Y0.4686 
G01 X-2.2085 Y0.4628 
G01 X-2.2059 Y0.4564 
G01 X-2.2045 Y0.4495 
G01 X-2.2045 Y0.3805 
G01 X-2.2059 Y0.3736 
G01 X-2.2085 Y0.3672 
G01 X-2.2124 Y0.3614 
G01 X-2.2174 Y0.3564 
G01 X-2.2232 Y0.3525 
G01 X-2.2296 Y0.3499 
G01 X-2.2365 Y0.3485 
G01 X-2.2435 Y0.3485 
G01 X-2.2504 Y0.3499 
G01 X-2.2568 Y0.3525 
G01 X-2.2626 Y0.3564 
G01 X-2.2676 Y0.3614 
G01 X-2.2715 Y0.3672 
G01 X-2.2741 Y0.3736 
G01 X-2.2755 Y0.3805 
G01 X-2.2755 Y0.4495 
G01 X-2.2741 Y0.4564 
G01 X-2.2715 Y0.4628 
G01 X-2.2676 Y0.4686 
G01 X-2.2626 Y0.4736 
G01 X-2.2568 Y0.4775 
G01 X-2.2525 Y0.4792 
G01 X-2.2525 Y0.5666 
G01 X-2.2516 Y0.5698 
G01 X-2.2500 Y0.5727 
G01 X-2.2477 Y0.5750 
G01 X-2.1977 Y0.6250 
G01 X-2.1948 Y0.6266 
G01 X-2.1916 Y0.6275 
G01 X-2.0202 Y0.6275 
G01 X-1.9977 Y0.6500 
G01 X-2.0064 Y0.6500 
G01 X-2.0081 Y0.6507 
G01 X-2.0093 Y0.6520 
G01 X-2.0100 Y0.6536 
G01 X-2.0100 Y0.7264 
G01 X-2.0093 Y0.7280 
G01 X-2.0081 Y0.7293 
G01 X-2.0064 Y0.7300 
G01 X-1.9677 Y0.7300 
G01 X-1.8627 Y0.8350 
G01 X-1.8598 Y0.8366 
G01 X-1.8566 Y0.8375 
G01 X-1.7989 Y0.8375 
G01 X-1.7989 Y0.8377 
G01 X-1.7982 Y0.8394 
G01 X-1.7970 Y0.8406 
G01 X-1.7953 Y0.8413 
G01 X-1.7069 Y0.8413 
G01 X-1.7052 Y0.8406 
G00 Z0.1000 
G00 X-1.7052 Y0.7906 
G01 Z-0.0070 F10.00 
G01 X-1.7040 Y0.7894 F20.00 
G01 X-1.7033 Y0.7877 
G01 X-1.7033 Y0.7623 
G01 X-1.7040 Y0.7606 
G01 X-1.7052 Y0.7594 
G01 X-1.7069 Y0.7587 
G01 X-1.7953 Y0.7587 
G01 X-1.7970 Y0.7594 
G01 X-1.7982 Y0.7606 
G01 X-1.7989 Y0.7623 
G01 X-1.7989 Y0.7625 
G01 X-1.8548 Y0.7625 
G01 X-1.8875 Y0.7298 
G01 X-1.8875 Y0.3863 
G01 X-1.8573 Y0.3863 
G01 X-1.8556 Y0.3856 
G01 X-1.8544 Y0.3844 
G01 X-1.8537 Y0.3827 
G01 X-1.8537 Y0.2973 
G01 X-1.8544 Y0.2956 
G01 X-1.8556 Y0.2944 
G01 X-1.8573 Y0.2937 
G01 X-1.9427 Y0.2937 
G01 X-1.9444 Y0.2944 
G01 X-1.9456 Y0.2956 
G01 X-1.9463 Y0.2973 
G01 X-1.9463 Y0.3827 
G01 X-1.9456 Y0.3844 
G01 X-1.9444 Y0.3856 
G01 X-1.9427 Y0.3863 
G01 X-1.9125 Y0.3863 
G01 X-1.9125 Y0.7366 
G01 X-1.9116 Y0.7398 
G01 X-1.9100 Y0.7427 
G01 X-1.8700 Y0.7827 
G01 X-1.8677 Y0.7850 
G01 X-1.8648 Y0.7866 
G01 X-1.8616 Y0.7875 
G01 X-1.7989 Y0.7875 
G01 X-1.7989 Y0.7877 
G01 X-1.7982 Y0.7894 
G01 X-1.7970 Y0.7906 
G01 X-1.7953 Y0.7913 
G01 X-1.7069 Y0.7913 
G01 X-1.7052 Y0.7906 
G00 Z0.1000 
G00 X-1.7052 Y0.5906 
G01 Z-0.0070 F10.00 
G01 X-1.7040 Y0.5894 F20.00 
G01 X-1.7033 Y0.5877 
G01 X-1.7033 Y0.5623 
G01 X-1.7040 Y0.5606 
G01 X-1.7052 Y0.5594 
G01 X-1.7069 Y0.5587 
G01 X-1.7386 Y0.5587 
G01 X-1.7386 Y0.5413 
G01 X-1.7073 Y0.5413 
G01 X-1.7056 Y0.5406 
G01 X-1.7044 Y0.5394 
G01 X-1.7037 Y0.5377 
G01 X-1.7037 Y0.4523 
G01 X-1.7044 Y0.4506 
G01 X-1.7056 Y0.4494 
G01 X-1.7073 Y0.4487 
G01 X-1.7927 Y0.4487 
G01 X-1.7944 Y0.4494 
G01 X-1.7956 Y0.4506 
G01 X-1.7963 Y0.4523 
G01 X-1.7963 Y0.5377 
G01 X-1.7956 Y0.5394 
G01 X-1.7944 Y0.5406 
G01 X-1.7927 Y0.5413 
G01 X-1.7636 Y0.5413 
G01 X-1.7636 Y0.5587 
G01 X-1.7953 Y0.5587 
G01 X-1.7970 Y0.5594 
G01 X-1.7982 Y0.5606 
G01 X-1.7989 Y0.5623 
G01 X-1.7989 Y0.5877 
G01 X-1.7982 Y0.5894 
G01 X-1.7970 Y0.5906 
G01 X-1.7953 Y0.5913 
G01 X-1.7069 Y0.5913 
G01 X-1.7052 Y0.5906 
G00 Z0.1000 
G00 X-2.0507 Y0.6520 
G01 Z-0.0070 F10.00 
G01 X-2.0519 Y0.6507 F20.00 
G01 X-2.0536 Y0.6500 
G01 X-2.1184 Y0.6500 
G01 X-2.1200 Y0.6507 
G01 X-2.1213 Y0.6520 
G01 X-2.1220 Y0.6536 
G01 X-2.1220 Y0.6775 
G01 X-2.1587 Y0.6775 
G01 X-2.1587 Y0.6473 
G01 X-2.1594 Y0.6456 
G01 X-2.1606 Y0.6444 
G01 X-2.1623 Y0.6437 
G01 X-2.2477 Y0.6437 
G01 X-2.2494 Y0.6444 
G01 X-2.2506 Y0.6456 
G01 X-2.2513 Y0.6473 
G01 X-2.2513 Y0.7327 
G01 X-2.2506 Y0.7344 
G01 X-2.2494 Y0.7356 
G01 X-2.2477 Y0.7363 
G01 X-2.1623 Y0.7363 
G01 X-2.1606 Y0.7356 
G01 X-2.1594 Y0.7344 
G01 X-2.1587 Y0.7327 
G01 X-2.1587 Y0.7025 
G01 X-2.1220 Y0.7025 
G01 X-2.1220 Y0.7264 
G01 X-2.1213 Y0.7280 
G01 X-2.1200 Y0.7293 
G01 X-2.1184 Y0.7300 
G01 X-2.0536 Y0.7300 
G01 X-2.0519 Y0.7293 
G01 X-2.0507 Y0.7280 
G01 X-2.0500 Y0.7264 
G01 X-2.0500 Y0.6536 
G01 X-2.0507 Y0.6520 
G00 Z0.1000 
G00 X-2.0486 Y0.7800 
G01 Z-0.0070 F10.00 
G01 X-2.1134 Y0.7800 F20.00 
G01 X-2.1150 Y0.7807 
G01 X-2.1163 Y0.7820 
G01 X-2.1170 Y0.7836 
G01 X-2.1170 Y0.8564 
G01 X-2.1163 Y0.8580 
G01 X-2.1150 Y0.8593 
G01 X-2.1134 Y0.8600 
G01 X-2.0935 Y0.8600 
G01 X-2.0935 Y0.8816 
G01 X-2.0926 Y0.8848 
G01 X-2.0910 Y0.8877 
G01 X-2.0900 Y0.8887 
G01 X-2.1527 Y0.8887 
G01 X-2.1544 Y0.8894 
G01 X-2.1556 Y0.8906 
G01 X-2.1563 Y0.8923 
G01 X-2.1563 Y0.9777 
G01 X-2.1556 Y0.9794 
G01 X-2.1544 Y0.9806 
G01 X-2.1527 Y0.9813 
G01 X-2.0673 Y0.9813 
G01 X-2.0656 Y0.9806 
G01 X-2.0644 Y0.9794 
G01 X-2.0637 Y0.9777 
G01 X-2.0637 Y0.9475 
G01 X-2.0620 Y0.9475 
G01 X-2.0620 Y0.9714 
G01 X-2.0613 Y0.9730 
G01 X-2.0600 Y0.9743 
G01 X-2.0584 Y0.9750 
G01 X-1.9936 Y0.9750 
G01 X-1.9919 Y0.9743 
G01 X-1.9907 Y0.9730 
G01 X-1.9900 Y0.9714 
G01 X-1.9900 Y0.8986 
G01 X-1.9907 Y0.8970 
G01 X-1.9919 Y0.8957 
G01 X-1.9936 Y0.8950 
G01 X-2.0483 Y0.8950 
G01 X-2.0685 Y0.8748 
G01 X-2.0685 Y0.8600 
G01 X-2.0486 Y0.8600 
G01 X-2.0469 Y0.8593 
G01 X-2.0457 Y0.8580 
G01 X-2.0450 Y0.8564 
G01 X-2.0450 Y0.7836 
G01 X-2.0457 Y0.7820 
G01 X-2.0469 Y0.7807 
G01 X-2.0486 Y0.7800 
G00 Z0.1000 
G00 X-2.0637 Y0.9150 
G01 Z-0.0070 F10.00 
G01 X-2.0620 Y0.9167 F20.00 
G01 X-2.0620 Y0.9225 
G01 X-2.0637 Y0.9225 
G01 X-2.0637 Y0.9150 
G00 Z0.1000 
G00 X-1.1406 Y0.3094 
G01 Z-0.0070 F10.00 
G01 X-1.1394 Y0.3106 F20.00 
G01 X-1.1377 Y0.3113 
G01 X-1.0523 Y0.3113 
G01 X-1.0506 Y0.3106 
G01 X-1.0494 Y0.3094 
G01 X-1.0487 Y0.3077 
G01 X-1.0487 Y0.2775 
G01 X-1.0002 Y0.2775 
G01 X-0.9900 Y0.2877 
G01 X-0.9877 Y0.2900 
G01 X-0.9848 Y0.2916 
G01 X-0.9816 Y0.2925 
G01 X-0.9792 Y0.2925 
G01 X-0.9775 Y0.2968 
G01 X-0.9736 Y0.3026 
G01 X-0.9686 Y0.3076 
G01 X-0.9628 Y0.3115 
G01 X-0.9564 Y0.3141 
G01 X-0.9495 Y0.3155 
G01 X-0.8805 Y0.3155 
G01 X-0.8736 Y0.3141 
G01 X-0.8672 Y0.3115 
G01 X-0.8614 Y0.3076 
G01 X-0.8564 Y0.3026 
G01 X-0.8525 Y0.2968 
G01 X-0.8499 Y0.2904 
G01 X-0.8485 Y0.2835 
G01 X-0.8485 Y0.2765 
G01 X-0.8499 Y0.2696 
G01 X-0.8525 Y0.2632 
G01 X-0.8564 Y0.2574 
G01 X-0.8614 Y0.2524 
G01 X-0.8672 Y0.2485 
G01 X-0.8736 Y0.2459 
G01 X-0.8805 Y0.2445 
G01 X-0.9495 Y0.2445 
G01 X-0.9564 Y0.2459 
G01 X-0.9628 Y0.2485 
G01 X-0.9686 Y0.2524 
G01 X-0.9736 Y0.2574 
G01 X-0.9775 Y0.2632 
G01 X-0.9780 Y0.2644 
G01 X-0.9873 Y0.2550 
G01 X-0.9902 Y0.2534 
G01 X-0.9934 Y0.2525 
G01 X-1.0487 Y0.2525 
G01 X-1.0487 Y0.2223 
G01 X-1.0494 Y0.2206 
G01 X-1.0506 Y0.2194 
G01 X-1.0523 Y0.2187 
G01 X-1.1377 Y0.2187 
G01 X-1.1394 Y0.2194 
G01 X-1.1406 Y0.2206 
G01 X-1.1413 Y0.2223 
G01 X-1.1413 Y0.3077 
G01 X-1.1406 Y0.3094 
(Between Passes)
(Bottom between passes)
G00 Z0.1000 
G00 X-0.0160 Y0.0743 
G01 Z-0.0070 F10.00 
G01 X-0.0137 Y0.0782 F20.00 
G01 X-0.0125 Y0.0827 
G01 X-0.0125 Y0.9678 
G01 X-0.0125 Y0.9680 
G01 X-0.0125 Y0.9701 
G01 X-0.0125 Y0.9723 
G01 X-0.0125 Y0.9724 
G01 X-0.0125 Y0.9726 
G01 X-0.0131 Y0.9747 
G01 X-0.0137 Y0.9768 
G01 X-0.0138 Y0.9769 
G01 X-0.0138 Y0.9770 
G01 X-0.0149 Y0.9789 
G01 X-0.0160 Y0.9807 
G01 X-0.0161 Y0.9808 
G01 X-0.0162 Y0.9810 
G01 X-0.0177 Y0.9825 
G01 X-0.0193 Y0.9840 
G01 X-0.0194 Y0.9841 
G01 X-0.3327 Y1.2875 
G01 X-0.3343 Y1.2890 
G01 X-0.3344 Y1.2891 
G01 X-0.3345 Y1.2892 
G01 X-0.3364 Y1.2902 
G01 X-0.3382 Y1.2913 
G01 X-0.3384 Y1.2913 
G01 X-0.3385 Y1.2914 
G01 X-0.3406 Y1.2919 
G01 X-0.3427 Y1.2925 
G01 X-0.3428 Y1.2925 
G01 X-0.3430 Y1.2925 
G01 X-0.3451 Y1.2925 
G01 X-0.4673 Y1.2925 
G01 X-0.4718 Y1.2913 
G01 X-0.4757 Y1.2890 
G01 X-0.4857 Y1.2790 
G01 X-0.4890 Y1.2757 
G01 X-0.4913 Y1.2718 
G01 X-0.4925 Y1.2673 
G01 X-0.4925 Y1.2630 
G01 X-0.4942 Y1.2647 
G01 X-0.4977 Y1.2661 
G01 X-0.5264 Y1.2661 
G01 X-0.5660 Y1.3057 
G01 X-0.5693 Y1.3090 
G01 X-0.5732 Y1.3113 
G01 X-0.5777 Y1.3125 
G01 X-1.6073 Y1.3125 
G01 X-1.6118 Y1.3113 
G01 X-1.6157 Y1.3090 
G01 X-1.6507 Y1.2740 
G01 X-1.6540 Y1.2707 
G01 X-1.6563 Y1.2668 
G01 X-1.6575 Y1.2623 
G01 X-1.6575 Y1.1577 
G01 X-1.6563 Y1.1532 
G01 X-1.6540 Y1.1493 
G01 X-1.6190 Y1.1143 
G01 X-1.6172 Y1.1125 
G01 X-1.7275 Y1.1125 
G01 X-1.7275 Y1.1787 
G01 X-1.7013 Y1.1787 
G01 X-1.6978 Y1.1801 
G01 X-1.6951 Y1.1828 
G01 X-1.6937 Y1.1863 
G01 X-1.6937 Y1.2737 
G01 X-1.6951 Y1.2772 
G01 X-1.6978 Y1.2799 
G01 X-1.7013 Y1.2813 
G01 X-1.7887 Y1.2813 
G01 X-1.7922 Y1.2799 
G01 X-1.7949 Y1.2772 
G01 X-1.7963 Y1.2737 
G01 X-1.7963 Y1.1863 
G01 X-1.7949 Y1.1828 
G01 X-1.7922 Y1.1801 
G01 X-1.7887 Y1.1787 
G01 X-1.7625 Y1.1787 
G01 X-1.7625 Y1.0927 
G01 X-1.7613 Y1.0882 
G01 X-1.7590 Y1.0843 
G01 X-1.7572 Y1.0825 
G01 X-2.2542 Y1.0825 
G01 X-2.2683 Y1.0931 
G01 X-2.3068 Y1.1340 
G01 X-2.3005 Y1.1404 
G01 X-2.3005 Y1.1896 
G01 X-2.3354 Y1.2245 
G01 X-2.3846 Y1.2245 
G01 X-2.4195 Y1.1896 
G01 X-2.4195 Y1.1404 
G01 X-2.4144 Y1.1353 
G01 X-2.4640 Y1.0857 
G01 X-2.4663 Y1.0818 
G01 X-2.4675 Y1.0773 
G01 X-2.4675 Y0.1727 
G01 X-2.4663 Y0.1682 
G01 X-2.4640 Y0.1643 
G01 X-2.4607 Y0.1610 
G01 X-2.4090 Y0.1093 
G01 X-2.4057 Y0.1060 
G01 X-2.4018 Y0.1037 
G01 X-2.3973 Y0.1025 
G01 X-2.2805 Y0.1025 
G01 X-2.2805 Y0.0800 
G01 X-2.2789 Y0.0722 
G01 X-2.2759 Y0.0648 
G01 X-2.2715 Y0.0582 
G01 X-2.2658 Y0.0525 
G01 X-2.2592 Y0.0481 
G01 X-2.2518 Y0.0451 
G01 X-2.2440 Y0.0435 
G01 X-2.2360 Y0.0435 
G01 X-2.2282 Y0.0451 
G01 X-2.2208 Y0.0481 
G01 X-2.2142 Y0.0525 
G01 X-2.2085 Y0.0582 
G01 X-2.2041 Y0.0648 
G01 X-2.2011 Y0.0722 
G01 X-2.1995 Y0.0800 
G01 X-2.1995 Y0.0975 
G01 X-2.1805 Y0.0975 
G01 X-2.1805 Y0.0800 
G01 X-2.1789 Y0.0722 
G01 X-2.1759 Y0.0648 
G01 X-2.1715 Y0.0582 
G01 X-2.1658 Y0.0525 
G01 X-2.1592 Y0.0481 
G01 X-2.1518 Y0.0451 
G01 X-2.1440 Y0.0435 
G01 X-2.1360 Y0.0435 
G01 X-2.1282 Y0.0451 
G01 X-2.1208 Y0.0481 
G01 X-2.1142 Y0.0525 
G01 X-2.1085 Y0.0582 
G01 X-2.1041 Y0.0648 
G01 X-2.1011 Y0.0722 
G01 X-2.0995 Y0.0800 
G01 X-2.0995 Y0.0975 
G01 X-2.0805 Y0.0975 
G01 X-2.0805 Y0.0800 
G01 X-2.0789 Y0.0722 
G01 X-2.0759 Y0.0648 
G01 X-2.0715 Y0.0582 
G01 X-2.0658 Y0.0525 
G01 X-2.0592 Y0.0481 
G01 X-2.0518 Y0.0451 
G01 X-2.0440 Y0.0435 
G01 X-2.0360 Y0.0435 
G01 X-2.0282 Y0.0451 
G01 X-2.0208 Y0.0481 
G01 X-2.0142 Y0.0525 
G01 X-2.0085 Y0.0582 
G01 X-2.0041 Y0.0648 
G01 X-2.0011 Y0.0722 
G01 X-1.9995 Y0.0800 
G01 X-1.9995 Y0.0975 
G01 X-1.5777 Y0.0975 
G01 X-1.5732 Y0.0987 
G01 X-1.5693 Y0.1010 
G01 X-1.5660 Y0.1043 
G01 X-1.4328 Y0.2375 
G01 X-1.3272 Y0.2375 
G01 X-1.2840 Y0.1942 
G01 X-1.2849 Y0.1918 
G01 X-1.2865 Y0.1840 
G01 X-1.2865 Y0.1760 
G01 X-1.2849 Y0.1682 
G01 X-1.2819 Y0.1608 
G01 X-1.2775 Y0.1542 
G01 X-1.2718 Y0.1485 
G01 X-1.2652 Y0.1441 
G01 X-1.2578 Y0.1411 
G01 X-1.2500 Y0.1395 
G01 X-1.1800 Y0.1395 
G01 X-1.1722 Y0.1411 
G01 X-1.1648 Y0.1441 
G01 X-1.1582 Y0.1485 
G01 X-1.1525 Y0.1542 
G01 X-1.1481 Y0.1608 
G01 X-1.1451 Y0.1682 
G01 X-1.1435 Y0.1760 
G01 X-1.1435 Y0.1840 
G01 X-1.1451 Y0.1918 
G01 X-1.1481 Y0.1992 
G01 X-1.1525 Y0.2058 
G01 X-1.1582 Y0.2115 
G01 X-1.1648 Y0.2159 
G01 X-1.1722 Y0.2189 
G01 X-1.1800 Y0.2205 
G01 X-1.2500 Y0.2205 
G01 X-1.2578 Y0.2189 
G01 X-1.2588 Y0.2185 
G01 X-1.3060 Y0.2657 
G01 X-1.3093 Y0.2690 
G01 X-1.3132 Y0.2713 
G01 X-1.3177 Y0.2725 
G01 X-1.4473 Y0.2725 
G01 X-1.4518 Y0.2713 
G01 X-1.4557 Y0.2690 
G01 X-1.5922 Y0.1325 
G01 X-1.9995 Y0.1325 
G01 X-1.9995 Y0.1500 
G01 X-2.0011 Y0.1578 
G01 X-2.0041 Y0.1652 
G01 X-2.0085 Y0.1718 
G01 X-2.0142 Y0.1775 
G01 X-2.0208 Y0.1819 
G01 X-2.0282 Y0.1849 
G01 X-2.0360 Y0.1865 
G01 X-2.0440 Y0.1865 
G01 X-2.0518 Y0.1849 
G01 X-2.0592 Y0.1819 
G01 X-2.0658 Y0.1775 
G01 X-2.0715 Y0.1718 
G01 X-2.0759 Y0.1652 
G01 X-2.0789 Y0.1578 
G01 X-2.0805 Y0.1500 
G01 X-2.0805 Y0.1325 
G01 X-2.0995 Y0.1325 
G01 X-2.0995 Y0.1500 
G01 X-2.1011 Y0.1578 
G01 X-2.1041 Y0.1652 
G01 X-2.1085 Y0.1718 
G01 X-2.1142 Y0.1775 
G01 X-2.1208 Y0.1819 
G01 X-2.1282 Y0.1849 
G01 X-2.1360 Y0.1865 
G01 X-2.1440 Y0.1865 
G01 X-2.1518 Y0.1849 
G01 X-2.1592 Y0.1819 
G01 X-2.1658 Y0.1775 
G01 X-2.1715 Y0.1718 
G01 X-2.1759 Y0.1652 
G01 X-2.1789 Y0.1578 
G01 X-2.1805 Y0.1500 
G01 X-2.1805 Y0.1325 
G01 X-2.1995 Y0.1325 
G01 X-2.1995 Y0.1500 
G01 X-2.2011 Y0.1578 
G01 X-2.2041 Y0.1652 
G01 X-2.2085 Y0.1718 
G01 X-2.2142 Y0.1775 
G01 X-2.2208 Y0.1819 
G01 X-2.2282 Y0.1849 
G01 X-2.2360 Y0.1865 
G01 X-2.2440 Y0.1865 
G01 X-2.2518 Y0.1849 
G01 X-2.2592 Y0.1819 
G01 X-2.2658 Y0.1775 
G01 X-2.2715 Y0.1718 
G01 X-2.2759 Y0.1652 
G01 X-2.2789 Y0.1578 
G01 X-2.2805 Y0.1500 
G01 X-2.2805 Y0.1375 
G01 X-2.3878 Y0.1375 
G01 X-2.4325 Y0.1822 
G01 X-2.4325 Y1.0678 
G01 X-2.3897 Y1.1106 
G01 X-2.3846 Y1.1055 
G01 X-2.3354 Y1.1055 
G01 X-2.3316 Y1.1093 
G01 X-2.2933 Y1.0686 
G01 X-2.2923 Y1.0674 
G01 X-2.2917 Y1.0669 
G01 X-2.2912 Y1.0663 
G01 X-2.2899 Y1.0655 
G01 X-2.2715 Y1.0517 
G01 X-2.2707 Y1.0510 
G01 X-2.2697 Y1.0504 
G01 X-2.2687 Y1.0496 
G01 X-2.2677 Y1.0492 
G01 X-2.2668 Y1.0487 
G01 X-2.2655 Y1.0484 
G01 X-2.2644 Y1.0479 
G01 X-2.2633 Y1.0478 
G01 X-2.2623 Y1.0475 
G01 X-2.2611 Y1.0475 
G01 X-2.2598 Y1.0474 
G01 X-2.2588 Y1.0475 
G01 X-2.2022 Y1.0475 
G01 X-2.3303 Y0.9194 
G01 X-2.3354 Y0.9245 
G01 X-2.3846 Y0.9245 
G01 X-2.4195 Y0.8896 
G01 X-2.4195 Y0.8404 
G01 X-2.3846 Y0.8055 
G01 X-2.3354 Y0.8055 
G01 X-2.3005 Y0.8404 
G01 X-2.3005 Y0.8896 
G01 X-2.3056 Y0.8947 
G01 X-2.1828 Y1.0175 
G01 X-2.1672 Y1.0175 
G01 X-2.2157 Y0.9690 
G01 X-2.2190 Y0.9657 
G01 X-2.2213 Y0.9618 
G01 X-2.2225 Y0.9573 
G01 X-2.2225 Y0.8722 
G01 X-2.4057 Y0.6890 
G01 X-2.4090 Y0.6857 
G01 X-2.4113 Y0.6818 
G01 X-2.4125 Y0.6773 
G01 X-2.4125 Y0.3427 
G01 X-2.4113 Y0.3382 
G01 X-2.4090 Y0.3343 
G01 X-2.3440 Y0.2693 
G01 X-2.3407 Y0.2660 
G01 X-2.3368 Y0.2637 
G01 X-2.3323 Y0.2625 
G01 X-2.0627 Y0.2625 
G01 X-2.0582 Y0.2637 
G01 X-2.0543 Y0.2660 
G01 X-2.0293 Y0.2910 
G01 X-2.0260 Y0.2943 
G01 X-2.0237 Y0.2982 
G01 X-2.0225 Y0.3027 
G01 X-2.0225 Y0.3474 
G01 X-2.0208 Y0.3481 
G01 X-2.0142 Y0.3525 
G01 X-2.0085 Y0.3582 
G01 X-2.0041 Y0.3648 
G01 X-2.0011 Y0.3722 
G01 X-1.9995 Y0.3800 
G01 X-1.9995 Y0.4500 
G01 X-2.0011 Y0.4578 
G01 X-2.0041 Y0.4652 
G01 X-2.0085 Y0.4718 
G01 X-2.0142 Y0.4775 
G01 X-2.0208 Y0.4819 
G01 X-2.0282 Y0.4849 
G01 X-2.0360 Y0.4865 
G01 X-2.0440 Y0.4865 
G01 X-2.0518 Y0.4849 
G01 X-2.0592 Y0.4819 
G01 X-2.0658 Y0.4775 
G01 X-2.0715 Y0.4718 
G01 X-2.0759 Y0.4652 
G01 X-2.0789 Y0.4578 
G01 X-2.0805 Y0.4500 
G01 X-2.0805 Y0.3800 
G01 X-2.0789 Y0.3722 
G01 X-2.0759 Y0.3648 
G01 X-2.0715 Y0.3582 
G01 X-2.0658 Y0.3525 
G01 X-2.0592 Y0.3481 
G01 X-2.0575 Y0.3474 
G01 X-2.0575 Y0.3122 
G01 X-2.0722 Y0.2975 
G01 X-2.3228 Y0.2975 
G01 X-2.3775 Y0.3522 
G01 X-2.3775 Y0.6678 
G01 X-2.1910 Y0.8543 
G01 X-2.1887 Y0.8582 
G01 X-2.1875 Y0.8627 
G01 X-2.1875 Y0.9478 
G01 X-2.1613 Y0.9739 
G01 X-2.1613 Y0.8913 
G01 X-2.1599 Y0.8878 
G01 X-2.1572 Y0.8851 
G01 X-2.1537 Y0.8837 
G01 X-2.0981 Y0.8837 
G01 X-2.0985 Y0.8823 
G01 X-2.0985 Y0.8650 
G01 X-2.1144 Y0.8650 
G01 X-2.1179 Y0.8635 
G01 X-2.1205 Y0.8609 
G01 X-2.1220 Y0.8574 
G01 X-2.1220 Y0.7826 
G01 X-2.1205 Y0.7791 
G01 X-2.1179 Y0.7765 
G01 X-2.1144 Y0.7750 
G01 X-2.0476 Y0.7750 
G01 X-2.0441 Y0.7765 
G01 X-2.0414 Y0.7791 
G01 X-2.0400 Y0.7826 
G01 X-2.0400 Y0.8574 
G01 X-2.0414 Y0.8609 
G01 X-2.0441 Y0.8635 
G01 X-2.0476 Y0.8650 
G01 X-2.0635 Y0.8650 
G01 X-2.0635 Y0.8728 
G01 X-2.0462 Y0.8900 
G01 X-1.9926 Y0.8900 
G01 X-1.9891 Y0.8915 
G01 X-1.9864 Y0.8941 
G01 X-1.9850 Y0.8976 
G01 X-1.9850 Y0.9724 
G01 X-1.9864 Y0.9759 
G01 X-1.9891 Y0.9785 
G01 X-1.9926 Y0.9800 
G01 X-2.0592 Y0.9800 
G01 X-2.0601 Y0.9822 
G01 X-2.0628 Y0.9849 
G01 X-2.0663 Y0.9863 
G01 X-2.1489 Y0.9863 
G01 X-2.1478 Y0.9875 
G01 X-1.9522 Y0.9875 
G01 X-1.9447 Y0.9800 
G01 X-1.9474 Y0.9800 
G01 X-1.9509 Y0.9785 
G01 X-1.9536 Y0.9759 
G01 X-1.9550 Y0.9724 
G01 X-1.9550 Y0.8976 
G01 X-1.9536 Y0.8941 
G01 X-1.9509 Y0.8915 
G01 X-1.9474 Y0.8900 
G01 X-1.8806 Y0.8900 
G01 X-1.8771 Y0.8915 
G01 X-1.8745 Y0.8941 
G01 X-1.8730 Y0.8976 
G01 X-1.8730 Y0.9075 
G01 X-1.8022 Y0.9075 
G01 X-1.7998 Y0.9051 
G01 X-1.7963 Y0.9037 
G01 X-1.7059 Y0.9037 
G01 X-1.7024 Y0.9051 
G01 X-1.6997 Y0.9078 
G01 X-1.6983 Y0.9113 
G01 X-1.6983 Y0.9387 
G01 X-1.6997 Y0.9422 
G01 X-1.7024 Y0.9449 
G01 X-1.7059 Y0.9463 
G01 X-1.7963 Y0.9463 
G01 X-1.7998 Y0.9449 
G01 X-1.8022 Y0.9425 
G01 X-1.8730 Y0.9425 
G01 X-1.8730 Y0.9724 
G01 X-1.8745 Y0.9759 
G01 X-1.8771 Y0.9785 
G01 X-1.8806 Y0.9800 
G01 X-1.8952 Y0.9800 
G01 X-1.9310 Y1.0157 
G01 X-1.9328 Y1.0175 
G01 X-1.7622 Y1.0175 
G01 X-1.6875 Y0.9428 
G01 X-1.6875 Y0.8277 
G01 X-1.6863 Y0.8232 
G01 X-1.6840 Y0.8193 
G01 X-1.6807 Y0.8160 
G01 X-1.5757 Y0.7110 
G01 X-1.5718 Y0.7087 
G01 X-1.5673 Y0.7075 
G01 X-1.4400 Y0.7075 
G01 X-1.4376 Y0.7051 
G01 X-1.4341 Y0.7037 
G01 X-1.3437 Y0.7037 
G01 X-1.3402 Y0.7051 
G01 X-1.3375 Y0.7078 
G01 X-1.3361 Y0.7113 
G01 X-1.3361 Y0.7387 
G01 X-1.3375 Y0.7422 
G01 X-1.3402 Y0.7449 
G01 X-1.3437 Y0.7463 
G01 X-1.4341 Y0.7463 
G01 X-1.4376 Y0.7449 
G01 X-1.4400 Y0.7425 
G01 X-1.5578 Y0.7425 
G01 X-1.6525 Y0.8372 
G01 X-1.6525 Y0.9523 
G01 X-1.6537 Y0.9568 
G01 X-1.6560 Y0.9607 
G01 X-1.7410 Y1.0457 
G01 X-1.7428 Y1.0475 
G01 X-1.7332 Y1.0475 
G01 X-1.7144 Y1.0250 
G01 X-1.7140 Y1.0243 
G01 X-1.7129 Y1.0232 
G01 X-1.7120 Y1.0220 
G01 X-1.7113 Y1.0216 
G01 X-1.7107 Y1.0210 
G01 X-1.7094 Y1.0202 
G01 X-1.7082 Y1.0194 
G01 X-1.7074 Y1.0191 
G01 X-1.7068 Y1.0187 
G01 X-1.7053 Y1.0183 
G01 X-1.7039 Y1.0178 
G01 X-1.7031 Y1.0177 
G01 X-1.7023 Y1.0175 
G01 X-1.7008 Y1.0175 
G01 X-1.6993 Y1.0174 
G01 X-1.6985 Y1.0175 
G01 X-1.6661 Y1.0175 
G01 X-1.6661 Y0.9977 
G01 X-1.6647 Y0.9942 
G01 X-1.6620 Y0.9915 
G01 X-1.6585 Y0.9901 
G01 X-1.6425 Y0.9901 
G01 X-1.6425 Y0.9677 
G01 X-1.6413 Y0.9632 
G01 X-1.6390 Y0.9593 
G01 X-1.6357 Y0.9560 
G01 X-1.6107 Y0.9310 
G01 X-1.6068 Y0.9287 
G01 X-1.6023 Y0.9275 
G01 X-1.4827 Y0.9275 
G01 X-1.4782 Y0.9287 
G01 X-1.4743 Y0.9310 
G01 X-1.4710 Y0.9343 
G01 X-1.4175 Y0.9878 
G01 X-1.4064 Y0.9766 
G01 X-1.4064 Y0.9463 
G01 X-1.4341 Y0.9463 
G01 X-1.4376 Y0.9449 
G01 X-1.4403 Y0.9422 
G01 X-1.4417 Y0.9387 
G01 X-1.4417 Y0.9113 
G01 X-1.4403 Y0.9078 
G01 X-1.4376 Y0.9051 
G01 X-1.4341 Y0.9037 
G01 X-1.3437 Y0.9037 
G01 X-1.3402 Y0.9051 
G01 X-1.3375 Y0.9078 
G01 X-1.3361 Y0.9113 
G01 X-1.3361 Y0.9387 
G01 X-1.3375 Y0.9422 
G01 X-1.3402 Y0.9449 
G01 X-1.3437 Y0.9463 
G01 X-1.3714 Y0.9463 
G01 X-1.3714 Y0.9748 
G01 X-1.3687 Y0.9737 
G01 X-1.2813 Y0.9737 
G01 X-1.2778 Y0.9751 
G01 X-1.2751 Y0.9778 
G01 X-1.2737 Y0.9813 
G01 X-1.2737 Y1.0687 
G01 X-1.2751 Y1.0722 
G01 X-1.2778 Y1.0749 
G01 X-1.2813 Y1.0763 
G01 X-1.3300 Y1.0763 
G01 X-1.3298 Y1.0763 
G01 X-1.3225 Y1.0801 
G01 X-1.3158 Y1.0850 
G01 X-1.3100 Y1.0908 
G01 X-1.3051 Y1.0975 
G01 X-1.3013 Y1.1048 
G01 X-1.3005 Y1.1075 
G01 X-1.1477 Y1.1075 
G01 X-1.1432 Y1.1087 
G01 X-1.1393 Y1.1110 
G01 X-1.1375 Y1.1128 
G01 X-1.1375 Y0.8877 
G01 X-1.1363 Y0.8832 
G01 X-1.1340 Y0.8793 
G01 X-1.0972 Y0.8425 
G01 X-1.3378 Y0.8425 
G01 X-1.3402 Y0.8449 
G01 X-1.3437 Y0.8463 
G01 X-1.4341 Y0.8463 
G01 X-1.4376 Y0.8449 
G01 X-1.4403 Y0.8422 
G01 X-1.4417 Y0.8387 
G01 X-1.4417 Y0.8113 
G01 X-1.4403 Y0.8078 
G01 X-1.4376 Y0.8051 
G01 X-1.4341 Y0.8037 
G01 X-1.3437 Y0.8037 
G01 X-1.3402 Y0.8051 
G01 X-1.3378 Y0.8075 
G01 X-1.1022 Y0.8075 
G01 X-1.0157 Y0.7210 
G01 X-1.0118 Y0.7187 
G01 X-1.0073 Y0.7175 
G01 X-0.8827 Y0.7175 
G01 X-0.8782 Y0.7187 
G01 X-0.8743 Y0.7210 
G01 X-0.8710 Y0.7243 
G01 X-0.8465 Y0.7488 
G01 X-0.8455 Y0.7486 
G01 X-0.8375 Y0.7486 
G01 X-0.8297 Y0.7501 
G01 X-0.8223 Y0.7532 
G01 X-0.8157 Y0.7576 
G01 X-0.8100 Y0.7632 
G01 X-0.8056 Y0.7699 
G01 X-0.8026 Y0.7772 
G01 X-0.8021 Y0.7794 
G01 X-0.8017 Y0.7772 
G01 X-0.7986 Y0.7699 
G01 X-0.7942 Y0.7632 
G01 X-0.7886 Y0.7576 
G01 X-0.7819 Y0.7532 
G01 X-0.7746 Y0.7501 
G01 X-0.7667 Y0.7486 
G01 X-0.7588 Y0.7486 
G01 X-0.7509 Y0.7501 
G01 X-0.7436 Y0.7532 
G01 X-0.7369 Y0.7576 
G01 X-0.7313 Y0.7632 
G01 X-0.7269 Y0.7699 
G01 X-0.7238 Y0.7772 
G01 X-0.7223 Y0.7851 
G01 X-0.7223 Y0.8550 
G01 X-0.7238 Y0.8629 
G01 X-0.7269 Y0.8702 
G01 X-0.7313 Y0.8769 
G01 X-0.7369 Y0.8825 
G01 X-0.7436 Y0.8869 
G01 X-0.7453 Y0.8876 
G01 X-0.7453 Y1.0205 
G01 X-0.7333 Y1.0325 
G01 X-0.7313 Y1.0325 
G01 X-0.7313 Y1.0213 
G01 X-0.7299 Y1.0178 
G01 X-0.7272 Y1.0151 
G01 X-0.7237 Y1.0137 
G01 X-0.6363 Y1.0137 
G01 X-0.6328 Y1.0151 
G01 X-0.6301 Y1.0178 
G01 X-0.6287 Y1.0213 
G01 X-0.6287 Y1.1087 
G01 X-0.6301 Y1.1122 
G01 X-0.6328 Y1.1149 
G01 X-0.6363 Y1.1163 
G01 X-0.7237 Y1.1163 
G01 X-0.7272 Y1.1149 
G01 X-0.7299 Y1.1122 
G01 X-0.7313 Y1.1087 
G01 X-0.7313 Y1.0675 
G01 X-0.7428 Y1.0675 
G01 X-0.7473 Y1.0663 
G01 X-0.7513 Y1.0640 
G01 X-0.7628 Y1.0525 
G01 X-0.8034 Y1.0931 
G01 X-0.8008 Y1.0950 
G01 X-0.7950 Y1.1008 
G01 X-0.7901 Y1.1075 
G01 X-0.7863 Y1.1148 
G01 X-0.7838 Y1.1227 
G01 X-0.7825 Y1.1309 
G01 X-0.7825 Y1.1391 
G01 X-0.7838 Y1.1473 
G01 X-0.7863 Y1.1552 
G01 X-0.7901 Y1.1625 
G01 X-0.7950 Y1.1692 
G01 X-0.8008 Y1.1750 
G01 X-0.8075 Y1.1799 
G01 X-0.8130 Y1.1827 
G01 X-0.7825 Y1.2133 
G01 X-0.7825 Y1.2175 
G01 X-0.7022 Y1.2175 
G01 X-0.6125 Y1.1278 
G01 X-0.6125 Y1.0122 
G01 X-0.7040 Y0.9207 
G01 X-0.7063 Y0.9168 
G01 X-0.7075 Y0.9123 
G01 X-0.7075 Y0.7772 
G01 X-0.7372 Y0.7475 
G01 X-0.7873 Y0.7475 
G01 X-0.7918 Y0.7463 
G01 X-0.7957 Y0.7440 
G01 X-0.7990 Y0.7407 
G01 X-0.8161 Y0.7236 
G01 X-0.8184 Y0.7196 
G01 X-0.8196 Y0.7152 
G01 X-0.8196 Y0.7075 
G01 X-0.8213 Y0.7068 
G01 X-0.8279 Y0.7024 
G01 X-0.8336 Y0.6968 
G01 X-0.8380 Y0.6901 
G01 X-0.8411 Y0.6828 
G01 X-0.8415 Y0.6806 
G01 X-0.8419 Y0.6828 
G01 X-0.8450 Y0.6901 
G01 X-0.8494 Y0.6968 
G01 X-0.8550 Y0.7024 
G01 X-0.8617 Y0.7068 
G01 X-0.8691 Y0.7099 
G01 X-0.8769 Y0.7114 
G01 X-0.8849 Y0.7114 
G01 X-0.8927 Y0.7099 
G01 X-0.9001 Y0.7068 
G01 X-0.9067 Y0.7024 
G01 X-0.9123 Y0.6968 
G01 X-0.9168 Y0.6901 
G01 X-0.9175 Y0.6884 
G01 X-1.1137 Y0.6884 
G01 X-1.2110 Y0.7857 
G01 X-1.2143 Y0.7890 
G01 X-1.2182 Y0.7913 
G01 X-1.2227 Y0.7925 
G01 X-1.3378 Y0.7925 
G01 X-1.3402 Y0.7949 
G01 X-1.3437 Y0.7963 
G01 X-1.4341 Y0.7963 
G01 X-1.4376 Y0.7949 
G01 X-1.4403 Y0.7922 
G01 X-1.4417 Y0.7887 
G01 X-1.4417 Y0.7613 
G01 X-1.4403 Y0.7578 
G01 X-1.4376 Y0.7551 
G01 X-1.4341 Y0.7537 
G01 X-1.3437 Y0.7537 
G01 X-1.3402 Y0.7551 
G01 X-1.3378 Y0.7575 
G01 X-1.2322 Y0.7575 
G01 X-1.1317 Y0.6569 
G01 X-1.1277 Y0.6546 
G01 X-1.1232 Y0.6534 
G01 X-0.9214 Y0.6534 
G01 X-0.9214 Y0.6050 
G01 X-0.9198 Y0.5971 
G01 X-0.9168 Y0.5898 
G01 X-0.9123 Y0.5831 
G01 X-0.9067 Y0.5775 
G01 X-0.9001 Y0.5731 
G01 X-0.8927 Y0.5700 
G01 X-0.8849 Y0.5684 
G01 X-0.8769 Y0.5684 
G01 X-0.8691 Y0.5700 
G01 X-0.8617 Y0.5731 
G01 X-0.8550 Y0.5775 
G01 X-0.8494 Y0.5831 
G01 X-0.8450 Y0.5898 
G01 X-0.8419 Y0.5971 
G01 X-0.8415 Y0.5993 
G01 X-0.8411 Y0.5971 
G01 X-0.8380 Y0.5898 
G01 X-0.8336 Y0.5831 
G01 X-0.8279 Y0.5775 
G01 X-0.8213 Y0.5731 
G01 X-0.8139 Y0.5700 
G01 X-0.8061 Y0.5684 
G01 X-0.7981 Y0.5684 
G01 X-0.7903 Y0.5700 
G01 X-0.7829 Y0.5731 
G01 X-0.7763 Y0.5775 
G01 X-0.7707 Y0.5831 
G01 X-0.7662 Y0.5898 
G01 X-0.7632 Y0.5971 
G01 X-0.7628 Y0.5993 
G01 X-0.7623 Y0.5971 
G01 X-0.7593 Y0.5898 
G01 X-0.7548 Y0.5831 
G01 X-0.7492 Y0.5775 
G01 X-0.7426 Y0.5731 
G01 X-0.7352 Y0.5700 
G01 X-0.7274 Y0.5684 
G01 X-0.7194 Y0.5684 
G01 X-0.7116 Y0.5700 
G01 X-0.7042 Y0.5731 
G01 X-0.6976 Y0.5775 
G01 X-0.6919 Y0.5831 
G01 X-0.6875 Y0.5898 
G01 X-0.6844 Y0.5971 
G01 X-0.6829 Y0.6050 
G01 X-0.6829 Y0.6282 
G01 X-0.6411 Y0.6048 
G01 X-0.6392 Y0.6037 
G01 X-0.6391 Y0.6037 
G01 X-0.6390 Y0.6036 
G01 X-0.6369 Y0.6031 
G01 X-0.6347 Y0.6025 
G01 X-0.6346 Y0.6025 
G01 X-0.6345 Y0.6025 
G01 X-0.6323 Y0.6025 
G01 X-0.4227 Y0.6025 
G01 X-0.4182 Y0.6037 
G01 X-0.4143 Y0.6060 
G01 X-0.4110 Y0.6093 
G01 X-0.4087 Y0.6132 
G01 X-0.4075 Y0.6177 
G01 X-0.4075 Y0.8023 
G01 X-0.4087 Y0.8068 
G01 X-0.4110 Y0.8107 
G01 X-0.4143 Y0.8140 
G01 X-0.4875 Y0.8872 
G01 X-0.4875 Y0.9237 
G01 X-0.4663 Y0.9237 
G01 X-0.4628 Y0.9251 
G01 X-0.4601 Y0.9278 
G01 X-0.4587 Y0.9313 
G01 X-0.4587 Y1.0187 
G01 X-0.4601 Y1.0222 
G01 X-0.4628 Y1.0249 
G01 X-0.4663 Y1.0263 
G01 X-0.5537 Y1.0263 
G01 X-0.5572 Y1.0249 
G01 X-0.5599 Y1.0222 
G01 X-0.5613 Y1.0187 
G01 X-0.5613 Y0.9313 
G01 X-0.5599 Y0.9278 
G01 X-0.5572 Y0.9251 
G01 X-0.5537 Y0.9237 
G01 X-0.5225 Y0.9237 
G01 X-0.5225 Y0.8777 
G01 X-0.5213 Y0.8732 
G01 X-0.5190 Y0.8693 
G01 X-0.4425 Y0.7928 
G01 X-0.4425 Y0.6375 
G01 X-0.6279 Y0.6375 
G01 X-0.6829 Y0.6683 
G01 X-0.6829 Y0.6749 
G01 X-0.6844 Y0.6828 
G01 X-0.6875 Y0.6901 
G01 X-0.6919 Y0.6968 
G01 X-0.6976 Y0.7024 
G01 X-0.7042 Y0.7068 
G01 X-0.7116 Y0.7099 
G01 X-0.7194 Y0.7114 
G01 X-0.7274 Y0.7114 
G01 X-0.7352 Y0.7099 
G01 X-0.7426 Y0.7068 
G01 X-0.7492 Y0.7024 
G01 X-0.7548 Y0.6968 
G01 X-0.7593 Y0.6901 
G01 X-0.7623 Y0.6828 
G01 X-0.7628 Y0.6806 
G01 X-0.7632 Y0.6828 
G01 X-0.7662 Y0.6901 
G01 X-0.7707 Y0.6968 
G01 X-0.7763 Y0.7024 
G01 X-0.7829 Y0.7068 
G01 X-0.7833 Y0.7070 
G01 X-0.7778 Y0.7125 
G01 X-0.7277 Y0.7125 
G01 X-0.7232 Y0.7137 
G01 X-0.7193 Y0.7160 
G01 X-0.6793 Y0.7560 
G01 X-0.6760 Y0.7593 
G01 X-0.6737 Y0.7632 
G01 X-0.6725 Y0.7677 
G01 X-0.6725 Y0.9028 
G01 X-0.5843 Y0.9910 
G01 X-0.5810 Y0.9943 
G01 X-0.5787 Y0.9982 
G01 X-0.5775 Y1.0027 
G01 X-0.5775 Y1.0770 
G01 X-0.5758 Y1.0753 
G01 X-0.5723 Y1.0739 
G01 X-0.4977 Y1.0739 
G01 X-0.4942 Y1.0753 
G01 X-0.4915 Y1.0780 
G01 X-0.4901 Y1.0815 
G01 X-0.4901 Y1.0975 
G01 X-0.3622 Y1.0975 
G01 X-0.3088 Y1.0441 
G01 X-0.3345 Y1.0184 
G01 X-0.3345 Y0.9816 
G01 X-0.3084 Y0.9555 
G01 X-0.2716 Y0.9555 
G01 X-0.2455 Y0.9816 
G01 X-0.2455 Y1.0184 
G01 X-0.2716 Y1.0445 
G01 X-0.2725 Y1.0445 
G01 X-0.2725 Y1.0523 
G01 X-0.2737 Y1.0568 
G01 X-0.2760 Y1.0607 
G01 X-0.3410 Y1.1257 
G01 X-0.3443 Y1.1290 
G01 X-0.3482 Y1.1313 
G01 X-0.3527 Y1.1325 
G01 X-0.4575 Y1.1325 
G01 X-0.4575 Y1.1404 
G01 X-0.4572 Y1.1401 
G01 X-0.4537 Y1.1387 
G01 X-0.3663 Y1.1387 
G01 X-0.3628 Y1.1401 
G01 X-0.3601 Y1.1428 
G01 X-0.3587 Y1.1463 
G01 X-0.3587 Y1.1725 
G01 X-0.3572 Y1.1725 
G01 X-0.2188 Y1.0341 
G01 X-0.2345 Y1.0184 
G01 X-0.2345 Y0.9816 
G01 X-0.2084 Y0.9555 
G01 X-0.1716 Y0.9555 
G01 X-0.1455 Y0.9816 
G01 X-0.1455 Y1.0184 
G01 X-0.1716 Y1.0445 
G01 X-0.1798 Y1.0445 
G01 X-0.3360 Y1.2007 
G01 X-0.3393 Y1.2040 
G01 X-0.3432 Y1.2063 
G01 X-0.3477 Y1.2075 
G01 X-0.3587 Y1.2075 
G01 X-0.3587 Y1.2337 
G01 X-0.3601 Y1.2372 
G01 X-0.3628 Y1.2399 
G01 X-0.3663 Y1.2413 
G01 X-0.4537 Y1.2413 
G01 X-0.4572 Y1.2399 
G01 X-0.4575 Y1.2396 
G01 X-0.4575 Y1.2575 
G01 X-0.3521 Y1.2575 
G01 X-0.0475 Y0.9626 
G01 X-0.0475 Y0.8173 
G01 X-0.1359 Y0.9105 
G01 X-0.1360 Y0.9107 
G01 X-0.1375 Y0.9122 
G01 X-0.1389 Y0.9137 
G01 X-0.1391 Y0.9138 
G01 X-0.1393 Y0.9140 
G01 X-0.1410 Y0.9150 
G01 X-0.1428 Y0.9161 
G01 X-0.1430 Y0.9162 
G01 X-0.1432 Y0.9163 
G01 X-0.1452 Y0.9168 
G01 X-0.1455 Y0.9169 
G01 X-0.1455 Y0.9184 
G01 X-0.1716 Y0.9445 
G01 X-0.2084 Y0.9445 
G01 X-0.2345 Y0.9184 
G01 X-0.2345 Y0.8816 
G01 X-0.2084 Y0.8555 
G01 X-0.1716 Y0.8555 
G01 X-0.1512 Y0.8758 
G01 X-0.0775 Y0.7980 
G01 X-0.0775 Y0.7624 
G01 X-0.1155 Y0.8099 
G01 X-0.1160 Y0.8107 
G01 X-0.1169 Y0.8117 
G01 X-0.1178 Y0.8127 
G01 X-0.1186 Y0.8133 
G01 X-0.1193 Y0.8140 
G01 X-0.1204 Y0.8147 
G01 X-0.1215 Y0.8155 
G01 X-0.1224 Y0.8158 
G01 X-0.1232 Y0.8163 
G01 X-0.1245 Y0.8167 
G01 X-0.1258 Y0.8171 
G01 X-0.1268 Y0.8172 
G01 X-0.1277 Y0.8175 
G01 X-0.1290 Y0.8175 
G01 X-0.1304 Y0.8176 
G01 X-0.1313 Y0.8175 
G01 X-0.1455 Y0.8175 
G01 X-0.1455 Y0.8184 
G01 X-0.1716 Y0.8445 
G01 X-0.2084 Y0.8445 
G01 X-0.2345 Y0.8184 
G01 X-0.2345 Y0.7816 
G01 X-0.2084 Y0.7555 
G01 X-0.1716 Y0.7555 
G01 X-0.1455 Y0.7816 
G01 X-0.1455 Y0.7825 
G01 X-0.1384 Y0.7825 
G01 X-0.1075 Y0.7439 
G01 X-0.1075 Y0.4822 
G01 X-0.1393 Y0.5140 
G01 X-0.1432 Y0.5163 
G01 X-0.1455 Y0.5169 
G01 X-0.1455 Y0.5184 
G01 X-0.1716 Y0.5445 
G01 X-0.2084 Y0.5445 
G01 X-0.2345 Y0.5184 
G01 X-0.2345 Y0.4816 
G01 X-0.2084 Y0.4555 
G01 X-0.1716 Y0.4555 
G01 X-0.1509 Y0.4762 
G01 X-0.1375 Y0.4628 
G01 X-0.1375 Y0.3822 
G01 X-0.2122 Y0.3075 
G01 X-0.3828 Y0.3075 
G01 X-0.4210 Y0.3457 
G01 X-0.4228 Y0.3475 
G01 X-0.4022 Y0.3475 
G01 X-0.3657 Y0.3110 
G01 X-0.3618 Y0.3087 
G01 X-0.3573 Y0.3075 
G01 X-0.2477 Y0.3075 
G01 X-0.2432 Y0.3087 
G01 X-0.2393 Y0.3110 
G01 X-0.2360 Y0.3143 
G01 X-0.1948 Y0.3555 
G01 X-0.1716 Y0.3555 
G01 X-0.1455 Y0.3816 
G01 X-0.1455 Y0.4184 
G01 X-0.1716 Y0.4445 
G01 X-0.2084 Y0.4445 
G01 X-0.2345 Y0.4184 
G01 X-0.2345 Y0.3816 
G01 X-0.2263 Y0.3734 
G01 X-0.2572 Y0.3425 
G01 X-0.3478 Y0.3425 
G01 X-0.3810 Y0.3757 
G01 X-0.3843 Y0.3790 
G01 X-0.3882 Y0.3813 
G01 X-0.3927 Y0.3825 
G01 X-1.5878 Y0.3825 
G01 X-1.6475 Y0.4422 
G01 X-1.6475 Y0.6023 
G01 X-1.6487 Y0.6068 
G01 X-1.6510 Y0.6107 
G01 X-1.6760 Y0.6357 
G01 X-1.6793 Y0.6390 
G01 X-1.6832 Y0.6413 
G01 X-1.6877 Y0.6425 
G01 X-1.7000 Y0.6425 
G01 X-1.7024 Y0.6449 
G01 X-1.7059 Y0.6463 
G01 X-1.7963 Y0.6463 
G01 X-1.7998 Y0.6449 
G01 X-1.8025 Y0.6422 
G01 X-1.8039 Y0.6387 
G01 X-1.8039 Y0.6113 
G01 X-1.8025 Y0.6078 
G01 X-1.7998 Y0.6051 
G01 X-1.7963 Y0.6037 
G01 X-1.7059 Y0.6037 
G01 X-1.7024 Y0.6051 
G01 X-1.7000 Y0.6075 
G01 X-1.6972 Y0.6075 
G01 X-1.6825 Y0.5928 
G01 X-1.6825 Y0.4327 
G01 X-1.6813 Y0.4282 
G01 X-1.6790 Y0.4243 
G01 X-1.6757 Y0.4210 
G01 X-1.6072 Y0.3525 
G01 X-1.7628 Y0.3525 
G01 X-1.8175 Y0.4072 
G01 X-1.8175 Y0.7075 
G01 X-1.8022 Y0.7075 
G01 X-1.7998 Y0.7051 
G01 X-1.7963 Y0.7037 
G01 X-1.7059 Y0.7037 
G01 X-1.7024 Y0.7051 
G01 X-1.6997 Y0.7078 
G01 X-1.6983 Y0.7113 
G01 X-1.6983 Y0.7387 
G01 X-1.6997 Y0.7422 
G01 X-1.7024 Y0.7449 
G01 X-1.7059 Y0.7463 
G01 X-1.7963 Y0.7463 
G01 X-1.7998 Y0.7449 
G01 X-1.8022 Y0.7425 
G01 X-1.8373 Y0.7425 
G01 X-1.8418 Y0.7413 
G01 X-1.8457 Y0.7390 
G01 X-1.8490 Y0.7357 
G01 X-1.8513 Y0.7318 
G01 X-1.8525 Y0.7273 
G01 X-1.8525 Y0.3977 
G01 X-1.8513 Y0.3932 
G01 X-1.8490 Y0.3893 
G01 X-1.8457 Y0.3860 
G01 X-1.7807 Y0.3210 
G01 X-1.7768 Y0.3187 
G01 X-1.7723 Y0.3175 
G01 X-0.9613 Y0.3175 
G01 X-0.9652 Y0.3159 
G01 X-0.9718 Y0.3115 
G01 X-0.9775 Y0.3058 
G01 X-0.9819 Y0.2992 
G01 X-0.9826 Y0.2974 
G01 X-0.9868 Y0.2963 
G01 X-0.9907 Y0.2940 
G01 X-0.9940 Y0.2907 
G01 X-1.0022 Y0.2825 
G01 X-1.0437 Y0.2825 
G01 X-1.0437 Y0.3087 
G01 X-1.0451 Y0.3122 
G01 X-1.0478 Y0.3149 
G01 X-1.0513 Y0.3163 
G01 X-1.1387 Y0.3163 
G01 X-1.1422 Y0.3149 
G01 X-1.1449 Y0.3122 
G01 X-1.1463 Y0.3087 
G01 X-1.1463 Y0.2213 
G01 X-1.1449 Y0.2178 
G01 X-1.1422 Y0.2151 
G01 X-1.1387 Y0.2137 
G01 X-1.0513 Y0.2137 
G01 X-1.0478 Y0.2151 
G01 X-1.0451 Y0.2178 
G01 X-1.0437 Y0.2213 
G01 X-1.0437 Y0.2475 
G01 X-0.9927 Y0.2475 
G01 X-0.9882 Y0.2487 
G01 X-0.9843 Y0.2510 
G01 X-0.9789 Y0.2563 
G01 X-0.9775 Y0.2542 
G01 X-0.9718 Y0.2485 
G01 X-0.9652 Y0.2441 
G01 X-0.9578 Y0.2411 
G01 X-0.9500 Y0.2395 
G01 X-0.8800 Y0.2395 
G01 X-0.8722 Y0.2411 
G01 X-0.8648 Y0.2441 
G01 X-0.8582 Y0.2485 
G01 X-0.8525 Y0.2542 
G01 X-0.8481 Y0.2608 
G01 X-0.8451 Y0.2682 
G01 X-0.8435 Y0.2760 
G01 X-0.8435 Y0.2840 
G01 X-0.8451 Y0.2918 
G01 X-0.8481 Y0.2992 
G01 X-0.8525 Y0.3058 
G01 X-0.8582 Y0.3115 
G01 X-0.8648 Y0.3159 
G01 X-0.8687 Y0.3175 
G01 X-0.4422 Y0.3175 
G01 X-0.4007 Y0.2760 
G01 X-0.3968 Y0.2737 
G01 X-0.3923 Y0.2725 
G01 X-0.2027 Y0.2725 
G01 X-0.1982 Y0.2737 
G01 X-0.1943 Y0.2760 
G01 X-0.1910 Y0.2793 
G01 X-0.1075 Y0.3628 
G01 X-0.1075 Y0.3520 
G01 X-0.2025 Y0.2525 
G01 X-0.4587 Y0.2525 
G01 X-0.4587 Y0.2787 
G01 X-0.4601 Y0.2822 
G01 X-0.4628 Y0.2849 
G01 X-0.4663 Y0.2863 
G01 X-0.5537 Y0.2863 
G01 X-0.5572 Y0.2849 
G01 X-0.5599 Y0.2822 
G01 X-0.5613 Y0.2787 
G01 X-0.5613 Y0.1961 
G01 X-0.6210 Y0.2557 
G01 X-0.6243 Y0.2590 
G01 X-0.6282 Y0.2613 
G01 X-0.6327 Y0.2625 
G01 X-0.8073 Y0.2625 
G01 X-0.8118 Y0.2613 
G01 X-0.8157 Y0.2590 
G01 X-0.9422 Y0.1325 
G01 X-1.3178 Y0.1325 
G01 X-1.3387 Y0.1534 
G01 X-1.3387 Y0.2237 
G01 X-1.3401 Y0.2272 
G01 X-1.3428 Y0.2299 
G01 X-1.3463 Y0.2313 
G01 X-1.4337 Y0.2313 
G01 X-1.4372 Y0.2299 
G01 X-1.4399 Y0.2272 
G01 X-1.4413 Y0.2237 
G01 X-1.4413 Y0.1363 
G01 X-1.4399 Y0.1328 
G01 X-1.4372 Y0.1301 
G01 X-1.4337 Y0.1287 
G01 X-1.3634 Y0.1287 
G01 X-1.3357 Y0.1010 
G01 X-1.3318 Y0.0987 
G01 X-1.3273 Y0.0975 
G01 X-0.9327 Y0.0975 
G01 X-0.9282 Y0.0987 
G01 X-0.9243 Y0.1010 
G01 X-0.9210 Y0.1043 
G01 X-0.7978 Y0.2275 
G01 X-0.6422 Y0.2275 
G01 X-0.5707 Y0.1560 
G01 X-0.5668 Y0.1537 
G01 X-0.5623 Y0.1525 
G01 X-0.2172 Y0.1525 
G01 X-0.2170 Y0.1525 
G01 X-0.2149 Y0.1525 
G01 X-0.2127 Y0.1525 
G01 X-0.2126 Y0.1525 
G01 X-0.2124 Y0.1525 
G01 X-0.2103 Y0.1531 
G01 X-0.2082 Y0.1537 
G01 X-0.2081 Y0.1538 
G01 X-0.2080 Y0.1538 
G01 X-0.2061 Y0.1549 
G01 X-0.2043 Y0.1560 
G01 X-0.2042 Y0.1561 
G01 X-0.2040 Y0.1562 
G01 X-0.2025 Y0.1577 
G01 X-0.2010 Y0.1593 
G01 X-0.2009 Y0.1594 
G01 X-0.0475 Y0.3177 
G01 X-0.0475 Y0.0922 
G01 X-0.0772 Y0.0625 
G01 X-0.5728 Y0.0625 
G01 X-0.6585 Y0.1483 
G01 X-0.6582 Y0.1485 
G01 X-0.6525 Y0.1542 
G01 X-0.6481 Y0.1608 
G01 X-0.6451 Y0.1682 
G01 X-0.6435 Y0.1760 
G01 X-0.6435 Y0.1840 
G01 X-0.6451 Y0.1918 
G01 X-0.6481 Y0.1992 
G01 X-0.6525 Y0.2058 
G01 X-0.6582 Y0.2115 
G01 X-0.6648 Y0.2159 
G01 X-0.6722 Y0.2189 
G01 X-0.6800 Y0.2205 
G01 X-0.7500 Y0.2205 
G01 X-0.7578 Y0.2189 
G01 X-0.7652 Y0.2159 
G01 X-0.7718 Y0.2115 
G01 X-0.7775 Y0.2058 
G01 X-0.7819 Y0.1992 
G01 X-0.7849 Y0.1918 
G01 X-0.7865 Y0.1840 
G01 X-0.7865 Y0.1760 
G01 X-0.7849 Y0.1682 
G01 X-0.7819 Y0.1608 
G01 X-0.7775 Y0.1542 
G01 X-0.7718 Y0.1485 
G01 X-0.7652 Y0.1441 
G01 X-0.7578 Y0.1411 
G01 X-0.7500 Y0.1395 
G01 X-0.6992 Y0.1395 
G01 X-0.5940 Y0.0343 
G01 X-0.5907 Y0.0310 
G01 X-0.5868 Y0.0287 
G01 X-0.5823 Y0.0275 
G01 X-0.0677 Y0.0275 
G01 X-0.0632 Y0.0287 
G01 X-0.0593 Y0.0310 
G01 X-0.0560 Y0.0343 
G01 X-0.0160 Y0.0743 
G00 Z0.1000 
G00 X-0.2224 Y0.1875 
G01 Z-0.0070 F10.00 
G01 X-0.4604 Y0.1875 F20.00 
G01 X-0.4601 Y0.1878 
G01 X-0.4587 Y0.1913 
G01 X-0.4587 Y0.2175 
G01 X-0.1971 Y0.2175 
G01 X-0.1969 Y0.2175 
G01 X-0.1948 Y0.2175 
G01 X-0.1933 Y0.2175 
G01 X-0.2224 Y0.1875 
G00 Z0.1000 
G00 X-0.2455 Y0.3816 
G01 Z-0.0070 F10.00 
G01 X-0.2455 Y0.4184 F20.00 
G01 X-0.2716 Y0.4445 
G01 X-0.3084 Y0.4445 
G01 X-0.3345 Y0.4184 
G01 X-0.3345 Y0.4175 
G01 X-1.5628 Y0.4175 
G01 X-1.6125 Y0.4672 
G01 X-1.6125 Y0.6223 
G01 X-1.6137 Y0.6268 
G01 X-1.6160 Y0.6307 
G01 X-1.6193 Y0.6340 
G01 X-1.6743 Y0.6890 
G01 X-1.6782 Y0.6913 
G01 X-1.6827 Y0.6925 
G01 X-1.7000 Y0.6925 
G01 X-1.7024 Y0.6949 
G01 X-1.7059 Y0.6963 
G01 X-1.7963 Y0.6963 
G01 X-1.7998 Y0.6949 
G01 X-1.8025 Y0.6922 
G01 X-1.8039 Y0.6887 
G01 X-1.8039 Y0.6613 
G01 X-1.8025 Y0.6578 
G01 X-1.7998 Y0.6551 
G01 X-1.7963 Y0.6537 
G01 X-1.7059 Y0.6537 
G01 X-1.7024 Y0.6551 
G01 X-1.7000 Y0.6575 
G01 X-1.6922 Y0.6575 
G01 X-1.6475 Y0.6128 
G01 X-1.6475 Y0.4577 
G01 X-1.6463 Y0.4532 
G01 X-1.6440 Y0.4493 
G01 X-1.5840 Y0.3893 
G01 X-1.5807 Y0.3860 
G01 X-1.5768 Y0.3837 
G01 X-1.5723 Y0.3825 
G01 X-0.3345 Y0.3825 
G01 X-0.3345 Y0.3816 
G01 X-0.3084 Y0.3555 
G01 X-0.2716 Y0.3555 
G01 X-0.2455 Y0.3816 
G00 Z0.1000 
G00 X-0.2455 Y0.4816 
G01 Z-0.0070 F10.00 
G01 X-0.2455 Y0.5184 F20.00 
G01 X-0.2716 Y0.5445 
G01 X-0.3084 Y0.5445 
G01 X-0.3345 Y0.5184 
G01 X-0.3345 Y0.5175 
G01 X-0.3387 Y0.5175 
G01 X-0.3387 Y0.5437 
G01 X-0.3401 Y0.5472 
G01 X-0.3428 Y0.5499 
G01 X-0.3463 Y0.5513 
G01 X-0.3589 Y0.5513 
G01 X-0.3560 Y0.5543 
G01 X-0.3537 Y0.5582 
G01 X-0.3525 Y0.5627 
G01 X-0.3525 Y0.7759 
G01 X-0.3492 Y0.7825 
G01 X-0.3345 Y0.7825 
G01 X-0.3345 Y0.7816 
G01 X-0.3084 Y0.7555 
G01 X-0.2716 Y0.7555 
G01 X-0.2455 Y0.7816 
G01 X-0.2455 Y0.8184 
G01 X-0.2716 Y0.8445 
G01 X-0.3084 Y0.8445 
G01 X-0.3345 Y0.8184 
G01 X-0.3345 Y0.8175 
G01 X-0.3582 Y0.8175 
G01 X-0.3587 Y0.8176 
G01 X-0.3605 Y0.8175 
G01 X-0.3623 Y0.8175 
G01 X-0.3628 Y0.8174 
G01 X-0.3633 Y0.8173 
G01 X-0.3650 Y0.8168 
G01 X-0.3668 Y0.8163 
G01 X-0.3672 Y0.8160 
G01 X-0.3677 Y0.8159 
G01 X-0.3692 Y0.8149 
G01 X-0.3707 Y0.8140 
G01 X-0.3711 Y0.8136 
G01 X-0.3716 Y0.8133 
G01 X-0.3727 Y0.8120 
G01 X-0.3740 Y0.8107 
G01 X-0.3743 Y0.8103 
G01 X-0.3746 Y0.8099 
G01 X-0.3754 Y0.8083 
G01 X-0.3763 Y0.8068 
G01 X-0.3764 Y0.8062 
G01 X-0.3854 Y0.7883 
G01 X-0.3863 Y0.7868 
G01 X-0.3864 Y0.7862 
G01 X-0.3867 Y0.7858 
G01 X-0.3870 Y0.7840 
G01 X-0.3875 Y0.7823 
G01 X-0.3875 Y0.7818 
G01 X-0.3876 Y0.7813 
G01 X-0.3875 Y0.7795 
G01 X-0.3875 Y0.5825 
G01 X-0.4523 Y0.5825 
G01 X-0.4568 Y0.5813 
G01 X-0.4607 Y0.5790 
G01 X-0.4640 Y0.5757 
G01 X-0.4663 Y0.5718 
G01 X-0.4675 Y0.5673 
G01 X-0.4675 Y0.4525 
G01 X-0.9878 Y0.4525 
G01 X-1.1743 Y0.6390 
G01 X-1.1782 Y0.6413 
G01 X-1.1827 Y0.6425 
G01 X-1.3378 Y0.6425 
G01 X-1.3402 Y0.6449 
G01 X-1.3437 Y0.6463 
G01 X-1.4341 Y0.6463 
G01 X-1.4376 Y0.6449 
G01 X-1.4403 Y0.6422 
G01 X-1.4417 Y0.6387 
G01 X-1.4417 Y0.6113 
G01 X-1.4403 Y0.6078 
G01 X-1.4376 Y0.6051 
G01 X-1.4341 Y0.6037 
G01 X-1.3437 Y0.6037 
G01 X-1.3402 Y0.6051 
G01 X-1.3378 Y0.6075 
G01 X-1.1922 Y0.6075 
G01 X-1.0090 Y0.4243 
G01 X-1.0057 Y0.4210 
G01 X-1.0018 Y0.4187 
G01 X-0.9973 Y0.4175 
G01 X-0.4477 Y0.4175 
G01 X-0.4432 Y0.4187 
G01 X-0.4393 Y0.4210 
G01 X-0.4360 Y0.4243 
G01 X-0.4337 Y0.4282 
G01 X-0.4325 Y0.4327 
G01 X-0.4325 Y0.4487 
G01 X-0.3463 Y0.4487 
G01 X-0.3428 Y0.4501 
G01 X-0.3401 Y0.4528 
G01 X-0.3387 Y0.4563 
G01 X-0.3387 Y0.4825 
G01 X-0.3345 Y0.4825 
G01 X-0.3345 Y0.4816 
G01 X-0.3084 Y0.4555 
G01 X-0.2716 Y0.4555 
G01 X-0.2455 Y0.4816 
G00 Z0.1000 
G00 X-0.2455 Y0.5816 
G01 Z-0.0070 F10.00 
G01 X-0.2455 Y0.6184 F20.00 
G01 X-0.2716 Y0.6445 
G01 X-0.3084 Y0.6445 
G01 X-0.3345 Y0.6184 
G01 X-0.3345 Y0.5816 
G01 X-0.3084 Y0.5555 
G01 X-0.2716 Y0.5555 
G01 X-0.2455 Y0.5816 
G00 Z0.1000 
G00 X-0.2345 Y0.5816 
G01 Z-0.0070 F10.00 
G01 X-0.2084 Y0.5555 F20.00 
G01 X-0.1716 Y0.5555 
G01 X-0.1455 Y0.5816 
G01 X-0.1455 Y0.6184 
G01 X-0.1716 Y0.6445 
G01 X-0.2084 Y0.6445 
G01 X-0.2345 Y0.6184 
G01 X-0.2345 Y0.5816 
G00 Z0.1000 
G00 X-0.2345 Y0.6816 
G01 Z-0.0070 F10.00 
G01 X-0.2084 Y0.6555 F20.00 
G01 X-0.1716 Y0.6555 
G01 X-0.1455 Y0.6816 
G01 X-0.1455 Y0.7184 
G01 X-0.1716 Y0.7445 
G01 X-0.2084 Y0.7445 
G01 X-0.2345 Y0.7184 
G01 X-0.2345 Y0.6816 
G00 Z0.1000 
G00 X-0.2455 Y0.6816 
G01 Z-0.0070 F10.00 
G01 X-0.2455 Y0.7184 F20.00 
G01 X-0.2716 Y0.7445 
G01 X-0.3084 Y0.7445 
G01 X-0.3345 Y0.7184 
G01 X-0.3345 Y0.6816 
G01 X-0.3084 Y0.6555 
G01 X-0.2716 Y0.6555 
G01 X-0.2455 Y0.6816 
G00 Z0.1000 
G00 X-0.2455 Y0.8816 
G01 Z-0.0070 F10.00 
G01 X-0.2455 Y0.9184 F20.00 
G01 X-0.2716 Y0.9445 
G01 X-0.3084 Y0.9445 
G01 X-0.3345 Y0.9184 
G01 X-0.3345 Y0.9175 
G01 X-0.3487 Y0.9175 
G01 X-0.3487 Y0.9437 
G01 X-0.3501 Y0.9472 
G01 X-0.3528 Y0.9499 
G01 X-0.3563 Y0.9513 
G01 X-0.4437 Y0.9513 
G01 X-0.4472 Y0.9499 
G01 X-0.4499 Y0.9472 
G01 X-0.4513 Y0.9437 
G01 X-0.4513 Y0.8563 
G01 X-0.4499 Y0.8528 
G01 X-0.4472 Y0.8501 
G01 X-0.4437 Y0.8487 
G01 X-0.3563 Y0.8487 
G01 X-0.3528 Y0.8501 
G01 X-0.3501 Y0.8528 
G01 X-0.3487 Y0.8563 
G01 X-0.3487 Y0.8825 
G01 X-0.3345 Y0.8825 
G01 X-0.3345 Y0.8816 
G01 X-0.3084 Y0.8555 
G01 X-0.2716 Y0.8555 
G01 X-0.2455 Y0.8816 
G00 Z0.1000 
G00 X-0.4925 Y1.1527 
G01 Z-0.0070 F10.00 
G01 X-0.4942 Y1.1544 F20.00 
G01 X-0.4977 Y1.1559 
G01 X-0.5723 Y1.1559 
G01 X-0.5758 Y1.1544 
G01 X-0.5785 Y1.1518 
G01 X-0.5799 Y1.1483 
G01 X-0.5799 Y1.1447 
G01 X-0.5810 Y1.1457 
G01 X-0.5843 Y1.1490 
G01 X-0.6810 Y1.2457 
G01 X-0.6843 Y1.2490 
G01 X-0.6882 Y1.2513 
G01 X-0.6927 Y1.2525 
G01 X-0.7825 Y1.2525 
G01 X-0.7825 Y1.2567 
G01 X-0.8033 Y1.2775 
G01 X-0.5872 Y1.2775 
G01 X-0.5748 Y1.2651 
G01 X-0.5758 Y1.2647 
G01 X-0.5785 Y1.2620 
G01 X-0.5799 Y1.2585 
G01 X-0.5799 Y1.1917 
G01 X-0.5785 Y1.1882 
G01 X-0.5758 Y1.1856 
G01 X-0.5723 Y1.1841 
G01 X-0.4977 Y1.1841 
G01 X-0.4942 Y1.1856 
G01 X-0.4925 Y1.1873 
G01 X-0.4925 Y1.1527 
G00 Z0.1000 
G00 X-0.8845 Y1.1525 
G01 Z-0.0070 F10.00 
G01 X-0.9795 Y1.1525 F20.00 
G01 X-0.9795 Y1.1718 
G01 X-1.0032 Y1.1955 
G01 X-1.0368 Y1.1955 
G01 X-1.0605 Y1.1718 
G01 X-1.0605 Y1.1382 
G01 X-1.0375 Y1.1152 
G01 X-1.0375 Y1.1113 
G01 X-1.0637 Y1.1113 
G01 X-1.0672 Y1.1099 
G01 X-1.0699 Y1.1072 
G01 X-1.0713 Y1.1037 
G01 X-1.0713 Y1.0163 
G01 X-1.0699 Y1.0128 
G01 X-1.0672 Y1.0101 
G01 X-1.0637 Y1.0087 
G01 X-0.9763 Y1.0087 
G01 X-0.9728 Y1.0101 
G01 X-0.9701 Y1.0128 
G01 X-0.9687 Y1.0163 
G01 X-0.9687 Y1.1037 
G01 X-0.9701 Y1.1072 
G01 X-0.9728 Y1.1099 
G01 X-0.9763 Y1.1113 
G01 X-1.0025 Y1.1113 
G01 X-1.0025 Y1.1152 
G01 X-1.0002 Y1.1175 
G01 X-0.8845 Y1.1175 
G01 X-0.8837 Y1.1148 
G01 X-0.8799 Y1.1075 
G01 X-0.8750 Y1.1008 
G01 X-0.8692 Y1.0950 
G01 X-0.8625 Y1.0901 
G01 X-0.8552 Y1.0863 
G01 X-0.8473 Y1.0838 
G01 X-0.8428 Y1.0831 
G01 X-0.7803 Y1.0205 
G01 X-0.7803 Y0.8876 
G01 X-0.7819 Y0.8869 
G01 X-0.7886 Y0.8825 
G01 X-0.7942 Y0.8769 
G01 X-0.7986 Y0.8702 
G01 X-0.8017 Y0.8629 
G01 X-0.8021 Y0.8607 
G01 X-0.8026 Y0.8629 
G01 X-0.8056 Y0.8702 
G01 X-0.8100 Y0.8769 
G01 X-0.8157 Y0.8825 
G01 X-0.8223 Y0.8869 
G01 X-0.8297 Y0.8900 
G01 X-0.8375 Y0.8916 
G01 X-0.8455 Y0.8916 
G01 X-0.8533 Y0.8900 
G01 X-0.8607 Y0.8869 
G01 X-0.8673 Y0.8825 
G01 X-0.8730 Y0.8769 
G01 X-0.8774 Y0.8702 
G01 X-0.8804 Y0.8629 
G01 X-0.8809 Y0.8607 
G01 X-0.8813 Y0.8629 
G01 X-0.8843 Y0.8702 
G01 X-0.8888 Y0.8769 
G01 X-0.8944 Y0.8825 
G01 X-0.9011 Y0.8869 
G01 X-0.9084 Y0.8900 
G01 X-0.9162 Y0.8916 
G01 X-0.9242 Y0.8916 
G01 X-0.9320 Y0.8900 
G01 X-0.9394 Y0.8869 
G01 X-0.9461 Y0.8825 
G01 X-0.9517 Y0.8769 
G01 X-0.9561 Y0.8702 
G01 X-0.9592 Y0.8629 
G01 X-0.9607 Y0.8550 
G01 X-0.9607 Y0.8025 
G01 X-1.0078 Y0.8025 
G01 X-1.1025 Y0.8972 
G01 X-1.1025 Y1.1152 
G01 X-1.0795 Y1.1382 
G01 X-1.0795 Y1.1718 
G01 X-1.1032 Y1.1955 
G01 X-1.1368 Y1.1955 
G01 X-1.1605 Y1.1718 
G01 X-1.1605 Y1.1425 
G01 X-1.3005 Y1.1425 
G01 X-1.3013 Y1.1452 
G01 X-1.3051 Y1.1525 
G01 X-1.3100 Y1.1592 
G01 X-1.3158 Y1.1650 
G01 X-1.3225 Y1.1699 
G01 X-1.3280 Y1.1727 
G01 X-1.2975 Y1.2033 
G01 X-1.2975 Y1.2125 
G01 X-1.1098 Y1.2125 
G01 X-1.0868 Y1.1895 
G01 X-1.0532 Y1.1895 
G01 X-1.0295 Y1.2132 
G01 X-1.0295 Y1.2175 
G01 X-0.8875 Y1.2175 
G01 X-0.8875 Y1.2133 
G01 X-0.8570 Y1.1827 
G01 X-0.8625 Y1.1799 
G01 X-0.8692 Y1.1750 
G01 X-0.8750 Y1.1692 
G01 X-0.8799 Y1.1625 
G01 X-0.8837 Y1.1552 
G01 X-0.8845 Y1.1525 
G00 Z0.1000 
G00 X-0.8875 Y1.2525 
G01 Z-0.0070 F10.00 
G01 X-1.0352 Y1.2525 F20.00 
G01 X-1.0532 Y1.2705 
G01 X-1.0868 Y1.2705 
G01 X-1.1098 Y1.2475 
G01 X-1.2983 Y1.2475 
G01 X-1.3283 Y1.2775 
G01 X-1.3717 Y1.2775 
G01 X-1.4017 Y1.2475 
G01 X-1.4637 Y1.2475 
G01 X-1.4637 Y1.2737 
G01 X-1.4651 Y1.2772 
G01 X-1.4654 Y1.2775 
G01 X-0.8667 Y1.2775 
G01 X-0.8875 Y1.2567 
G01 X-0.8875 Y1.2525 
G00 Z0.1000 
G00 X-1.1528 Y1.0499 
G01 Z-0.0070 F10.00 
G01 X-1.1563 Y1.0513 F20.00 
G01 X-1.2437 Y1.0513 
G01 X-1.2472 Y1.0499 
G01 X-1.2499 Y1.0472 
G01 X-1.2513 Y1.0437 
G01 X-1.2513 Y0.9734 
G01 X-1.3322 Y0.8925 
G01 X-1.3378 Y0.8925 
G01 X-1.3402 Y0.8949 
G01 X-1.3437 Y0.8963 
G01 X-1.4341 Y0.8963 
G01 X-1.4376 Y0.8949 
G01 X-1.4403 Y0.8922 
G01 X-1.4417 Y0.8887 
G01 X-1.4417 Y0.8613 
G01 X-1.4403 Y0.8578 
G01 X-1.4376 Y0.8551 
G01 X-1.4341 Y0.8537 
G01 X-1.3437 Y0.8537 
G01 X-1.3402 Y0.8551 
G01 X-1.3378 Y0.8575 
G01 X-1.3227 Y0.8575 
G01 X-1.3182 Y0.8587 
G01 X-1.3143 Y0.8610 
G01 X-1.2266 Y0.9487 
G01 X-1.1563 Y0.9487 
G01 X-1.1528 Y0.9501 
G01 X-1.1501 Y0.9528 
G01 X-1.1487 Y0.9563 
G01 X-1.1487 Y1.0437 
G01 X-1.1501 Y1.0472 
G01 X-1.1528 Y1.0499 
G00 Z0.1000 
G00 X-1.3763 Y1.0425 
G01 Z-0.0070 F10.00 
G01 X-1.3873 Y1.0425 F20.00 
G01 X-1.3918 Y1.0413 
G01 X-1.3957 Y1.0390 
G01 X-1.4084 Y1.0263 
G01 X-1.4127 Y1.0275 
G01 X-1.4223 Y1.0275 
G01 X-1.4268 Y1.0263 
G01 X-1.4307 Y1.0240 
G01 X-1.4922 Y0.9625 
G01 X-1.5928 Y0.9625 
G01 X-1.6075 Y0.9772 
G01 X-1.6075 Y0.9901 
G01 X-1.5917 Y0.9901 
G01 X-1.5882 Y0.9915 
G01 X-1.5856 Y0.9942 
G01 X-1.5841 Y0.9977 
G01 X-1.5841 Y1.0723 
G01 X-1.5856 Y1.0758 
G01 X-1.5873 Y1.0775 
G01 X-1.5527 Y1.0775 
G01 X-1.5544 Y1.0758 
G01 X-1.5559 Y1.0723 
G01 X-1.5559 Y0.9977 
G01 X-1.5544 Y0.9942 
G01 X-1.5518 Y0.9915 
G01 X-1.5483 Y0.9901 
G01 X-1.4815 Y0.9901 
G01 X-1.4780 Y0.9915 
G01 X-1.4753 Y0.9942 
G01 X-1.4739 Y0.9977 
G01 X-1.4739 Y1.0723 
G01 X-1.4753 Y1.0758 
G01 X-1.4780 Y1.0785 
G01 X-1.4815 Y1.0799 
G01 X-1.4974 Y1.0799 
G01 X-1.4974 Y1.0822 
G01 X-1.4986 Y1.0866 
G01 X-1.5009 Y1.0906 
G01 X-1.5160 Y1.1057 
G01 X-1.5178 Y1.1075 
G01 X-1.3995 Y1.1075 
G01 X-1.3987 Y1.1048 
G01 X-1.3949 Y1.0975 
G01 X-1.3900 Y1.0908 
G01 X-1.3842 Y1.0850 
G01 X-1.3775 Y1.0801 
G01 X-1.3702 Y1.0763 
G01 X-1.3693 Y1.0761 
G01 X-1.3722 Y1.0749 
G01 X-1.3749 Y1.0722 
G01 X-1.3763 Y1.0687 
G01 X-1.3763 Y1.0425 
G00 Z0.1000 
G00 X-1.3763 Y1.0075 
G01 Z-0.0070 F10.00 
G01 X-1.3763 Y0.9961 F20.00 
G01 X-1.3828 Y1.0025 
G01 X-1.3778 Y1.0075 
G01 X-1.3763 Y1.0075 
G00 Z0.1000 
G00 X-1.3995 Y1.1425 
G01 Z-0.0070 F10.00 
G01 X-1.5978 Y1.1425 F20.00 
G01 X-1.6225 Y1.1672 
G01 X-1.6225 Y1.2528 
G01 X-1.5978 Y1.2775 
G01 X-1.5646 Y1.2775 
G01 X-1.5649 Y1.2772 
G01 X-1.5663 Y1.2737 
G01 X-1.5663 Y1.1863 
G01 X-1.5649 Y1.1828 
G01 X-1.5622 Y1.1801 
G01 X-1.5587 Y1.1787 
G01 X-1.4713 Y1.1787 
G01 X-1.4678 Y1.1801 
G01 X-1.4651 Y1.1828 
G01 X-1.4637 Y1.1863 
G01 X-1.4637 Y1.2125 
G01 X-1.4025 Y1.2125 
G01 X-1.4025 Y1.2033 
G01 X-1.3720 Y1.1727 
G01 X-1.3775 Y1.1699 
G01 X-1.3842 Y1.1650 
G01 X-1.3900 Y1.1592 
G01 X-1.3949 Y1.1525 
G01 X-1.3987 Y1.1452 
G01 X-1.3995 Y1.1425 
G00 Z0.1000 
G00 X-1.6630 Y1.0775 
G01 Z-0.0070 F10.00 
G01 X-1.6647 Y1.0758 F20.00 
G01 X-1.6661 Y1.0723 
G01 X-1.6661 Y1.0525 
G01 X-1.6918 Y1.0525 
G01 X-1.7106 Y1.0750 
G01 X-1.7110 Y1.0757 
G01 X-1.7121 Y1.0768 
G01 X-1.7126 Y1.0775 
G01 X-1.6630 Y1.0775 
G00 Z0.1000 
G00 X-1.7024 Y0.8949 
G01 Z-0.0070 F10.00 
G01 X-1.7059 Y0.8963 F20.00 
G01 X-1.7963 Y0.8963 
G01 X-1.7998 Y0.8949 
G01 X-1.8022 Y0.8925 
G01 X-1.8595 Y0.8925 
G01 X-1.8613 Y0.8926 
G01 X-1.8618 Y0.8925 
G01 X-1.8623 Y0.8925 
G01 X-1.8640 Y0.8920 
G01 X-1.8658 Y0.8917 
G01 X-1.8662 Y0.8914 
G01 X-1.8668 Y0.8913 
G01 X-1.8683 Y0.8904 
G01 X-1.9291 Y0.8600 
G01 X-1.9295 Y0.8609 
G01 X-1.9321 Y0.8635 
G01 X-1.9356 Y0.8650 
G01 X-2.0024 Y0.8650 
G01 X-2.0059 Y0.8635 
G01 X-2.0086 Y0.8609 
G01 X-2.0100 Y0.8574 
G01 X-2.0100 Y0.7826 
G01 X-2.0086 Y0.7791 
G01 X-2.0059 Y0.7765 
G01 X-2.0024 Y0.7750 
G01 X-1.9947 Y0.7750 
G01 X-1.9972 Y0.7725 
G01 X-2.2523 Y0.7725 
G01 X-2.2568 Y0.7713 
G01 X-2.2607 Y0.7690 
G01 X-2.3407 Y0.6890 
G01 X-2.3440 Y0.6857 
G01 X-2.3463 Y0.6818 
G01 X-2.3475 Y0.6773 
G01 X-2.3475 Y0.3550 
G01 X-2.3475 Y0.3528 
G01 X-2.3469 Y0.3505 
G01 X-2.3463 Y0.3483 
G01 X-2.3452 Y0.3463 
G01 X-2.3441 Y0.3443 
G01 X-2.3424 Y0.3426 
G01 X-2.3408 Y0.3410 
G01 X-2.3388 Y0.3399 
G01 X-2.2808 Y0.3060 
G01 X-2.2788 Y0.3049 
G01 X-2.2768 Y0.3037 
G01 X-2.2746 Y0.3031 
G01 X-2.2724 Y0.3025 
G01 X-2.2700 Y0.3025 
G01 X-2.2678 Y0.3025 
G01 X-2.1527 Y0.3025 
G01 X-2.1482 Y0.3037 
G01 X-2.1443 Y0.3060 
G01 X-2.1293 Y0.3210 
G01 X-2.1260 Y0.3243 
G01 X-2.1237 Y0.3282 
G01 X-2.1225 Y0.3327 
G01 X-2.1225 Y0.3474 
G01 X-2.1208 Y0.3481 
G01 X-2.1142 Y0.3525 
G01 X-2.1085 Y0.3582 
G01 X-2.1041 Y0.3648 
G01 X-2.1011 Y0.3722 
G01 X-2.0995 Y0.3800 
G01 X-2.0995 Y0.4500 
G01 X-2.1011 Y0.4578 
G01 X-2.1041 Y0.4652 
G01 X-2.1085 Y0.4718 
G01 X-2.1142 Y0.4775 
G01 X-2.1208 Y0.4819 
G01 X-2.1282 Y0.4849 
G01 X-2.1360 Y0.4865 
G01 X-2.1440 Y0.4865 
G01 X-2.1518 Y0.4849 
G01 X-2.1592 Y0.4819 
G01 X-2.1658 Y0.4775 
G01 X-2.1715 Y0.4718 
G01 X-2.1759 Y0.4652 
G01 X-2.1789 Y0.4578 
G01 X-2.1805 Y0.4500 
G01 X-2.1805 Y0.3800 
G01 X-2.1789 Y0.3722 
G01 X-2.1759 Y0.3648 
G01 X-2.1715 Y0.3582 
G01 X-2.1658 Y0.3525 
G01 X-2.1592 Y0.3481 
G01 X-2.1575 Y0.3474 
G01 X-2.1575 Y0.3422 
G01 X-2.1622 Y0.3375 
G01 X-2.2653 Y0.3375 
G01 X-2.3125 Y0.3651 
G01 X-2.3125 Y0.6678 
G01 X-2.2563 Y0.7239 
G01 X-2.2563 Y0.6463 
G01 X-2.2549 Y0.6428 
G01 X-2.2522 Y0.6401 
G01 X-2.2487 Y0.6387 
G01 X-2.1613 Y0.6387 
G01 X-2.1578 Y0.6401 
G01 X-2.1551 Y0.6428 
G01 X-2.1537 Y0.6463 
G01 X-2.1537 Y0.6725 
G01 X-2.1270 Y0.6725 
G01 X-2.1270 Y0.6526 
G01 X-2.1255 Y0.6491 
G01 X-2.1229 Y0.6465 
G01 X-2.1194 Y0.6450 
G01 X-2.0526 Y0.6450 
G01 X-2.0491 Y0.6465 
G01 X-2.0464 Y0.6491 
G01 X-2.0450 Y0.6526 
G01 X-2.0450 Y0.7274 
G01 X-2.0464 Y0.7309 
G01 X-2.0491 Y0.7335 
G01 X-2.0526 Y0.7350 
G01 X-2.1194 Y0.7350 
G01 X-2.1229 Y0.7335 
G01 X-2.1255 Y0.7309 
G01 X-2.1270 Y0.7274 
G01 X-2.1270 Y0.7075 
G01 X-2.1537 Y0.7075 
G01 X-2.1537 Y0.7337 
G01 X-2.1551 Y0.7372 
G01 X-2.1554 Y0.7375 
G01 X-1.9877 Y0.7375 
G01 X-1.9832 Y0.7387 
G01 X-1.9793 Y0.7410 
G01 X-1.9760 Y0.7443 
G01 X-1.9452 Y0.7750 
G01 X-1.9356 Y0.7750 
G01 X-1.9321 Y0.7765 
G01 X-1.9295 Y0.7791 
G01 X-1.9280 Y0.7826 
G01 X-1.9280 Y0.7937 
G01 X-1.9277 Y0.7942 
G01 X-1.9274 Y0.7954 
G01 X-1.9269 Y0.7965 
G01 X-1.9268 Y0.7976 
G01 X-1.9265 Y0.7987 
G01 X-1.9265 Y0.7999 
G01 X-1.9264 Y0.8011 
G01 X-1.9265 Y0.8022 
G01 X-1.9265 Y0.8033 
G01 X-1.9268 Y0.8044 
G01 X-1.9270 Y0.8056 
G01 X-1.9274 Y0.8067 
G01 X-1.9277 Y0.8077 
G01 X-1.9280 Y0.8083 
G01 X-1.9280 Y0.8214 
G01 X-1.8559 Y0.8575 
G01 X-1.8022 Y0.8575 
G01 X-1.7998 Y0.8551 
G01 X-1.7963 Y0.8537 
G01 X-1.7059 Y0.8537 
G01 X-1.7024 Y0.8551 
G01 X-1.6997 Y0.8578 
G01 X-1.6983 Y0.8613 
G01 X-1.6983 Y0.8887 
G01 X-1.6997 Y0.8922 
G01 X-1.7024 Y0.8949 
G00 Z0.1000 
G00 X-1.7024 Y0.8449 
G01 Z-0.0070 F10.00 
G01 X-1.7059 Y0.8463 F20.00 
G01 X-1.7963 Y0.8463 
G01 X-1.7998 Y0.8449 
G01 X-1.8022 Y0.8425 
G01 X-1.8573 Y0.8425 
G01 X-1.8618 Y0.8413 
G01 X-1.8657 Y0.8390 
G01 X-1.9698 Y0.7350 
G01 X-2.0074 Y0.7350 
G01 X-2.0109 Y0.7335 
G01 X-2.0136 Y0.7309 
G01 X-2.0150 Y0.7274 
G01 X-2.0150 Y0.6526 
G01 X-2.0136 Y0.6491 
G01 X-2.0109 Y0.6465 
G01 X-2.0091 Y0.6457 
G01 X-2.0222 Y0.6325 
G01 X-2.1923 Y0.6325 
G01 X-2.1968 Y0.6313 
G01 X-2.2007 Y0.6290 
G01 X-2.2507 Y0.5790 
G01 X-2.2540 Y0.5757 
G01 X-2.2563 Y0.5718 
G01 X-2.2575 Y0.5673 
G01 X-2.2575 Y0.4826 
G01 X-2.2592 Y0.4819 
G01 X-2.2658 Y0.4775 
G01 X-2.2715 Y0.4718 
G01 X-2.2759 Y0.4652 
G01 X-2.2789 Y0.4578 
G01 X-2.2805 Y0.4500 
G01 X-2.2805 Y0.3800 
G01 X-2.2789 Y0.3722 
G01 X-2.2759 Y0.3648 
G01 X-2.2715 Y0.3582 
G01 X-2.2658 Y0.3525 
G01 X-2.2592 Y0.3481 
G01 X-2.2518 Y0.3451 
G01 X-2.2440 Y0.3435 
G01 X-2.2360 Y0.3435 
G01 X-2.2282 Y0.3451 
G01 X-2.2208 Y0.3481 
G01 X-2.2142 Y0.3525 
G01 X-2.2085 Y0.3582 
G01 X-2.2041 Y0.3648 
G01 X-2.2011 Y0.3722 
G01 X-2.1995 Y0.3800 
G01 X-2.1995 Y0.4500 
G01 X-2.2011 Y0.4578 
G01 X-2.2041 Y0.4652 
G01 X-2.2085 Y0.4718 
G01 X-2.2142 Y0.4775 
G01 X-2.2208 Y0.4819 
G01 X-2.2225 Y0.4826 
G01 X-2.2225 Y0.5578 
G01 X-2.1828 Y0.5975 
G01 X-2.0127 Y0.5975 
G01 X-2.0082 Y0.5987 
G01 X-2.0043 Y0.6010 
G01 X-2.0010 Y0.6043 
G01 X-1.9602 Y0.6450 
G01 X-1.9406 Y0.6450 
G01 X-1.9371 Y0.6465 
G01 X-1.9345 Y0.6491 
G01 X-1.9330 Y0.6526 
G01 X-1.9330 Y0.7222 
G01 X-1.9173 Y0.7379 
G01 X-1.9175 Y0.7373 
G01 X-1.9175 Y0.3913 
G01 X-1.9437 Y0.3913 
G01 X-1.9472 Y0.3899 
G01 X-1.9499 Y0.3872 
G01 X-1.9513 Y0.3837 
G01 X-1.9513 Y0.2963 
G01 X-1.9499 Y0.2928 
G01 X-1.9472 Y0.2901 
G01 X-1.9437 Y0.2887 
G01 X-1.8563 Y0.2887 
G01 X-1.8528 Y0.2901 
G01 X-1.8501 Y0.2928 
G01 X-1.8487 Y0.2963 
G01 X-1.8487 Y0.3837 
G01 X-1.8501 Y0.3872 
G01 X-1.8528 Y0.3899 
G01 X-1.8563 Y0.3913 
G01 X-1.8825 Y0.3913 
G01 X-1.8825 Y0.7278 
G01 X-1.8528 Y0.7575 
G01 X-1.8022 Y0.7575 
G01 X-1.7998 Y0.7551 
G01 X-1.7963 Y0.7537 
G01 X-1.7059 Y0.7537 
G01 X-1.7024 Y0.7551 
G01 X-1.6997 Y0.7578 
G01 X-1.6983 Y0.7613 
G01 X-1.6983 Y0.7887 
G01 X-1.6997 Y0.7922 
G01 X-1.7024 Y0.7949 
G01 X-1.7059 Y0.7963 
G01 X-1.7963 Y0.7963 
G01 X-1.7998 Y0.7949 
G01 X-1.8022 Y0.7925 
G01 X-1.8623 Y0.7925 
G01 X-1.8629 Y0.7923 
G01 X-1.8478 Y0.8075 
G01 X-1.8022 Y0.8075 
G01 X-1.7998 Y0.8051 
G01 X-1.7963 Y0.8037 
G01 X-1.7059 Y0.8037 
G01 X-1.7024 Y0.8051 
G01 X-1.6997 Y0.8078 
G01 X-1.6983 Y0.8113 
G01 X-1.6983 Y0.8387 
G01 X-1.6997 Y0.8422 
G01 X-1.7024 Y0.8449 
G00 Z0.1000 
G00 X-1.7024 Y0.5949 
G01 Z-0.0070 F10.00 
G01 X-1.7059 Y0.5963 F20.00 
G01 X-1.7963 Y0.5963 
G01 X-1.7998 Y0.5949 
G01 X-1.8025 Y0.5922 
G01 X-1.8039 Y0.5887 
G01 X-1.8039 Y0.5613 
G01 X-1.8025 Y0.5578 
G01 X-1.7998 Y0.5551 
G01 X-1.7963 Y0.5537 
G01 X-1.7686 Y0.5537 
G01 X-1.7686 Y0.5463 
G01 X-1.7937 Y0.5463 
