(.../src/pcbgcode.repo/pcb-gcode.ulp)
(Copyright 2005 - 2012 by John Johnson)
(See readme.txt for licensing terms.)
(This file generated from the board:)
(.../docs/examples/04151_lcdi2c.brd)
(Current profile is .../pcbgcode-work/profiles/mach.pp  )
(This file generated 2/6/14 9:43 AM)
(Settings from pcb-machine.h)
(spindle on time = 3.0000)
(spindle speed = 15000.0000)
(milling depth = -0.0100)
(tool change at 0.0000  0.0000  1.0000  )
(feed rate xy = F10    )
(feed rate z  = F5     )
(Z Axis Settings)
(  High     Up        Down     Drill)
(0.5000  	0.1000  	-0.0070 	-0.0320 )
(Settings from pcb-defaults.h)
(isolate min = 0.0010)
(isolate max = 0.0200)
(isolate step = 0.0050)
(Generated top outlines, top drill, top stencil, bottom outlines, bottom drill, bottom stencil)
(Unit of measure: inch)
(Inch Mode)
G20
(Absolute Coordinates)
G90
S15000
G00 Z0.5000  
G00 X0.0000  Y0.0000  
M03
G04 P3.000000
G00 Z0.1000  
G01 Z-0.0100 F5     
G01 X0.0000  Y1.1750  F10    
G00 Z0.1000  
G01 Z-0.0100 F5     
G02 X0.1450  Y1.3200  R0.1450  F10    
G00 Z0.1000  
G00 X0.1450  Y1.3200  
G01 Z-0.0100 F5     
G01 X2.6500  Y1.3200  F10    
G00 Z0.1000  
G01 Z-0.0100 F5     
G02 X2.7800  Y1.1900  R0.1300  F10    
G00 Z0.1000  
G00 X2.7800  Y1.1900  
G01 Z-0.0100 F5     
G01 X2.7800  Y0.1150  F10    
G00 Z0.1000  
G01 Z-0.0100 F5     
G02 X2.6650  Y0.0000  R0.1150  F10    
G00 Z0.1000  
G00 X2.6650  Y0.0000  
G01 Z-0.0100 F5     
G01 X0.0000  Y0.0000  F10    
G00 Z0.5000  
M05
M02
