(.../john/src/pcbgcode/pcb-gcode.ulp)
(Copyright 2005 - 2012 by John Johnson)
(See readme.txt for licensing terms.)
(This file generated from the board:)
(.../docs/examples/04151_lcdi2c.brd)
(Current profile is .../pcb-gcode-3.6.2.4/profiles/generic.pp  )
(This file generated 9/2/22 9:23 AM)
(Settings from pcb-machine.h)
(spindle on time = 3.0000)
(  Tool Size)
(0.0070 )
(spindle speed = 30000.0000)
(tool change at 0.0000 0.0000 1.0000 )
(feed rate xy = F20.00 )
(feed rate z  = F10.00 )
(Z Axis Settings)
(  High     Up        Down     Drill)
(0.5000 	0.1000 	-0.0070 	-0.0700 )
(Settings from pcb-defaults.h)
(isolate min = 0.0010)
(isolate max = 0.0200)
(isolate step = 0.0050)
(Generated top outlines, top drill, bottom outlines, bottom drill, )
(Unit of measure: inch)
(Beginning of every file)
(Beginning of every top file)
(Outline Begin)
(Top outline Begin)
(Inch Mode)
G20
(Absolute Coordinates)
G90
(Set XY plane for z interpolation)
G17
S30000
G00 Z0.5000 
G00 X0.0000 Y0.0000 
M03
G04 P3.000000
G00 Z0.1000 
G00 X-0.0014 Y-0.0105 
G01 Z-0.0070 F10.00 
G01 X-0.0041 Y-0.0098 F20.00 
G01 X-0.0064 Y-0.0084 
G01 X-0.0084 Y-0.0064 
G01 X-0.0098 Y-0.0041 
G01 X-0.0105 Y-0.0014 
G01 X-0.0105 Y1.3214 
G01 X-0.0098 Y1.3241 
G01 X-0.0084 Y1.3264 
G01 X-0.0064 Y1.3284 
G01 X-0.0041 Y1.3298 
G01 X-0.0014 Y1.3305 
G01 X2.7814 Y1.3305 
G01 X2.7841 Y1.3298 
G01 X2.7864 Y1.3284 
G01 X2.7884 Y1.3264 
G01 X2.7898 Y1.3241 
G01 X2.7905 Y1.3214 
G01 X2.7905 Y-0.0014 
G01 X2.7898 Y-0.0041 
G01 X2.7884 Y-0.0064 
G01 X2.7864 Y-0.0084 
G01 X2.7841 Y-0.0098 
G01 X2.7814 Y-0.0105 
G01 X-0.0014 Y-0.0105 
G00 Z0.1000 
G00 X0.1052 Y0.0630 
G01 Z-0.0070 F10.00 
G01 X0.1343 Y0.0510 F20.00 
G01 X0.1657 Y0.0510 
G01 X0.1947 Y0.0630 
G01 X0.2170 Y0.0852 
G01 X0.2290 Y0.1143 
G01 X0.2290 Y0.1457 
G01 X0.2170 Y0.1747 
G01 X0.1947 Y0.1970 
G01 X0.1657 Y0.2090 
G01 X0.1343 Y0.2090 
G01 X0.1052 Y0.1970 
G01 X0.0830 Y0.1747 
G01 X0.0710 Y0.1457 
G01 X0.0710 Y0.1143 
G01 X0.0830 Y0.0853 
G01 X0.1052 Y0.0630 
G00 Z0.1000 
G00 X0.3692 Y0.0911 
G01 Z-0.0070 F10.00 
G01 X0.4161 Y0.0442 F20.00 
G01 X0.4251 Y0.0405 
G01 X1.8205 Y0.0405 
G01 X1.8219 Y0.0405 
G01 X1.8220 Y0.0405 
G01 X1.8233 Y0.0402 
G01 X1.8236 Y0.0401 
G01 X1.8254 Y0.0403 
G01 X1.8261 Y0.0405 
G01 X1.8267 Y0.0405 
G01 X1.8274 Y0.0406 
G01 X1.8281 Y0.0405 
G01 X1.8299 Y0.0405 
G01 X1.8302 Y0.0407 
G01 X1.8315 Y0.0412 
G01 X1.8316 Y0.0412 
G01 X1.8329 Y0.0414 
G01 X1.8333 Y0.0414 
G01 X1.8348 Y0.0423 
G01 X1.8354 Y0.0428 
G01 X1.8360 Y0.0430 
G01 X1.8365 Y0.0434 
G01 X1.8373 Y0.0436 
G01 X1.8389 Y0.0442 
G01 X1.8392 Y0.0445 
G01 X1.8401 Y0.0455 
G01 X1.8413 Y0.0462 
G01 X1.8417 Y0.0464 
G01 X1.8427 Y0.0478 
G01 X1.8431 Y0.0485 
G01 X1.8436 Y0.0489 
G01 X1.8439 Y0.0494 
G01 X1.8445 Y0.0499 
G01 X1.8458 Y0.0511 
G01 X1.8459 Y0.0515 
G01 X1.8464 Y0.0527 
G01 X1.8465 Y0.0528 
G01 X1.8473 Y0.0539 
G01 X1.9177 Y0.1478 
G01 X1.9181 Y0.1485 
G01 X1.9186 Y0.1489 
G01 X1.9189 Y0.1494 
G01 X1.9195 Y0.1499 
G01 X1.9208 Y0.1511 
G01 X1.9209 Y0.1515 
G01 X1.9214 Y0.1527 
G01 X1.9215 Y0.1528 
G01 X1.9223 Y0.1539 
G01 X1.9225 Y0.1542 
G01 X1.9230 Y0.1559 
G01 X1.9231 Y0.1566 
G01 X1.9233 Y0.1572 
G01 X1.9235 Y0.1578 
G01 X1.9238 Y0.1585 
G01 X1.9245 Y0.1601 
G01 X1.9245 Y0.1605 
G01 X1.9245 Y0.1619 
G01 X1.9245 Y0.1620 
G01 X1.9248 Y0.1633 
G01 X1.9249 Y0.1636 
G01 X1.9247 Y0.1654 
G01 X1.9245 Y0.1661 
G01 X1.9245 Y0.1667 
G01 X1.9244 Y0.1674 
G01 X1.9245 Y0.1681 
G01 X1.9245 Y0.2726 
G01 X1.9252 Y0.2752 
G01 X1.9266 Y0.2776 
G01 X1.9286 Y0.2796 
G01 X1.9309 Y0.2810 
G01 X1.9336 Y0.2817 
G01 X1.9451 Y0.2817 
G01 X1.9512 Y0.2842 
G01 X1.9558 Y0.2888 
G01 X1.9583 Y0.2949 
G01 X1.9583 Y0.3851 
G01 X1.9558 Y0.3912 
G01 X1.9512 Y0.3958 
G01 X1.9451 Y0.3983 
G01 X1.8549 Y0.3983 
G01 X1.8488 Y0.3958 
G01 X1.8442 Y0.3912 
G01 X1.8417 Y0.3851 
G01 X1.8417 Y0.2949 
G01 X1.8442 Y0.2888 
G01 X1.8488 Y0.2842 
G01 X1.8549 Y0.2817 
G01 X1.8664 Y0.2817 
G01 X1.8691 Y0.2810 
G01 X1.8714 Y0.2796 
G01 X1.8734 Y0.2776 
G01 X1.8748 Y0.2752 
G01 X1.8755 Y0.2726 
G01 X1.8755 Y0.1774 
G01 X1.8756 Y0.1768 
G01 X1.8755 Y0.1760 
G01 X1.8755 Y0.1753 
G01 X1.8753 Y0.1747 
G01 X1.8753 Y0.1740 
G01 X1.8750 Y0.1733 
G01 X1.8748 Y0.1726 
G01 X1.8745 Y0.1721 
G01 X1.8742 Y0.1715 
G01 X1.8738 Y0.1709 
G01 X1.8734 Y0.1702 
G01 X1.8730 Y0.1698 
G01 X1.8163 Y0.0942 
G01 X1.8159 Y0.0936 
G01 X1.8155 Y0.0931 
G01 X1.8151 Y0.0926 
G01 X1.8145 Y0.0921 
G01 X1.8139 Y0.0916 
G01 X1.8134 Y0.0913 
G01 X1.8129 Y0.0909 
G01 X1.8122 Y0.0906 
G01 X1.8116 Y0.0902 
G01 X1.8109 Y0.0901 
G01 X1.8104 Y0.0898 
G01 X1.8096 Y0.0897 
G01 X1.8089 Y0.0895 
G01 X1.8082 Y0.0895 
G01 X1.8076 Y0.0894 
G01 X1.8069 Y0.0895 
G01 X0.9637 Y0.0895 
G01 X0.9634 Y0.0894 
G01 X0.9623 Y0.0895 
G01 X0.9612 Y0.0895 
G01 X0.9609 Y0.0896 
G01 X0.9606 Y0.0896 
G01 X0.9596 Y0.0899 
G01 X0.9585 Y0.0902 
G01 X0.9583 Y0.0904 
G01 X0.9580 Y0.0905 
G01 X0.9571 Y0.0911 
G01 X0.9561 Y0.0916 
G01 X0.9559 Y0.0918 
G01 X0.9557 Y0.0920 
G01 X0.9549 Y0.0928 
G01 X0.9542 Y0.0936 
G01 X0.9540 Y0.0938 
G01 X0.9538 Y0.0940 
G01 X0.9533 Y0.0950 
G01 X0.9528 Y0.0959 
G01 X0.9527 Y0.0962 
G01 X0.9526 Y0.0965 
G01 X0.9524 Y0.0976 
G01 X0.9521 Y0.0986 
G01 X0.9521 Y0.0989 
G01 X0.9520 Y0.0992 
G01 X0.9521 Y0.1003 
G01 X0.9521 Y0.1014 
G01 X0.9522 Y0.1017 
G01 X0.9522 Y0.1020 
G01 X0.9525 Y0.1030 
G01 X0.9528 Y0.1041 
G01 X0.9530 Y0.1043 
G01 X0.9530 Y0.1046 
G01 X0.9536 Y0.1055 
G01 X0.9542 Y0.1064 
G01 X0.9544 Y0.1067 
G01 X0.9546 Y0.1069 
G01 X0.9554 Y0.1076 
G01 X0.9561 Y0.1084 
G01 X0.9564 Y0.1086 
G01 X1.0632 Y0.2038 
G01 X1.0640 Y0.2046 
G01 X1.0642 Y0.2047 
G01 X1.0645 Y0.2049 
G01 X1.0654 Y0.2054 
G01 X1.0664 Y0.2060 
G01 X1.0667 Y0.2061 
G01 X1.0669 Y0.2062 
G01 X1.0680 Y0.2064 
G01 X1.0690 Y0.2067 
G01 X1.0694 Y0.2067 
G01 X1.0696 Y0.2068 
G01 X1.0707 Y0.2067 
G01 X1.1272 Y0.2067 
G01 X1.1279 Y0.2068 
G01 X1.1286 Y0.2067 
G01 X1.1293 Y0.2067 
G01 X1.1300 Y0.2065 
G01 X1.1307 Y0.2064 
G01 X1.1313 Y0.2062 
G01 X1.1320 Y0.2060 
G01 X1.1326 Y0.2056 
G01 X1.1332 Y0.2054 
G01 X1.1338 Y0.2049 
G01 X1.1344 Y0.2046 
G01 X1.1349 Y0.2041 
G01 X1.1354 Y0.2037 
G01 X1.1358 Y0.2031 
G01 X1.1363 Y0.2026 
G01 X1.1367 Y0.2020 
G01 X1.1371 Y0.2015 
G01 X1.1374 Y0.2008 
G01 X1.1377 Y0.2002 
G01 X1.1379 Y0.1996 
G01 X1.1382 Y0.1989 
G01 X1.1382 Y0.1982 
G01 X1.1384 Y0.1976 
G01 X1.1384 Y0.1969 
G01 X1.1385 Y0.1962 
G01 X1.1384 Y0.1955 
G01 X1.1384 Y0.1948 
G01 X1.1382 Y0.1941 
G01 X1.1382 Y0.1934 
G01 X1.1379 Y0.1928 
G01 X1.1377 Y0.1921 
G01 X1.1374 Y0.1915 
G01 X1.1365 Y0.1894 
G01 X1.1365 Y0.1706 
G01 X1.1437 Y0.1531 
G01 X1.1571 Y0.1397 
G01 X1.1746 Y0.1325 
G01 X1.2554 Y0.1325 
G01 X1.2729 Y0.1397 
G01 X1.2863 Y0.1531 
G01 X1.2935 Y0.1706 
G01 X1.2935 Y0.1894 
G01 X1.2863 Y0.2069 
G01 X1.2729 Y0.2203 
G01 X1.2554 Y0.2275 
G01 X1.1746 Y0.2275 
G01 X1.1685 Y0.2250 
G01 X1.1679 Y0.2246 
G01 X1.1672 Y0.2245 
G01 X1.1666 Y0.2242 
G01 X1.1659 Y0.2241 
G01 X1.1652 Y0.2239 
G01 X1.1645 Y0.2239 
G01 X1.1638 Y0.2238 
G01 X1.1631 Y0.2239 
G01 X1.1624 Y0.2239 
G01 X1.1618 Y0.2241 
G01 X1.1611 Y0.2242 
G01 X1.1604 Y0.2245 
G01 X1.1598 Y0.2246 
G01 X1.1592 Y0.2250 
G01 X1.1585 Y0.2252 
G01 X1.1580 Y0.2257 
G01 X1.1574 Y0.2260 
G01 X1.1569 Y0.2265 
G01 X1.1563 Y0.2269 
G01 X1.1559 Y0.2275 
G01 X1.1554 Y0.2280 
G01 X1.1551 Y0.2286 
G01 X1.1546 Y0.2291 
G01 X1.1544 Y0.2298 
G01 X1.1540 Y0.2304 
G01 X1.1538 Y0.2310 
G01 X1.1536 Y0.2317 
G01 X1.1535 Y0.2324 
G01 X1.1533 Y0.2330 
G01 X1.1533 Y0.2337 
G01 X1.1532 Y0.2344 
G01 X1.1533 Y0.2351 
G01 X1.1533 Y0.3101 
G01 X1.1508 Y0.3162 
G01 X1.1462 Y0.3208 
G01 X1.1401 Y0.3233 
G01 X1.0499 Y0.3233 
G01 X1.0438 Y0.3208 
G01 X1.0392 Y0.3162 
G01 X1.0367 Y0.3101 
G01 X1.0367 Y0.2516 
G01 X1.0368 Y0.2513 
G01 X1.0367 Y0.2502 
G01 X1.0367 Y0.2491 
G01 X1.0366 Y0.2489 
G01 X1.0366 Y0.2485 
G01 X1.0363 Y0.2475 
G01 X1.0360 Y0.2465 
G01 X1.0358 Y0.2462 
G01 X1.0357 Y0.2459 
G01 X1.0351 Y0.2450 
G01 X1.0346 Y0.2441 
G01 X1.0344 Y0.2439 
G01 X1.0342 Y0.2436 
G01 X1.0334 Y0.2429 
G01 X1.0326 Y0.2421 
G01 X1.0324 Y0.2420 
G01 X0.9039 Y0.1274 
G01 X0.9031 Y0.1266 
G01 X0.9028 Y0.1264 
G01 X0.9026 Y0.1262 
G01 X0.9016 Y0.1258 
G01 X0.9007 Y0.1252 
G01 X0.9004 Y0.1251 
G01 X0.9001 Y0.1250 
G01 X0.8991 Y0.1248 
G01 X0.8980 Y0.1245 
G01 X0.8977 Y0.1245 
G01 X0.8974 Y0.1244 
G01 X0.8964 Y0.1245 
G01 X0.7748 Y0.1245 
G01 X0.7740 Y0.1244 
G01 X0.7734 Y0.1245 
G01 X0.7728 Y0.1245 
G01 X0.7720 Y0.1247 
G01 X0.7712 Y0.1248 
G01 X0.7707 Y0.1251 
G01 X0.7702 Y0.1252 
G01 X0.7695 Y0.1256 
G01 X0.7687 Y0.1260 
G01 X0.7683 Y0.1263 
G01 X0.7678 Y0.1266 
G01 X0.7672 Y0.1272 
G01 X0.7665 Y0.1277 
G01 X0.7662 Y0.1282 
G01 X0.7658 Y0.1286 
G01 X0.7654 Y0.1293 
G01 X0.7649 Y0.1299 
G01 X0.7647 Y0.1305 
G01 X0.7644 Y0.1309 
G01 X0.7642 Y0.1318 
G01 X0.7639 Y0.1325 
G01 X0.7639 Y0.1331 
G01 X0.7637 Y0.1336 
G01 X0.7637 Y0.1344 
G01 X0.7636 Y0.1353 
G01 X0.7637 Y0.1358 
G01 X0.7637 Y0.1364 
G01 X0.7639 Y0.1372 
G01 X0.7641 Y0.1380 
G01 X0.7643 Y0.1385 
G01 X0.7644 Y0.1391 
G01 X0.7649 Y0.1398 
G01 X0.7652 Y0.1405 
G01 X0.7656 Y0.1410 
G01 X0.7658 Y0.1414 
G01 X0.7664 Y0.1420 
G01 X0.7669 Y0.1427 
G01 X0.7674 Y0.1430 
G01 X0.7678 Y0.1434 
G01 X0.7685 Y0.1438 
G01 X0.7737 Y0.1476 
G01 X0.7784 Y0.1523 
G01 X0.7823 Y0.1577 
G01 X0.7854 Y0.1637 
G01 X0.7866 Y0.1675 
G01 X0.7792 Y0.1675 
G01 X0.7775 Y0.1632 
G01 X0.7736 Y0.1574 
G01 X0.7686 Y0.1524 
G01 X0.7628 Y0.1485 
G01 X0.7564 Y0.1459 
G01 X0.7495 Y0.1445 
G01 X0.6805 Y0.1445 
G01 X0.6736 Y0.1459 
G01 X0.6672 Y0.1485 
G01 X0.6614 Y0.1524 
G01 X0.6564 Y0.1574 
G01 X0.6525 Y0.1632 
G01 X0.6508 Y0.1675 
G01 X0.6434 Y0.1675 
G01 X0.6446 Y0.1637 
G01 X0.6477 Y0.1577 
G01 X0.6516 Y0.1523 
G01 X0.6563 Y0.1476 
G01 X0.6615 Y0.1438 
G01 X0.6622 Y0.1434 
G01 X0.6626 Y0.1430 
G01 X0.6631 Y0.1427 
G01 X0.6636 Y0.1420 
G01 X0.6642 Y0.1414 
G01 X0.6644 Y0.1410 
G01 X0.6648 Y0.1405 
G01 X0.6651 Y0.1398 
G01 X0.6656 Y0.1391 
G01 X0.6657 Y0.1385 
G01 X0.6659 Y0.1380 
G01 X0.6661 Y0.1372 
G01 X0.6663 Y0.1364 
G01 X0.6663 Y0.1358 
G01 X0.6664 Y0.1353 
G01 X0.6663 Y0.1344 
G01 X0.6663 Y0.1336 
G01 X0.6661 Y0.1331 
G01 X0.6661 Y0.1325 
G01 X0.6658 Y0.1318 
G01 X0.6656 Y0.1309 
G01 X0.6653 Y0.1305 
G01 X0.6651 Y0.1299 
G01 X0.6646 Y0.1293 
G01 X0.6642 Y0.1286 
G01 X0.6638 Y0.1282 
G01 X0.6635 Y0.1277 
G01 X0.6628 Y0.1272 
G01 X0.6622 Y0.1266 
G01 X0.6617 Y0.1263 
G01 X0.6613 Y0.1260 
G01 X0.6605 Y0.1256 
G01 X0.6598 Y0.1252 
G01 X0.6593 Y0.1251 
G01 X0.6588 Y0.1248 
G01 X0.6580 Y0.1247 
G01 X0.6572 Y0.1245 
G01 X0.6566 Y0.1245 
G01 X0.6560 Y0.1244 
G01 X0.6552 Y0.1245 
G01 X0.4831 Y0.1245 
G01 X0.4804 Y0.1252 
G01 X0.4781 Y0.1266 
G01 X0.4636 Y0.1411 
G01 X0.4616 Y0.1431 
G01 X0.4602 Y0.1454 
G01 X0.4595 Y0.1481 
G01 X0.4595 Y0.1676 
G01 X0.4602 Y0.1702 
G01 X0.4616 Y0.1726 
G01 X0.4636 Y0.1746 
G01 X0.4659 Y0.1760 
G01 X0.4686 Y0.1767 
G01 X0.5551 Y0.1767 
G01 X0.5612 Y0.1792 
G01 X0.5658 Y0.1838 
G01 X0.5683 Y0.1899 
G01 X0.5683 Y0.2801 
G01 X0.5658 Y0.2862 
G01 X0.5612 Y0.2908 
G01 X0.5551 Y0.2933 
G01 X0.5536 Y0.2933 
G01 X0.5509 Y0.2940 
G01 X0.5486 Y0.2954 
G01 X0.5466 Y0.2974 
G01 X0.5452 Y0.2998 
G01 X0.5445 Y0.3024 
G01 X0.5445 Y0.4576 
G01 X0.5452 Y0.4602 
G01 X0.5466 Y0.4626 
G01 X0.5486 Y0.4646 
G01 X0.5509 Y0.4660 
G01 X0.5536 Y0.4667 
G01 X0.5651 Y0.4667 
G01 X0.5712 Y0.4692 
G01 X0.5758 Y0.4738 
G01 X0.5783 Y0.4799 
G01 X0.5783 Y0.5701 
G01 X0.5758 Y0.5762 
G01 X0.5712 Y0.5808 
G01 X0.5651 Y0.5833 
G01 X0.4749 Y0.5833 
G01 X0.4724 Y0.5823 
G01 X0.4718 Y0.5819 
G01 X0.4712 Y0.5818 
G01 X0.4705 Y0.5815 
G01 X0.4698 Y0.5814 
G01 X0.4692 Y0.5812 
G01 X0.4685 Y0.5812 
G01 X0.4678 Y0.5811 
G01 X0.4671 Y0.5812 
G01 X0.4664 Y0.5812 
G01 X0.4657 Y0.5814 
G01 X0.4650 Y0.5815 
G01 X0.4644 Y0.5818 
G01 X0.4637 Y0.5819 
G01 X0.4631 Y0.5823 
G01 X0.4625 Y0.5826 
G01 X0.4619 Y0.5830 
G01 X0.4613 Y0.5833 
G01 X0.4608 Y0.5838 
G01 X0.4603 Y0.5842 
G01 X0.4599 Y0.5848 
G01 X0.4271 Y0.6175 
G01 X0.4266 Y0.6181 
G01 X0.4252 Y0.6204 
G01 X0.4245 Y0.6231 
G01 X0.4245 Y0.7379 
G01 X0.4244 Y0.7386 
G01 X0.4245 Y0.7393 
G01 X0.4245 Y0.7400 
G01 X0.4247 Y0.7407 
G01 X0.4248 Y0.7413 
G01 X0.4250 Y0.7420 
G01 X0.4252 Y0.7427 
G01 X0.4256 Y0.7433 
G01 X0.4258 Y0.7439 
G01 X0.4263 Y0.7444 
G01 X0.4266 Y0.7450 
G01 X0.4271 Y0.7455 
G01 X0.4275 Y0.7461 
G01 X0.4281 Y0.7465 
G01 X0.4286 Y0.7470 
G01 X0.4292 Y0.7473 
G01 X0.4297 Y0.7478 
G01 X0.4303 Y0.7480 
G01 X0.4309 Y0.7484 
G01 X0.4316 Y0.7486 
G01 X0.4323 Y0.7488 
G01 X0.4329 Y0.7489 
G01 X0.4336 Y0.7491 
G01 X0.4343 Y0.7491 
G01 X0.4350 Y0.7492 
G01 X0.4357 Y0.7491 
G01 X0.4364 Y0.7491 
G01 X0.4371 Y0.7489 
G01 X0.4377 Y0.7488 
G01 X0.4384 Y0.7486 
G01 X0.4391 Y0.7484 
G01 X0.4397 Y0.7480 
G01 X0.4403 Y0.7478 
G01 X0.4408 Y0.7473 
G01 X0.4414 Y0.7470 
G01 X0.4419 Y0.7465 
G01 X0.4425 Y0.7461 
G01 X0.4429 Y0.7455 
G01 X0.4434 Y0.7450 
G01 X0.4437 Y0.7444 
G01 X0.4442 Y0.7439 
G01 X0.4444 Y0.7433 
G01 X0.4448 Y0.7427 
G01 X0.4450 Y0.7420 
G01 X0.4525 Y0.7239 
G01 X0.4692 Y0.7071 
G01 X0.4911 Y0.6981 
G01 X0.5147 Y0.6981 
G01 X0.5366 Y0.7071 
G01 X0.5534 Y0.7239 
G01 X0.5624 Y0.7457 
G01 X0.5624 Y0.7694 
G01 X0.5534 Y0.7913 
G01 X0.5366 Y0.8080 
G01 X0.5147 Y0.8171 
G01 X0.4911 Y0.8171 
G01 X0.4692 Y0.8080 
G01 X0.4525 Y0.7913 
G01 X0.4450 Y0.7731 
G01 X0.4448 Y0.7725 
G01 X0.4444 Y0.7719 
G01 X0.4442 Y0.7712 
G01 X0.4437 Y0.7707 
G01 X0.4434 Y0.7701 
G01 X0.4429 Y0.7696 
G01 X0.4425 Y0.7690 
G01 X0.4419 Y0.7686 
G01 X0.4414 Y0.7681 
G01 X0.4408 Y0.7678 
G01 X0.4403 Y0.7673 
G01 X0.4397 Y0.7671 
G01 X0.4391 Y0.7667 
G01 X0.4384 Y0.7666 
G01 X0.4377 Y0.7663 
G01 X0.4371 Y0.7662 
G01 X0.4364 Y0.7660 
G01 X0.4357 Y0.7660 
G01 X0.4350 Y0.7659 
G01 X0.4343 Y0.7660 
G01 X0.4336 Y0.7660 
G01 X0.4329 Y0.7662 
G01 X0.4323 Y0.7663 
G01 X0.4316 Y0.7666 
G01 X0.4309 Y0.7667 
G01 X0.4303 Y0.7671 
G01 X0.4297 Y0.7673 
G01 X0.4292 Y0.7678 
G01 X0.4286 Y0.7681 
G01 X0.4281 Y0.7686 
G01 X0.4275 Y0.7690 
G01 X0.4271 Y0.7696 
G01 X0.4266 Y0.7701 
G01 X0.4263 Y0.7707 
G01 X0.4258 Y0.7712 
G01 X0.4256 Y0.7719 
G01 X0.4252 Y0.7725 
G01 X0.4250 Y0.7731 
G01 X0.4248 Y0.7738 
G01 X0.4247 Y0.7745 
G01 X0.4245 Y0.7751 
G01 X0.4245 Y0.7758 
G01 X0.4244 Y0.7765 
G01 X0.4245 Y0.7772 
G01 X0.4245 Y0.8326 
G01 X0.4252 Y0.8352 
G01 X0.4266 Y0.8376 
G01 X0.4286 Y0.8396 
G01 X0.4309 Y0.8410 
G01 X0.4336 Y0.8417 
G01 X0.4451 Y0.8417 
G01 X0.4512 Y0.8442 
G01 X0.4558 Y0.8488 
G01 X0.4583 Y0.8549 
G01 X0.4583 Y0.9076 
G01 X0.4590 Y0.9102 
G01 X0.4604 Y0.9126 
G01 X0.4624 Y0.9146 
G01 X0.4648 Y0.9160 
G01 X0.4674 Y0.9167 
G01 X0.5551 Y0.9167 
G01 X0.5612 Y0.9192 
G01 X0.5658 Y0.9238 
G01 X0.5683 Y0.9299 
G01 X0.5683 Y0.9664 
G01 X0.5690 Y0.9691 
G01 X0.5704 Y0.9714 
G01 X0.5724 Y0.9734 
G01 X0.5748 Y0.9748 
G01 X0.5774 Y0.9755 
G01 X1.1326 Y0.9755 
G01 X1.1352 Y0.9748 
G01 X1.1376 Y0.9734 
G01 X1.1396 Y0.9714 
G01 X1.1410 Y0.9691 
G01 X1.1417 Y0.9664 
G01 X1.1417 Y0.9549 
G01 X1.1442 Y0.9488 
G01 X1.1488 Y0.9442 
G01 X1.1549 Y0.9417 
G01 X1.2451 Y0.9417 
G01 X1.2512 Y0.9442 
G01 X1.2558 Y0.9488 
G01 X1.2583 Y0.9549 
G01 X1.2583 Y0.9592 
G01 X1.2582 Y0.9599 
G01 X1.2583 Y0.9606 
G01 X1.2583 Y0.9613 
G01 X1.2585 Y0.9620 
G01 X1.2586 Y0.9627 
G01 X1.2588 Y0.9633 
G01 X1.2590 Y0.9640 
G01 X1.2594 Y0.9646 
G01 X1.2596 Y0.9652 
G01 X1.2601 Y0.9658 
G01 X1.2604 Y0.9664 
G01 X1.2609 Y0.9669 
G01 X1.2613 Y0.9674 
G01 X1.2619 Y0.9678 
G01 X1.2624 Y0.9683 
G01 X1.2630 Y0.9687 
G01 X1.2635 Y0.9691 
G01 X1.2642 Y0.9694 
G01 X1.2648 Y0.9697 
G01 X1.2654 Y0.9699 
G01 X1.2661 Y0.9701 
G01 X1.2668 Y0.9702 
G01 X1.2674 Y0.9704 
G01 X1.2681 Y0.9704 
G01 X1.2688 Y0.9705 
G01 X1.2695 Y0.9704 
G01 X1.2702 Y0.9704 
G01 X1.2709 Y0.9702 
G01 X1.2716 Y0.9701 
G01 X1.2722 Y0.9699 
G01 X1.2729 Y0.9697 
G01 X1.2735 Y0.9694 
G01 X1.2799 Y0.9667 
G01 X1.3701 Y0.9667 
G01 X1.3762 Y0.9692 
G01 X1.3808 Y0.9738 
G01 X1.3833 Y0.9799 
G01 X1.3833 Y1.0494 
G01 X1.3840 Y1.0521 
G01 X1.3854 Y1.0544 
G01 X1.3874 Y1.0564 
G01 X1.3898 Y1.0578 
G01 X1.3924 Y1.0585 
G01 X1.4533 Y1.0585 
G01 X1.4593 Y1.0610 
G01 X1.4640 Y1.0657 
G01 X1.4665 Y1.0717 
G01 X1.4665 Y1.2783 
G01 X1.4640 Y1.2843 
G01 X1.4593 Y1.2890 
G01 X1.4533 Y1.2915 
G01 X1.2467 Y1.2915 
G01 X1.2407 Y1.2890 
G01 X1.2360 Y1.2843 
G01 X1.2335 Y1.2783 
G01 X1.2335 Y1.0936 
G01 X1.2328 Y1.0909 
G01 X1.2314 Y1.0886 
G01 X1.2294 Y1.0866 
G01 X1.2271 Y1.0852 
G01 X1.2244 Y1.0845 
G01 X1.0874 Y1.0845 
G01 X1.0848 Y1.0852 
G01 X1.0824 Y1.0866 
G01 X1.0804 Y1.0886 
G01 X1.0790 Y1.0909 
G01 X1.0783 Y1.0936 
G01 X1.0783 Y1.1055 
G01 X1.0790 Y1.1082 
G01 X1.0804 Y1.1106 
G01 X1.0824 Y1.1126 
G01 X1.0834 Y1.1132 
G01 X1.0848 Y1.1139 
G01 X1.0874 Y1.1147 
G01 X1.0902 Y1.1147 
G01 X1.0929 Y1.1139 
G01 X1.0953 Y1.1126 
G01 X1.0954 Y1.1124 
G01 X1.0972 Y1.1106 
G01 X1.1003 Y1.1075 
G01 X1.1397 Y1.1075 
G01 X1.1675 Y1.1353 
G01 X1.1675 Y1.1747 
G01 X1.1397 Y1.2025 
G01 X1.1216 Y1.2025 
G01 X1.1189 Y1.2032 
G01 X1.1166 Y1.2046 
G01 X1.1146 Y1.2066 
G01 X1.1132 Y1.2089 
G01 X1.1125 Y1.2116 
G01 X1.1125 Y1.2175 
G01 X1.1055 Y1.2175 
G01 X1.1055 Y1.2153 
G01 X1.0847 Y1.1945 
G01 X1.0553 Y1.1945 
G01 X1.0345 Y1.2153 
G01 X1.0345 Y1.2175 
G01 X1.0275 Y1.2175 
G01 X1.0275 Y1.2116 
G01 X1.0268 Y1.2089 
G01 X1.0254 Y1.2066 
G01 X1.0234 Y1.2046 
G01 X1.0211 Y1.2032 
G01 X1.0184 Y1.2025 
G01 X1.0003 Y1.2025 
G01 X0.9725 Y1.1747 
G01 X0.9725 Y1.1353 
G01 X0.9736 Y1.1342 
G01 X0.9742 Y1.1338 
G01 X0.9746 Y1.1332 
G01 X0.9751 Y1.1327 
G01 X0.9754 Y1.1321 
G01 X0.9759 Y1.1316 
G01 X0.9761 Y1.1309 
G01 X0.9765 Y1.1303 
G01 X0.9767 Y1.1297 
G01 X0.9769 Y1.1290 
G01 X0.9770 Y1.1283 
G01 X0.9772 Y1.1277 
G01 X0.9772 Y1.1270 
G01 X0.9773 Y1.1263 
G01 X0.9772 Y1.1256 
G01 X0.9772 Y1.1249 
G01 X0.9770 Y1.1242 
G01 X0.9769 Y1.1235 
G01 X0.9767 Y1.1229 
G01 X0.9765 Y1.1222 
G01 X0.9761 Y1.1216 
G01 X0.9759 Y1.1210 
G01 X0.9754 Y1.1204 
G01 X0.9751 Y1.1198 
G01 X0.9746 Y1.1193 
G01 X0.9742 Y1.1188 
G01 X0.9736 Y1.1184 
G01 X0.9731 Y1.1179 
G01 X0.9725 Y1.1175 
G01 X0.9720 Y1.1171 
G01 X0.9714 Y1.1168 
G01 X0.9708 Y1.1165 
G01 X0.9701 Y1.1163 
G01 X0.9688 Y1.1158 
G01 X0.9684 Y1.1154 
G01 X0.9683 Y1.1153 
G01 X0.9661 Y1.1140 
G01 X0.9646 Y1.1136 
G01 X0.9634 Y1.1133 
G01 X0.9620 Y1.1133 
G01 X0.9606 Y1.1133 
G01 X0.9593 Y1.1137 
G01 X0.9579 Y1.1140 
G01 X0.9569 Y1.1146 
G01 X0.9556 Y1.1154 
G01 X0.9549 Y1.1161 
G01 X0.9536 Y1.1174 
G01 X0.9535 Y1.1175 
G01 X0.9522 Y1.1198 
G01 X0.9518 Y1.1212 
G01 X0.9515 Y1.1224 
G01 X0.9515 Y1.1238 
G01 X0.9515 Y1.1252 
G01 X0.9515 Y1.2883 
G01 X0.9490 Y1.2943 
G01 X0.9443 Y1.2990 
G01 X0.9383 Y1.3015 
G01 X0.7317 Y1.3015 
G01 X0.7257 Y1.2990 
G01 X0.7210 Y1.2943 
G01 X0.7185 Y1.2883 
G01 X0.7185 Y1.1324 
G01 X0.7178 Y1.1298 
G01 X0.7164 Y1.1274 
G01 X0.7144 Y1.1254 
G01 X0.7121 Y1.1240 
G01 X0.7094 Y1.1233 
G01 X0.6349 Y1.1233 
G01 X0.6288 Y1.1208 
G01 X0.6242 Y1.1162 
G01 X0.6217 Y1.1101 
G01 X0.6217 Y1.0986 
G01 X0.6210 Y1.0959 
G01 X0.6196 Y1.0936 
G01 X0.6176 Y1.0916 
G01 X0.6152 Y1.0902 
G01 X0.6126 Y1.0895 
G01 X0.4386 Y1.0895 
G01 X0.4359 Y1.0902 
G01 X0.4336 Y1.0916 
G01 X0.4316 Y1.0936 
G01 X0.4302 Y1.0959 
G01 X0.4295 Y1.0986 
G01 X0.4295 Y1.1226 
G01 X0.4302 Y1.1252 
G01 X0.4316 Y1.1276 
G01 X0.4336 Y1.1296 
G01 X0.4359 Y1.1310 
G01 X0.4386 Y1.1317 
G01 X0.4551 Y1.1317 
G01 X0.4612 Y1.1342 
G01 X0.4658 Y1.1388 
G01 X0.4683 Y1.1449 
G01 X0.4683 Y1.2351 
G01 X0.4658 Y1.2412 
G01 X0.4612 Y1.2458 
G01 X0.4551 Y1.2483 
G01 X0.3649 Y1.2483 
G01 X0.3588 Y1.2458 
G01 X0.3542 Y1.2412 
G01 X0.3517 Y1.2351 
G01 X0.3517 Y1.1449 
G01 X0.3542 Y1.1388 
G01 X0.3588 Y1.1342 
G01 X0.3649 Y1.1317 
G01 X0.3714 Y1.1317 
G01 X0.3741 Y1.1310 
G01 X0.3764 Y1.1296 
G01 X0.3784 Y1.1276 
G01 X0.3798 Y1.1252 
G01 X0.3805 Y1.1226 
G01 X0.3805 Y1.0651 
G01 X0.3842 Y1.0561 
G01 X0.3916 Y1.0487 
G01 X0.3961 Y1.0442 
G01 X0.4051 Y1.0405 
G01 X0.4437 Y1.0405 
G01 X0.4444 Y1.0406 
G01 X0.4451 Y1.0405 
G01 X0.4458 Y1.0405 
G01 X0.4465 Y1.0403 
G01 X0.4472 Y1.0402 
G01 X0.4478 Y1.0400 
G01 X0.4485 Y1.0398 
G01 X0.4491 Y1.0394 
G01 X0.4497 Y1.0392 
G01 X0.4503 Y1.0387 
G01 X0.4509 Y1.0384 
G01 X0.4514 Y1.0379 
G01 X0.4519 Y1.0375 
G01 X0.4523 Y1.0369 
G01 X0.4528 Y1.0364 
G01 X0.4532 Y1.0358 
G01 X0.4536 Y1.0353 
G01 X0.4539 Y1.0347 
G01 X0.4542 Y1.0341 
G01 X0.4544 Y1.0334 
G01 X0.4547 Y1.0327 
G01 X0.4547 Y1.0321 
G01 X0.4549 Y1.0314 
G01 X0.4549 Y1.0307 
G01 X0.4550 Y1.0300 
G01 X0.4549 Y1.0293 
G01 X0.4549 Y1.0286 
G01 X0.4547 Y1.0279 
G01 X0.4547 Y1.0273 
G01 X0.4544 Y1.0266 
G01 X0.4542 Y1.0259 
G01 X0.4539 Y1.0253 
G01 X0.4517 Y1.0201 
G01 X0.4517 Y0.9674 
G01 X0.4510 Y0.9648 
G01 X0.4496 Y0.9624 
G01 X0.4476 Y0.9604 
G01 X0.4452 Y0.9590 
G01 X0.4426 Y0.9583 
G01 X0.3549 Y0.9583 
G01 X0.3488 Y0.9558 
G01 X0.3442 Y0.9512 
G01 X0.3417 Y0.9451 
G01 X0.3410 Y0.9424 
G01 X0.3396 Y0.9400 
G01 X0.3376 Y0.9381 
G01 X0.3352 Y0.9367 
G01 X0.3326 Y0.9360 
G01 X0.3298 Y0.9360 
G01 X0.3271 Y0.9367 
G01 X0.3247 Y0.9381 
G01 X0.3177 Y0.9451 
G01 X0.3157 Y0.9471 
G01 X0.3144 Y0.9495 
G01 X0.3143 Y0.9496 
G01 X0.3136 Y0.9522 
G01 X0.3136 Y0.9549 
G01 X0.3144 Y0.9576 
G01 X0.3157 Y0.9600 
G01 X0.3365 Y0.9807 
G01 X0.3365 Y0.9855 
G01 X0.3295 Y0.9855 
G01 X0.3295 Y0.9836 
G01 X0.3064 Y0.9605 
G01 X0.2736 Y0.9605 
G01 X0.2505 Y0.9836 
G01 X0.2505 Y1.0164 
G01 X0.2736 Y1.0395 
G01 X0.2755 Y1.0395 
G01 X0.2755 Y1.0465 
G01 X0.2707 Y1.0465 
G01 X0.2519 Y1.0277 
G01 X0.2500 Y1.0257 
G01 X0.2476 Y1.0244 
G01 X0.2475 Y1.0243 
G01 X0.2449 Y1.0236 
G01 X0.2422 Y1.0236 
G01 X0.2395 Y1.0244 
G01 X0.2371 Y1.0257 
G01 X0.2352 Y1.0277 
G01 X0.2113 Y1.0515 
G01 X0.1687 Y1.0515 
G01 X0.1385 Y1.0213 
G01 X0.1385 Y0.9787 
G01 X0.1588 Y0.9584 
G01 X0.1607 Y0.9564 
G01 X0.1621 Y0.9541 
G01 X0.1628 Y0.9514 
G01 X0.1628 Y0.9486 
G01 X0.1621 Y0.9459 
G01 X0.1607 Y0.9436 
G01 X0.1588 Y0.9416 
G01 X0.1385 Y0.9213 
G01 X0.1385 Y0.8787 
G01 X0.1588 Y0.8584 
G01 X0.1607 Y0.8564 
G01 X0.1621 Y0.8541 
G01 X0.1628 Y0.8514 
G01 X0.1628 Y0.8486 
G01 X0.1621 Y0.8459 
G01 X0.1607 Y0.8436 
G01 X0.1588 Y0.8416 
G01 X0.1385 Y0.8213 
G01 X0.1385 Y0.7787 
G01 X0.1588 Y0.7584 
G01 X0.1607 Y0.7564 
G01 X0.1621 Y0.7541 
G01 X0.1628 Y0.7514 
G01 X0.1628 Y0.7486 
G01 X0.1621 Y0.7459 
G01 X0.1607 Y0.7436 
G01 X0.1588 Y0.7416 
G01 X0.1385 Y0.7213 
G01 X0.1385 Y0.6787 
G01 X0.1588 Y0.6584 
G01 X0.1607 Y0.6564 
G01 X0.1621 Y0.6541 
G01 X0.1628 Y0.6514 
G01 X0.1628 Y0.6486 
G01 X0.1621 Y0.6459 
G01 X0.1607 Y0.6436 
G01 X0.1588 Y0.6416 
G01 X0.1385 Y0.6213 
G01 X0.1385 Y0.5787 
G01 X0.1588 Y0.5584 
G01 X0.1607 Y0.5564 
G01 X0.1621 Y0.5541 
G01 X0.1628 Y0.5514 
G01 X0.1628 Y0.5486 
G01 X0.1621 Y0.5459 
G01 X0.1607 Y0.5436 
G01 X0.1588 Y0.5416 
G01 X0.1385 Y0.5213 
G01 X0.1385 Y0.4787 
G01 X0.1588 Y0.4584 
G01 X0.1607 Y0.4564 
G01 X0.1621 Y0.4541 
G01 X0.1621 Y0.4539 
G01 X0.1628 Y0.4514 
G01 X0.1628 Y0.4486 
G01 X0.1621 Y0.4459 
G01 X0.1607 Y0.4436 
G01 X0.1385 Y0.4213 
G01 X0.1385 Y0.3787 
G01 X0.1687 Y0.3485 
G01 X0.2113 Y0.3485 
G01 X0.2316 Y0.3688 
G01 X0.2336 Y0.3707 
G01 X0.2359 Y0.3721 
G01 X0.2386 Y0.3728 
G01 X0.2414 Y0.3728 
G01 X0.2441 Y0.3721 
G01 X0.2464 Y0.3707 
G01 X0.2484 Y0.3688 
G01 X0.2687 Y0.3485 
G01 X0.3113 Y0.3485 
G01 X0.3415 Y0.3787 
G01 X0.3415 Y0.4213 
G01 X0.3381 Y0.4247 
G01 X0.3367 Y0.4271 
G01 X0.3360 Y0.4298 
G01 X0.3360 Y0.4326 
G01 X0.3367 Y0.4352 
G01 X0.3375 Y0.4367 
G01 X0.3381 Y0.4376 
G01 X0.3400 Y0.4396 
G01 X0.3424 Y0.4410 
G01 X0.3451 Y0.4417 
G01 X0.3564 Y0.4417 
G01 X0.3591 Y0.4410 
G01 X0.3614 Y0.4396 
G01 X0.3634 Y0.4376 
G01 X0.3648 Y0.4352 
G01 X0.3655 Y0.4326 
G01 X0.3655 Y0.1001 
G01 X0.3692 Y0.0911 
G00 Z0.1000 
G00 X0.3800 Y0.0973 
G01 Z-0.0070 F10.00 
G01 X0.3784 Y0.1002 F20.00 
G01 X0.3775 Y0.1034 
G01 X0.3775 Y0.4537 
G01 X0.3473 Y0.4537 
G01 X0.3456 Y0.4544 
G01 X0.3444 Y0.4556 
G01 X0.3437 Y0.4573 
G01 X0.3437 Y0.5427 
G01 X0.3444 Y0.5444 
G01 X0.3456 Y0.5456 
G01 X0.3473 Y0.5463 
G01 X0.4327 Y0.5463 
G01 X0.4344 Y0.5456 
G01 X0.4356 Y0.5444 
G01 X0.4363 Y0.5427 
G01 X0.4363 Y0.4573 
G01 X0.4356 Y0.4556 
G01 X0.4344 Y0.4544 
G01 X0.4327 Y0.4537 
G01 X0.4025 Y0.4537 
G01 X0.4025 Y0.1102 
G01 X0.4352 Y0.0775 
G01 X1.8187 Y0.0775 
G01 X1.8875 Y0.1692 
G01 X1.8875 Y0.2937 
G01 X1.8573 Y0.2937 
G01 X1.8556 Y0.2944 
G01 X1.8544 Y0.2956 
G01 X1.8537 Y0.2973 
G01 X1.8537 Y0.3827 
G01 X1.8544 Y0.3844 
G01 X1.8556 Y0.3856 
G01 X1.8573 Y0.3863 
G01 X1.9427 Y0.3863 
G01 X1.9444 Y0.3856 
G01 X1.9456 Y0.3844 
G01 X1.9463 Y0.3827 
G01 X1.9463 Y0.2973 
G01 X1.9456 Y0.2956 
G01 X1.9444 Y0.2944 
G01 X1.9427 Y0.2937 
G01 X1.9125 Y0.2937 
G01 X1.9125 Y0.1659 
G01 X1.9126 Y0.1651 
G01 X1.9125 Y0.1642 
G01 X1.9125 Y0.1634 
G01 X1.9123 Y0.1626 
G01 X1.9122 Y0.1619 
G01 X1.9119 Y0.1610 
G01 X1.9116 Y0.1602 
G01 X1.9113 Y0.1595 
G01 X1.9110 Y0.1588 
G01 X1.9104 Y0.1581 
G01 X1.9100 Y0.1573 
G01 X1.9095 Y0.1568 
G01 X1.8354 Y0.0581 
G01 X1.8350 Y0.0573 
G01 X1.8345 Y0.0568 
G01 X1.8340 Y0.0562 
G01 X1.8333 Y0.0556 
G01 X1.8327 Y0.0550 
G01 X1.8320 Y0.0546 
G01 X1.8314 Y0.0542 
G01 X1.8306 Y0.0538 
G01 X1.8298 Y0.0534 
G01 X1.8291 Y0.0532 
G01 X1.8284 Y0.0529 
G01 X1.8275 Y0.0527 
G01 X1.8266 Y0.0525 
G01 X1.8259 Y0.0525 
G01 X1.8251 Y0.0524 
G01 X1.8242 Y0.0525 
G01 X0.4316 Y0.0525 
G01 X0.4284 Y0.0525 
G01 X0.4252 Y0.0534 
G01 X0.4223 Y0.0550 
G01 X0.3800 Y0.0973 
G00 Z0.1000 
G00 X0.4250 Y0.1273 
G01 Z-0.0070 F10.00 
G01 X0.4234 Y0.1302 F20.00 
G01 X0.4225 Y0.1334 
G01 X0.4225 Y0.4116 
G01 X0.4234 Y0.4148 
G01 X0.4250 Y0.4177 
G01 X0.4273 Y0.4200 
G01 X0.4375 Y0.4302 
G01 X0.4375 Y0.5548 
G01 X0.3900 Y0.6023 
G01 X0.3884 Y0.6052 
G01 X0.3875 Y0.6084 
G01 X0.3875 Y0.8537 
G01 X0.3573 Y0.8537 
G01 X0.3556 Y0.8544 
G01 X0.3544 Y0.8556 
G01 X0.3537 Y0.8573 
G01 X0.3537 Y0.9427 
G01 X0.3544 Y0.9444 
G01 X0.3556 Y0.9456 
G01 X0.3573 Y0.9463 
G01 X0.4427 Y0.9463 
G01 X0.4444 Y0.9456 
G01 X0.4456 Y0.9444 
G01 X0.4463 Y0.9427 
G01 X0.4463 Y0.8573 
G01 X0.4456 Y0.8556 
G01 X0.4444 Y0.8544 
G01 X0.4427 Y0.8537 
G01 X0.4125 Y0.8537 
G01 X0.4125 Y0.6152 
G01 X0.4577 Y0.5700 
G01 X0.4600 Y0.5677 
G01 X0.4616 Y0.5648 
G01 X0.4625 Y0.5616 
G01 X0.4625 Y0.4234 
G01 X0.4616 Y0.4202 
G01 X0.4600 Y0.4173 
G01 X0.4475 Y0.4048 
G01 X0.4475 Y0.1402 
G01 X0.4752 Y0.1125 
G01 X0.9052 Y0.1125 
G01 X1.0487 Y0.2404 
G01 X1.0487 Y0.3077 
G01 X1.0494 Y0.3094 
G01 X1.0506 Y0.3106 
G01 X1.0523 Y0.3113 
G01 X1.1377 Y0.3113 
G01 X1.1394 Y0.3106 
G01 X1.1406 Y0.3094 
G01 X1.1413 Y0.3077 
G01 X1.1413 Y0.2223 
G01 X1.1406 Y0.2206 
G01 X1.1394 Y0.2194 
G01 X1.1377 Y0.2187 
G01 X1.0619 Y0.2187 
G01 X0.9186 Y0.0909 
G01 X0.9177 Y0.0900 
G01 X0.9174 Y0.0898 
G01 X0.9171 Y0.0896 
G01 X0.9159 Y0.0890 
G01 X0.9148 Y0.0884 
G01 X0.9145 Y0.0883 
G01 X0.9142 Y0.0881 
G01 X0.9129 Y0.0878 
G01 X0.9116 Y0.0875 
G01 X0.9113 Y0.0875 
G01 X0.9109 Y0.0874 
G01 X0.9096 Y0.0875 
G01 X0.4684 Y0.0875 
G01 X0.4652 Y0.0884 
G01 X0.4623 Y0.0900 
G01 X0.4600 Y0.0923 
G01 X0.4250 Y0.1273 
G00 Z0.1000 
G00 X0.4644 Y0.1906 
G01 Z-0.0070 F10.00 
G01 X0.4637 Y0.1923 F20.00 
G01 X0.4637 Y0.2777 
G01 X0.4644 Y0.2794 
G01 X0.4656 Y0.2806 
G01 X0.4673 Y0.2813 
G01 X0.5075 Y0.2813 
G01 X0.5075 Y0.4787 
G01 X0.4773 Y0.4787 
G01 X0.4756 Y0.4794 
G01 X0.4744 Y0.4806 
G01 X0.4737 Y0.4823 
G01 X0.4737 Y0.5677 
G01 X0.4744 Y0.5694 
G01 X0.4756 Y0.5706 
G01 X0.4773 Y0.5713 
G01 X0.5627 Y0.5713 
G01 X0.5644 Y0.5706 
G01 X0.5656 Y0.5694 
G01 X0.5663 Y0.5677 
G01 X0.5663 Y0.4823 
G01 X0.5656 Y0.4806 
G01 X0.5644 Y0.4794 
G01 X0.5627 Y0.4787 
G01 X0.5325 Y0.4787 
G01 X0.5325 Y0.2813 
G01 X0.5527 Y0.2813 
G01 X0.5544 Y0.2806 
G01 X0.5556 Y0.2794 
G01 X0.5563 Y0.2777 
G01 X0.5563 Y0.1923 
G01 X0.5556 Y0.1906 
G01 X0.5544 Y0.1894 
G01 X0.5527 Y0.1887 
G01 X0.4673 Y0.1887 
G01 X0.4656 Y0.1894 
G01 X0.4644 Y0.1906 
G00 Z0.1000 
G00 X0.4659 Y0.2940 
G01 Z-0.0070 F10.00 
G01 X0.4636 Y0.2954 F20.00 
G01 X0.4616 Y0.2974 
G01 X0.4602 Y0.2998 
G01 X0.4595 Y0.3024 
G01 X0.4595 Y0.3941 
G01 X0.4595 Y0.3969 
G01 X0.4602 Y0.3996 
G01 X0.4616 Y0.4019 
G01 X0.4708 Y0.4111 
G01 X0.4745 Y0.4201 
G01 X0.4745 Y0.4576 
G01 X0.4752 Y0.4602 
G01 X0.4766 Y0.4626 
G01 X0.4786 Y0.4646 
G01 X0.4809 Y0.4660 
G01 X0.4836 Y0.4667 
G01 X0.4864 Y0.4667 
G01 X0.4891 Y0.4660 
G01 X0.4914 Y0.4646 
G01 X0.4934 Y0.4626 
G01 X0.4948 Y0.4602 
G01 X0.4955 Y0.4576 
G01 X0.4955 Y0.4187 
G01 X0.4956 Y0.4180 
G01 X0.4955 Y0.4174 
G01 X0.4955 Y0.3024 
G01 X0.4948 Y0.2998 
G01 X0.4934 Y0.2974 
G01 X0.4914 Y0.2954 
G01 X0.4891 Y0.2940 
G01 X0.4864 Y0.2933 
G01 X0.4686 Y0.2933 
G01 X0.4659 Y0.2940 
G00 Z0.1000 
G00 X0.3295 Y0.3836 
G01 Z-0.0070 F10.00 
G01 X0.3064 Y0.3605 F20.00 
G01 X0.2736 Y0.3605 
G01 X0.2505 Y0.3836 
G01 X0.2505 Y0.4164 
G01 X0.2736 Y0.4395 
G01 X0.3064 Y0.4395 
G01 X0.3295 Y0.4164 
G01 X0.3295 Y0.3836 
G00 Z0.1000 
G00 X0.2295 Y0.3836 
G01 Z-0.0070 F10.00 
G01 X0.2064 Y0.3605 F20.00 
G01 X0.1736 Y0.3605 
G01 X0.1505 Y0.3836 
G01 X0.1505 Y0.4164 
G01 X0.1736 Y0.4395 
G01 X0.2064 Y0.4395 
G01 X0.2295 Y0.4164 
G01 X0.2295 Y0.3836 
G00 Z0.1000 
G00 X0.2336 Y0.4293 
G01 Z-0.0070 F10.00 
G01 X0.2212 Y0.4416 F20.00 
G01 X0.2193 Y0.4436 
G01 X0.2179 Y0.4459 
G01 X0.2172 Y0.4486 
G01 X0.2172 Y0.4514 
G01 X0.2179 Y0.4541 
G01 X0.2193 Y0.4564 
G01 X0.2336 Y0.4707 
G01 X0.2359 Y0.4721 
G01 X0.2386 Y0.4728 
G01 X0.2414 Y0.4728 
G01 X0.2441 Y0.4721 
G01 X0.2464 Y0.4707 
G01 X0.2484 Y0.4688 
G01 X0.2588 Y0.4584 
G01 X0.2607 Y0.4564 
G01 X0.2621 Y0.4541 
G01 X0.2628 Y0.4514 
G01 X0.2628 Y0.4486 
G01 X0.2621 Y0.4459 
G01 X0.2607 Y0.4436 
G01 X0.2484 Y0.4312 
G01 X0.2464 Y0.4293 
G01 X0.2441 Y0.4279 
G01 X0.2414 Y0.4272 
G01 X0.2386 Y0.4272 
G01 X0.2359 Y0.4279 
G01 X0.2336 Y0.4293 
G00 Z0.1000 
G00 X0.2295 Y0.4836 
G01 Z-0.0070 F10.00 
G01 X0.2064 Y0.4605 F20.00 
G01 X0.1736 Y0.4605 
G01 X0.1505 Y0.4836 
G01 X0.1505 Y0.5164 
G01 X0.1736 Y0.5395 
G01 X0.2064 Y0.5395 
G01 X0.2295 Y0.5164 
G01 X0.2295 Y0.4836 
G00 Z0.1000 
G00 X0.2505 Y0.4836 
G01 Z-0.0070 F10.00 
G01 X0.2505 Y0.5164 F20.00 
G01 X0.2736 Y0.5395 
G01 X0.3064 Y0.5395 
G01 X0.3295 Y0.5164 
G01 X0.3295 Y0.4836 
G01 X0.3064 Y0.4605 
G01 X0.2736 Y0.4605 
G01 X0.2505 Y0.4836 
G00 Z0.1000 
G00 X0.2464 Y0.5293 
G01 Z-0.0070 F10.00 
G01 X0.2464 Y0.5292 F20.00 
G01 X0.2441 Y0.5279 
G01 X0.2415 Y0.5272 
G01 X0.2414 Y0.5272 
G01 X0.2386 Y0.5272 
G01 X0.2359 Y0.5279 
G01 X0.2336 Y0.5293 
G01 X0.2212 Y0.5416 
G01 X0.2193 Y0.5436 
G01 X0.2179 Y0.5459 
G01 X0.2179 Y0.5461 
G01 X0.2172 Y0.5486 
G01 X0.2172 Y0.5514 
G01 X0.2179 Y0.5541 
G01 X0.2193 Y0.5564 
G01 X0.2195 Y0.5567 
G01 X0.2212 Y0.5584 
G01 X0.2336 Y0.5707 
G01 X0.2359 Y0.5721 
G01 X0.2363 Y0.5722 
G01 X0.2386 Y0.5728 
G01 X0.2414 Y0.5728 
G01 X0.2441 Y0.5721 
G01 X0.2464 Y0.5707 
G01 X0.2484 Y0.5688 
G01 X0.2588 Y0.5584 
G01 X0.2607 Y0.5564 
G01 X0.2621 Y0.5541 
G01 X0.2628 Y0.5514 
G01 X0.2628 Y0.5486 
G01 X0.2621 Y0.5461 
G01 X0.2621 Y0.5459 
G01 X0.2607 Y0.5436 
G01 X0.2484 Y0.5312 
G01 X0.2464 Y0.5293 
G00 Z0.1000 
G00 X0.2505 Y0.5836 
G01 Z-0.0070 F10.00 
G01 X0.2505 Y0.6164 F20.00 
G01 X0.2736 Y0.6395 
G01 X0.3064 Y0.6395 
G01 X0.3295 Y0.6164 
G01 X0.3295 Y0.5836 
G01 X0.3064 Y0.5605 
G01 X0.2736 Y0.5605 
G01 X0.2505 Y0.5836 
G00 Z0.1000 
G00 X0.2295 Y0.5836 
G01 Z-0.0070 F10.00 
G01 X0.2064 Y0.5605 F20.00 
G01 X0.1736 Y0.5605 
G01 X0.1505 Y0.5836 
G01 X0.1505 Y0.6164 
G01 X0.1736 Y0.6395 
G01 X0.2064 Y0.6395 
G01 X0.2295 Y0.6164 
G01 X0.2295 Y0.5836 
G00 Z0.1000 
G00 X0.2336 Y0.6293 
G01 Z-0.0070 F10.00 
G01 X0.2212 Y0.6416 F20.00 
G01 X0.2193 Y0.6436 
G01 X0.2179 Y0.6459 
G01 X0.2179 Y0.6461 
G01 X0.2172 Y0.6486 
G01 X0.2172 Y0.6514 
G01 X0.2179 Y0.6541 
G01 X0.2193 Y0.6564 
G01 X0.2195 Y0.6567 
G01 X0.2212 Y0.6584 
G01 X0.2336 Y0.6707 
G01 X0.2359 Y0.6721 
G01 X0.2363 Y0.6722 
G01 X0.2386 Y0.6728 
G01 X0.2414 Y0.6728 
G01 X0.2441 Y0.6721 
G01 X0.2464 Y0.6707 
G01 X0.2484 Y0.6688 
G01 X0.2588 Y0.6584 
G01 X0.2607 Y0.6564 
G01 X0.2621 Y0.6541 
G01 X0.2628 Y0.6514 
G01 X0.2628 Y0.6486 
G01 X0.2621 Y0.6461 
G01 X0.2621 Y0.6459 
G01 X0.2607 Y0.6436 
G01 X0.2484 Y0.6312 
G01 X0.2464 Y0.6293 
G01 X0.2441 Y0.6279 
G01 X0.2415 Y0.6272 
G01 X0.2414 Y0.6272 
G01 X0.2386 Y0.6272 
G01 X0.2359 Y0.6279 
G01 X0.2336 Y0.6293 
G00 Z0.1000 
G00 X0.2295 Y0.6836 
G01 Z-0.0070 F10.00 
G01 X0.2064 Y0.6605 F20.00 
G01 X0.1736 Y0.6605 
G01 X0.1505 Y0.6836 
G01 X0.1505 Y0.7164 
G01 X0.1736 Y0.7395 
G01 X0.2064 Y0.7395 
G01 X0.2295 Y0.7164 
G01 X0.2295 Y0.6836 
G00 Z0.1000 
G00 X0.2505 Y0.6836 
G01 Z-0.0070 F10.00 
G01 X0.2505 Y0.7164 F20.00 
G01 X0.2736 Y0.7395 
G01 X0.3064 Y0.7395 
G01 X0.3295 Y0.7164 
G01 X0.3295 Y0.6836 
G01 X0.3064 Y0.6605 
G01 X0.2736 Y0.6605 
G01 X0.2505 Y0.6836 
G00 Z0.1000 
G00 X0.2464 Y0.7293 
G01 Z-0.0070 F10.00 
G01 X0.2464 Y0.7292 F20.00 
G01 X0.2441 Y0.7279 
G01 X0.2415 Y0.7272 
G01 X0.2414 Y0.7272 
G01 X0.2386 Y0.7272 
G01 X0.2359 Y0.7279 
G01 X0.2336 Y0.7293 
G01 X0.2212 Y0.7416 
G01 X0.2193 Y0.7436 
G01 X0.2179 Y0.7459 
G01 X0.2179 Y0.7461 
G01 X0.2172 Y0.7486 
G01 X0.2172 Y0.7514 
G01 X0.2179 Y0.7541 
G01 X0.2193 Y0.7564 
G01 X0.2195 Y0.7567 
G01 X0.2212 Y0.7584 
G01 X0.2336 Y0.7707 
G01 X0.2359 Y0.7721 
G01 X0.2363 Y0.7722 
G01 X0.2386 Y0.7728 
G01 X0.2414 Y0.7728 
G01 X0.2441 Y0.7721 
G01 X0.2464 Y0.7707 
G01 X0.2484 Y0.7688 
G01 X0.2588 Y0.7584 
G01 X0.2607 Y0.7564 
G01 X0.2621 Y0.7541 
G01 X0.2628 Y0.7514 
G01 X0.2628 Y0.7486 
G01 X0.2621 Y0.7461 
G01 X0.2621 Y0.7459 
G01 X0.2607 Y0.7436 
G01 X0.2484 Y0.7312 
G01 X0.2464 Y0.7293 
G00 Z0.1000 
G00 X0.2505 Y0.7836 
G01 Z-0.0070 F10.00 
G01 X0.2505 Y0.8164 F20.00 
G01 X0.2736 Y0.8395 
G01 X0.3064 Y0.8395 
G01 X0.3295 Y0.8164 
G01 X0.3295 Y0.7836 
G01 X0.3064 Y0.7605 
G01 X0.2736 Y0.7605 
G01 X0.2505 Y0.7836 
G00 Z0.1000 
G00 X0.2295 Y0.7836 
G01 Z-0.0070 F10.00 
G01 X0.2064 Y0.7605 F20.00 
G01 X0.1736 Y0.7605 
G01 X0.1505 Y0.7836 
G01 X0.1505 Y0.8164 
G01 X0.1736 Y0.8395 
G01 X0.2064 Y0.8395 
G01 X0.2295 Y0.8164 
G01 X0.2295 Y0.7836 
G00 Z0.1000 
G00 X0.2336 Y0.8293 
G01 Z-0.0070 F10.00 
G01 X0.2212 Y0.8416 F20.00 
G01 X0.2193 Y0.8436 
G01 X0.2179 Y0.8459 
G01 X0.2179 Y0.8461 
G01 X0.2172 Y0.8486 
G01 X0.2172 Y0.8514 
G01 X0.2179 Y0.8541 
G01 X0.2193 Y0.8564 
G01 X0.2195 Y0.8567 
G01 X0.2212 Y0.8584 
G01 X0.2336 Y0.8707 
G01 X0.2359 Y0.8721 
G01 X0.2363 Y0.8722 
G01 X0.2386 Y0.8728 
G01 X0.2414 Y0.8728 
G01 X0.2441 Y0.8721 
G01 X0.2464 Y0.8707 
G01 X0.2484 Y0.8688 
G01 X0.2588 Y0.8584 
G01 X0.2607 Y0.8564 
G01 X0.2621 Y0.8541 
G01 X0.2628 Y0.8514 
G01 X0.2628 Y0.8486 
G01 X0.2621 Y0.8461 
G01 X0.2621 Y0.8459 
G01 X0.2607 Y0.8436 
G01 X0.2484 Y0.8312 
G01 X0.2464 Y0.8293 
G01 X0.2441 Y0.8279 
G01 X0.2415 Y0.8272 
G01 X0.2414 Y0.8272 
G01 X0.2386 Y0.8272 
G01 X0.2359 Y0.8279 
G01 X0.2336 Y0.8293 
G00 Z0.1000 
G00 X0.2295 Y0.8836 
G01 Z-0.0070 F10.00 
G01 X0.2064 Y0.8605 F20.00 
G01 X0.1736 Y0.8605 
G01 X0.1505 Y0.8836 
G01 X0.1505 Y0.9164 
G01 X0.1736 Y0.9395 
G01 X0.2064 Y0.9395 
G01 X0.2295 Y0.9164 
G01 X0.2295 Y0.8836 
G00 Z0.1000 
G00 X0.2505 Y0.8836 
G01 Z-0.0070 F10.00 
G01 X0.2505 Y0.9164 F20.00 
G01 X0.2736 Y0.9395 
G01 X0.3064 Y0.9395 
G01 X0.3295 Y0.9164 
G01 X0.3295 Y0.8836 
G01 X0.3064 Y0.8605 
G01 X0.2736 Y0.8605 
G01 X0.2505 Y0.8836 
G00 Z0.1000 
G00 X0.2464 Y0.9293 
G01 Z-0.0070 F10.00 
G01 X0.2441 Y0.9279 F20.00 
G01 X0.2414 Y0.9272 
G01 X0.2386 Y0.9272 
G01 X0.2359 Y0.9279 
G01 X0.2336 Y0.9293 
G01 X0.2212 Y0.9416 
G01 X0.2193 Y0.9436 
G01 X0.2179 Y0.9459 
G01 X0.2172 Y0.9486 
G01 X0.2172 Y0.9514 
G01 X0.2179 Y0.9541 
G01 X0.2193 Y0.9564 
G01 X0.2371 Y0.9743 
G01 X0.2395 Y0.9756 
G01 X0.2422 Y0.9764 
G01 X0.2449 Y0.9764 
G01 X0.2476 Y0.9756 
G01 X0.2500 Y0.9743 
G01 X0.2519 Y0.9723 
G01 X0.2623 Y0.9619 
G01 X0.2643 Y0.9600 
G01 X0.2656 Y0.9576 
G01 X0.2664 Y0.9549 
G01 X0.2664 Y0.9522 
G01 X0.2656 Y0.9495 
G01 X0.2643 Y0.9471 
G01 X0.2484 Y0.9312 
G01 X0.2464 Y0.9293 
G00 Z0.1000 
G00 X0.2295 Y0.9836 
G01 Z-0.0070 F10.00 
G01 X0.2064 Y0.9605 F20.00 
G01 X0.1736 Y0.9605 
G01 X0.1505 Y0.9836 
G01 X0.1505 Y1.0164 
G01 X0.1736 Y1.0395 
G01 X0.2064 Y1.0395 
G01 X0.2295 Y1.0164 
G01 X0.2295 Y0.9836 
G00 Z0.1000 
G00 X0.3295 Y1.0145 
G01 Z-0.0070 F10.00 
G01 X0.3365 Y1.0145 F20.00 
G01 X0.3365 Y1.0193 
G01 X0.3093 Y1.0465 
G01 X0.3045 Y1.0465 
G01 X0.3045 Y1.0395 
G01 X0.3064 Y1.0395 
G01 X0.3295 Y1.0164 
G01 X0.3295 Y1.0145 
G00 Z0.1000 
G00 X0.3950 Y1.0623 
G01 Z-0.0070 F10.00 
G01 X0.3934 Y1.0652 F20.00 
G01 X0.3925 Y1.0684 
G01 X0.3925 Y1.1437 
G01 X0.3673 Y1.1437 
G01 X0.3656 Y1.1444 
G01 X0.3644 Y1.1456 
G01 X0.3637 Y1.1473 
G01 X0.3637 Y1.2327 
G01 X0.3644 Y1.2344 
G01 X0.3656 Y1.2356 
G01 X0.3673 Y1.2363 
G01 X0.4527 Y1.2363 
G01 X0.4544 Y1.2356 
G01 X0.4556 Y1.2344 
G01 X0.4563 Y1.2327 
G01 X0.4563 Y1.1473 
G01 X0.4556 Y1.1456 
G01 X0.4544 Y1.1444 
G01 X0.4527 Y1.1437 
G01 X0.4175 Y1.1437 
G01 X0.4175 Y1.0775 
G01 X0.6337 Y1.0775 
G01 X0.6337 Y1.1077 
G01 X0.6344 Y1.1094 
G01 X0.6356 Y1.1106 
G01 X0.6373 Y1.1113 
G01 X0.7227 Y1.1113 
G01 X0.7244 Y1.1106 
G01 X0.7256 Y1.1094 
G01 X0.7263 Y1.1077 
G01 X0.7263 Y1.0223 
G01 X0.7256 Y1.0206 
G01 X0.7244 Y1.0194 
G01 X0.7227 Y1.0187 
G01 X0.6373 Y1.0187 
G01 X0.6356 Y1.0194 
G01 X0.6344 Y1.0206 
G01 X0.6337 Y1.0223 
G01 X0.6337 Y1.0525 
G01 X0.4084 Y1.0525 
G01 X0.4052 Y1.0534 
G01 X0.4023 Y1.0550 
G01 X0.3973 Y1.0600 
G01 X0.3950 Y1.0623 
G00 Z0.1000 
G00 X0.4656 Y1.0206 
G01 Z-0.0070 F10.00 
G01 X0.4673 Y1.0213 F20.00 
G01 X0.5527 Y1.0213 
G01 X0.5544 Y1.0206 
G01 X0.5556 Y1.0194 
G01 X0.5563 Y1.0177 
G01 X0.5563 Y1.0125 
G01 X1.1537 Y1.0125 
G01 X1.1537 Y1.0427 
G01 X1.1544 Y1.0444 
G01 X1.1556 Y1.0456 
G01 X1.1573 Y1.0463 
G01 X1.2427 Y1.0463 
G01 X1.2444 Y1.0456 
G01 X1.2456 Y1.0444 
G01 X1.2463 Y1.0427 
G01 X1.2463 Y0.9573 
G01 X1.2456 Y0.9556 
G01 X1.2444 Y0.9544 
G01 X1.2427 Y0.9537 
G01 X1.1573 Y0.9537 
G01 X1.1556 Y0.9544 
G01 X1.1544 Y0.9556 
G01 X1.1537 Y0.9573 
G01 X1.1537 Y0.9875 
G01 X0.5563 Y0.9875 
G01 X0.5563 Y0.9323 
G01 X0.5556 Y0.9306 
G01 X0.5544 Y0.9294 
G01 X0.5527 Y0.9287 
G01 X0.4673 Y0.9287 
G01 X0.4656 Y0.9294 
G01 X0.4644 Y0.9306 
G01 X0.4637 Y0.9323 
G01 X0.4637 Y1.0177 
G01 X0.4644 Y1.0194 
G01 X0.4656 Y1.0206 
G00 Z0.1000 
G00 X0.3734 Y0.8376 
G01 Z-0.0070 F10.00 
G01 X0.3748 Y0.8352 F20.00 
G01 X0.3755 Y0.8326 
G01 X0.3755 Y0.6051 
G01 X0.3792 Y0.5961 
G01 X0.3981 Y0.5772 
G01 X0.4001 Y0.5753 
G01 X0.4015 Y0.5729 
G01 X0.4022 Y0.5702 
G01 X0.4022 Y0.5674 
G01 X0.4015 Y0.5648 
G01 X0.4001 Y0.5624 
G01 X0.3982 Y0.5604 
G01 X0.3957 Y0.5590 
G01 X0.3931 Y0.5583 
G01 X0.3451 Y0.5583 
G01 X0.3424 Y0.5590 
G01 X0.3400 Y0.5604 
G01 X0.3381 Y0.5624 
G01 X0.3372 Y0.5639 
G01 X0.3367 Y0.5648 
G01 X0.3360 Y0.5674 
G01 X0.3360 Y0.5702 
G01 X0.3367 Y0.5729 
G01 X0.3381 Y0.5753 
G01 X0.3415 Y0.5787 
G01 X0.3415 Y0.6213 
G01 X0.3212 Y0.6416 
G01 X0.3193 Y0.6436 
G01 X0.3179 Y0.6459 
G01 X0.3179 Y0.6461 
G01 X0.3172 Y0.6486 
G01 X0.3172 Y0.6514 
G01 X0.3179 Y0.6541 
G01 X0.3193 Y0.6564 
G01 X0.3415 Y0.6787 
G01 X0.3415 Y0.7213 
G01 X0.3212 Y0.7416 
G01 X0.3193 Y0.7436 
G01 X0.3179 Y0.7459 
G01 X0.3179 Y0.7461 
G01 X0.3172 Y0.7486 
G01 X0.3172 Y0.7514 
G01 X0.3179 Y0.7541 
G01 X0.3193 Y0.7564 
G01 X0.3415 Y0.7787 
G01 X0.3415 Y0.8213 
G01 X0.3212 Y0.8416 
G01 X0.3193 Y0.8436 
G01 X0.3179 Y0.8459 
G01 X0.3172 Y0.8486 
G01 X0.3172 Y0.8514 
G01 X0.3179 Y0.8541 
G01 X0.3193 Y0.8564 
G01 X0.3228 Y0.8600 
G01 X0.3247 Y0.8619 
G01 X0.3271 Y0.8633 
G01 X0.3298 Y0.8640 
G01 X0.3326 Y0.8640 
G01 X0.3352 Y0.8633 
G01 X0.3376 Y0.8619 
G01 X0.3396 Y0.8600 
G01 X0.3410 Y0.8576 
G01 X0.3417 Y0.8549 
G01 X0.3442 Y0.8488 
G01 X0.3488 Y0.8442 
G01 X0.3549 Y0.8417 
G01 X0.3664 Y0.8417 
G01 X0.3691 Y0.8410 
G01 X0.3714 Y0.8396 
G01 X0.3734 Y0.8376 
G00 Z0.1000 
G00 X0.7273 Y0.8546 
G01 Z-0.0070 F10.00 
G01 X0.7286 Y0.8614 F20.00 
G01 X0.7313 Y0.8679 
G01 X0.7352 Y0.8737 
G01 X0.7401 Y0.8786 
G01 X0.7459 Y0.8825 
G01 X0.7524 Y0.8852 
G01 X0.7593 Y0.8866 
G01 X0.7663 Y0.8866 
G01 X0.7731 Y0.8852 
G01 X0.7796 Y0.8825 
G01 X0.7854 Y0.8786 
G01 X0.7903 Y0.8737 
G01 X0.7942 Y0.8679 
G01 X0.7969 Y0.8614 
G01 X0.7983 Y0.8546 
G01 X0.7983 Y0.7856 
G01 X0.7969 Y0.7787 
G01 X0.7942 Y0.7722 
G01 X0.7903 Y0.7664 
G01 X0.7854 Y0.7615 
G01 X0.7796 Y0.7576 
G01 X0.7731 Y0.7549 
G01 X0.7663 Y0.7536 
G01 X0.7593 Y0.7536 
G01 X0.7524 Y0.7549 
G01 X0.7459 Y0.7576 
G01 X0.7401 Y0.7615 
G01 X0.7352 Y0.7664 
G01 X0.7313 Y0.7722 
G01 X0.7286 Y0.7787 
G01 X0.7273 Y0.7856 
G01 X0.7273 Y0.8546 
G00 Z0.1000 
G00 X0.7148 Y0.8750 
G01 Z-0.0070 F10.00 
G01 X0.7148 Y0.7543 F20.00 
G01 X0.7173 Y0.7482 
G01 X0.7219 Y0.7436 
G01 X0.7280 Y0.7411 
G01 X0.7975 Y0.7411 
G01 X0.7993 Y0.7418 
G01 X0.7994 Y0.7418 
G01 X0.8011 Y0.7421 
G01 X0.8021 Y0.7422 
G01 X0.8041 Y0.7419 
G01 X0.8049 Y0.7418 
G01 X0.8062 Y0.7413 
G01 X0.8067 Y0.7411 
G01 X0.8763 Y0.7411 
G01 X0.8780 Y0.7418 
G01 X0.8781 Y0.7418 
G01 X0.8799 Y0.7421 
G01 X0.8809 Y0.7422 
G01 X0.8828 Y0.7419 
G01 X0.8836 Y0.7418 
G01 X0.8850 Y0.7413 
G01 X0.8855 Y0.7411 
G01 X0.9550 Y0.7411 
G01 X0.9611 Y0.7436 
G01 X0.9657 Y0.7482 
G01 X0.9682 Y0.7543 
G01 X0.9682 Y0.8750 
G01 X0.9657 Y0.8811 
G01 X0.9611 Y0.8857 
G01 X0.9550 Y0.8882 
G01 X0.9532 Y0.8882 
G01 X0.9510 Y0.8888 
G01 X0.9505 Y0.8889 
G01 X0.9487 Y0.8900 
G01 X0.9481 Y0.8903 
G01 X0.9471 Y0.8913 
G01 X0.9297 Y0.8986 
G01 X0.9108 Y0.8986 
G01 X0.8933 Y0.8913 
G01 X0.8923 Y0.8903 
G01 X0.8917 Y0.8899 
G01 X0.8899 Y0.8889 
G01 X0.8894 Y0.8888 
G01 X0.8873 Y0.8882 
G01 X0.8855 Y0.8882 
G01 X0.8849 Y0.8880 
G01 X0.8836 Y0.8875 
G01 X0.8828 Y0.8874 
G01 X0.8809 Y0.8871 
G01 X0.8798 Y0.8872 
G01 X0.8781 Y0.8875 
G01 X0.8780 Y0.8875 
G01 X0.8763 Y0.8882 
G01 X0.8745 Y0.8882 
G01 X0.8723 Y0.8888 
G01 X0.8718 Y0.8889 
G01 X0.8700 Y0.8900 
G01 X0.8694 Y0.8903 
G01 X0.8684 Y0.8913 
G01 X0.8509 Y0.8986 
G01 X0.8320 Y0.8986 
G01 X0.8146 Y0.8913 
G01 X0.8136 Y0.8903 
G01 X0.8129 Y0.8899 
G01 X0.8112 Y0.8889 
G01 X0.8106 Y0.8888 
G01 X0.8085 Y0.8882 
G01 X0.8067 Y0.8882 
G01 X0.8062 Y0.8880 
G01 X0.8049 Y0.8875 
G01 X0.8040 Y0.8874 
G01 X0.8021 Y0.8871 
G01 X0.8011 Y0.8872 
G01 X0.7994 Y0.8875 
G01 X0.7992 Y0.8875 
G01 X0.7975 Y0.8882 
G01 X0.7957 Y0.8882 
G01 X0.7931 Y0.8889 
G01 X0.7907 Y0.8903 
G01 X0.7897 Y0.8913 
G01 X0.7722 Y0.8986 
G01 X0.7533 Y0.8986 
G01 X0.7358 Y0.8913 
G01 X0.7349 Y0.8903 
G01 X0.7325 Y0.8889 
G01 X0.7298 Y0.8882 
G01 X0.7280 Y0.8882 
G01 X0.7219 Y0.8857 
G01 X0.7173 Y0.8811 
G01 X0.7148 Y0.8750 
G00 Z0.1000 
G00 X0.8139 Y0.8737 
G01 Z-0.0070 F10.00 
G01 X0.8189 Y0.8786 F20.00 
G01 X0.8247 Y0.8825 
G01 X0.8311 Y0.8852 
G01 X0.8380 Y0.8866 
G01 X0.8450 Y0.8866 
G01 X0.8519 Y0.8852 
G01 X0.8583 Y0.8825 
G01 X0.8641 Y0.8786 
G01 X0.8691 Y0.8737 
G01 X0.8730 Y0.8679 
G01 X0.8756 Y0.8614 
G01 X0.8770 Y0.8546 
G01 X0.8770 Y0.7856 
G01 X0.8756 Y0.7787 
G01 X0.8730 Y0.7722 
G01 X0.8691 Y0.7664 
G01 X0.8641 Y0.7615 
G01 X0.8583 Y0.7576 
G01 X0.8519 Y0.7549 
G01 X0.8450 Y0.7536 
G01 X0.8380 Y0.7536 
G01 X0.8311 Y0.7549 
G01 X0.8247 Y0.7576 
G01 X0.8189 Y0.7615 
G01 X0.8139 Y0.7664 
G01 X0.8100 Y0.7722 
G01 X0.8074 Y0.7787 
G01 X0.8060 Y0.7856 
G01 X0.8060 Y0.8546 
G01 X0.8074 Y0.8614 
G01 X0.8100 Y0.8679 
G01 X0.8139 Y0.8737 
G00 Z0.1000 
G00 X0.8927 Y0.8737 
G01 Z-0.0070 F10.00 
G01 X0.8976 Y0.8786 F20.00 
G01 X0.9034 Y0.8825 
G01 X0.9099 Y0.8852 
G01 X0.9167 Y0.8866 
G01 X0.9237 Y0.8866 
G01 X0.9306 Y0.8852 
G01 X0.9371 Y0.8825 
G01 X0.9429 Y0.8786 
G01 X0.9478 Y0.8737 
G01 X0.9517 Y0.8679 
G01 X0.9544 Y0.8614 
G01 X0.9557 Y0.8546 
G01 X0.9557 Y0.7856 
G01 X0.9544 Y0.7787 
G01 X0.9517 Y0.7722 
G01 X0.9478 Y0.7664 
G01 X0.9429 Y0.7615 
G01 X0.9371 Y0.7576 
G01 X0.9306 Y0.7549 
G01 X0.9237 Y0.7536 
G01 X0.9167 Y0.7536 
G01 X0.9099 Y0.7549 
G01 X0.9034 Y0.7576 
G01 X0.8976 Y0.7615 
G01 X0.8927 Y0.7664 
G01 X0.8888 Y0.7722 
G01 X0.8861 Y0.7787 
G01 X0.8847 Y0.7856 
G01 X0.8847 Y0.8546 
G01 X0.8861 Y0.8614 
G01 X0.8888 Y0.8679 
G01 X0.8927 Y0.8737 
G00 Z0.1000 
G00 X0.8912 Y0.7051 
G01 Z-0.0070 F10.00 
G01 X0.8977 Y0.7024 F20.00 
G01 X0.9035 Y0.6985 
G01 X0.9084 Y0.6936 
G01 X0.9123 Y0.6878 
G01 X0.9150 Y0.6813 
G01 X0.9164 Y0.6744 
G01 X0.9164 Y0.6054 
G01 X0.9150 Y0.5986 
G01 X0.9123 Y0.5921 
G01 X0.9084 Y0.5863 
G01 X0.9035 Y0.5814 
G01 X0.8977 Y0.5775 
G01 X0.8912 Y0.5748 
G01 X0.8844 Y0.5734 
G01 X0.8774 Y0.5734 
G01 X0.8705 Y0.5748 
G01 X0.8641 Y0.5775 
G01 X0.8582 Y0.5814 
G01 X0.8533 Y0.5863 
G01 X0.8494 Y0.5921 
G01 X0.8467 Y0.5986 
G01 X0.8454 Y0.6054 
G01 X0.8454 Y0.6744 
G01 X0.8467 Y0.6813 
G01 X0.8494 Y0.6878 
G01 X0.8533 Y0.6936 
G01 X0.8582 Y0.6985 
G01 X0.8641 Y0.7024 
G01 X0.8705 Y0.7051 
G01 X0.8774 Y0.7064 
G01 X0.8844 Y0.7064 
G01 X0.8912 Y0.7051 
G00 Z0.1000 
G00 X0.9156 Y0.7189 
G01 Z-0.0070 F10.00 
G01 X0.8461 Y0.7189 F20.00 
G01 X0.8444 Y0.7182 
G01 X0.8442 Y0.7182 
G01 X0.8425 Y0.7179 
G01 X0.8415 Y0.7178 
G01 X0.8396 Y0.7181 
G01 X0.8388 Y0.7182 
G01 X0.8374 Y0.7187 
G01 X0.8369 Y0.7189 
G01 X0.7673 Y0.7189 
G01 X0.7656 Y0.7182 
G01 X0.7655 Y0.7182 
G01 X0.7638 Y0.7179 
G01 X0.7628 Y0.7178 
G01 X0.7608 Y0.7181 
G01 X0.7600 Y0.7182 
G01 X0.7587 Y0.7187 
G01 X0.7582 Y0.7189 
G01 X0.6886 Y0.7189 
G01 X0.6825 Y0.7164 
G01 X0.6779 Y0.7118 
G01 X0.6754 Y0.7057 
G01 X0.6754 Y0.5850 
G01 X0.6779 Y0.5789 
G01 X0.6825 Y0.5743 
G01 X0.6886 Y0.5718 
G01 X0.6904 Y0.5718 
G01 X0.6926 Y0.5712 
G01 X0.6931 Y0.5711 
G01 X0.6949 Y0.5700 
G01 X0.6955 Y0.5697 
G01 X0.6965 Y0.5687 
G01 X0.7139 Y0.5614 
G01 X0.7328 Y0.5614 
G01 X0.7503 Y0.5687 
G01 X0.7513 Y0.5697 
G01 X0.7520 Y0.5701 
G01 X0.7537 Y0.5711 
G01 X0.7542 Y0.5712 
G01 X0.7564 Y0.5718 
G01 X0.7582 Y0.5718 
G01 X0.7587 Y0.5720 
G01 X0.7600 Y0.5725 
G01 X0.7609 Y0.5726 
G01 X0.7628 Y0.5729 
G01 X0.7638 Y0.5728 
G01 X0.7655 Y0.5725 
G01 X0.7657 Y0.5725 
G01 X0.7673 Y0.5718 
G01 X0.7787 Y0.5718 
G01 X0.7798 Y0.5718 
G01 X0.7801 Y0.5718 
G01 X0.7803 Y0.5718 
G01 X0.7814 Y0.5715 
G01 X0.7825 Y0.5713 
G01 X0.7827 Y0.5711 
G01 X0.7830 Y0.5711 
G01 X0.7840 Y0.5705 
G01 X0.7858 Y0.5696 
G01 X0.7917 Y0.5676 
G01 X0.7937 Y0.5697 
G01 X0.7961 Y0.5711 
G01 X0.7987 Y0.5718 
G01 X0.8055 Y0.5718 
G01 X0.8082 Y0.5711 
G01 X0.8106 Y0.5697 
G01 X0.8125 Y0.5677 
G01 X0.8184 Y0.5696 
G01 X0.8203 Y0.5705 
G01 X0.8212 Y0.5711 
G01 X0.8215 Y0.5711 
G01 X0.8218 Y0.5713 
G01 X0.8228 Y0.5715 
G01 X0.8239 Y0.5718 
G01 X0.8242 Y0.5718 
G01 X0.8245 Y0.5718 
G01 X0.8256 Y0.5718 
G01 X0.8369 Y0.5718 
G01 X0.8374 Y0.5720 
G01 X0.8388 Y0.5725 
G01 X0.8396 Y0.5726 
G01 X0.8415 Y0.5729 
G01 X0.8425 Y0.5728 
G01 X0.8442 Y0.5725 
G01 X0.8444 Y0.5725 
G01 X0.8461 Y0.5718 
G01 X0.8479 Y0.5718 
G01 X0.8506 Y0.5711 
G01 X0.8530 Y0.5697 
G01 X0.8540 Y0.5687 
G01 X0.8714 Y0.5614 
G01 X0.8903 Y0.5614 
G01 X0.9078 Y0.5687 
G01 X0.9088 Y0.5697 
G01 X0.9112 Y0.5711 
G01 X0.9138 Y0.5718 
G01 X0.9156 Y0.5718 
G01 X0.9217 Y0.5743 
G01 X0.9264 Y0.5789 
G01 X0.9289 Y0.5850 
G01 X0.9289 Y0.7057 
G01 X0.9264 Y0.7118 
G01 X0.9217 Y0.7164 
G01 X0.9156 Y0.7189 
G00 Z0.1000 
G00 X0.8297 Y0.6936 
G01 Z-0.0070 F10.00 
G01 X0.8336 Y0.6878 F20.00 
G01 X0.8363 Y0.6813 
G01 X0.8376 Y0.6744 
G01 X0.8376 Y0.6054 
G01 X0.8363 Y0.5986 
G01 X0.8336 Y0.5921 
G01 X0.8297 Y0.5863 
G01 X0.8248 Y0.5814 
G01 X0.8189 Y0.5775 
G01 X0.8125 Y0.5748 
G01 X0.8056 Y0.5734 
G01 X0.7986 Y0.5734 
G01 X0.7918 Y0.5748 
G01 X0.7853 Y0.5775 
G01 X0.7795 Y0.5814 
G01 X0.7746 Y0.5863 
G01 X0.7707 Y0.5921 
G01 X0.7680 Y0.5986 
G01 X0.7666 Y0.6054 
G01 X0.7666 Y0.6744 
G01 X0.7680 Y0.6813 
G01 X0.7707 Y0.6878 
G01 X0.7746 Y0.6936 
G01 X0.7795 Y0.6985 
G01 X0.7853 Y0.7024 
G01 X0.7918 Y0.7051 
G01 X0.7986 Y0.7064 
G01 X0.8056 Y0.7064 
G01 X0.8125 Y0.7051 
G01 X0.8189 Y0.7024 
G01 X0.8248 Y0.6985 
G01 X0.8297 Y0.6936 
G00 Z0.1000 
G00 X0.7510 Y0.6936 
G01 Z-0.0070 F10.00 
G01 X0.7548 Y0.6878 F20.00 
G01 X0.7575 Y0.6813 
G01 X0.7589 Y0.6744 
G01 X0.7589 Y0.6054 
G01 X0.7575 Y0.5986 
G01 X0.7548 Y0.5921 
G01 X0.7510 Y0.5863 
G01 X0.7460 Y0.5814 
G01 X0.7402 Y0.5775 
G01 X0.7337 Y0.5748 
G01 X0.7269 Y0.5734 
G01 X0.7199 Y0.5734 
G01 X0.7130 Y0.5748 
G01 X0.7066 Y0.5775 
G01 X0.7008 Y0.5814 
G01 X0.6958 Y0.5863 
G01 X0.6919 Y0.5921 
G01 X0.6893 Y0.5986 
G01 X0.6879 Y0.6054 
G01 X0.6879 Y0.6744 
G01 X0.6893 Y0.6813 
G01 X0.6919 Y0.6878 
G01 X0.6958 Y0.6936 
G01 X0.7008 Y0.6985 
G01 X0.7066 Y0.7024 
G01 X0.7130 Y0.7051 
G01 X0.7199 Y0.7064 
G01 X0.7269 Y0.7064 
G01 X0.7337 Y0.7051 
G01 X0.7402 Y0.7024 
G01 X0.7460 Y0.6985 
G01 X0.7510 Y0.6936 
G00 Z0.1000 
G00 X0.7502 Y1.0245 
G01 Z-0.0070 F10.00 
G01 X0.7474 Y1.0245 F20.00 
G01 X0.7448 Y1.0252 
G01 X0.7424 Y1.0266 
G01 X0.7404 Y1.0286 
G01 X0.7390 Y1.0309 
G01 X0.7383 Y1.0336 
G01 X0.7383 Y1.0594 
G01 X0.7390 Y1.0621 
G01 X0.7404 Y1.0644 
G01 X0.7424 Y1.0664 
G01 X0.7448 Y1.0678 
G01 X0.7474 Y1.0685 
G01 X0.9383 Y1.0685 
G01 X0.9443 Y1.0710 
G01 X0.9447 Y1.0714 
G01 X0.9449 Y1.0715 
G01 X0.9471 Y1.0728 
G01 X0.9486 Y1.0732 
G01 X0.9498 Y1.0735 
G01 X0.9512 Y1.0735 
G01 X0.9526 Y1.0735 
G01 X0.9539 Y1.0732 
G01 X0.9552 Y1.0728 
G01 X0.9563 Y1.0722 
G01 X0.9576 Y1.0714 
G01 X0.9583 Y1.0707 
G01 X0.9596 Y1.0695 
G01 X0.9597 Y1.0693 
G01 X0.9610 Y1.0671 
G01 X0.9614 Y1.0656 
G01 X0.9617 Y1.0644 
G01 X0.9617 Y1.0630 
G01 X0.9617 Y1.0616 
G01 X0.9617 Y1.0336 
G01 X0.9610 Y1.0309 
G01 X0.9596 Y1.0286 
G01 X0.9576 Y1.0266 
G01 X0.9552 Y1.0252 
G01 X0.9526 Y1.0245 
G01 X0.7502 Y1.0245 
G00 Z0.1000 
G00 X0.7988 Y1.1041 
G01 Z-0.0070 F10.00 
G01 X0.7944 Y1.1101 F20.00 
G01 X0.7910 Y1.1168 
G01 X0.7887 Y1.1239 
G01 X0.7875 Y1.1313 
G01 X0.7875 Y1.1387 
G01 X0.7887 Y1.1461 
G01 X0.7910 Y1.1532 
G01 X0.7944 Y1.1599 
G01 X0.7988 Y1.1659 
G01 X0.8041 Y1.1712 
G01 X0.8101 Y1.1756 
G01 X0.8168 Y1.1790 
G01 X0.8239 Y1.1813 
G01 X0.8313 Y1.1825 
G01 X0.8387 Y1.1825 
G01 X0.8461 Y1.1813 
G01 X0.8532 Y1.1790 
G01 X0.8599 Y1.1756 
G01 X0.8659 Y1.1712 
G01 X0.8712 Y1.1659 
G01 X0.8756 Y1.1599 
G01 X0.8790 Y1.1532 
G01 X0.8813 Y1.1461 
G01 X0.8825 Y1.1387 
G01 X0.8825 Y1.1313 
G01 X0.8813 Y1.1239 
G01 X0.8790 Y1.1168 
G01 X0.8756 Y1.1101 
G01 X0.8712 Y1.1041 
G01 X0.8659 Y1.0988 
G01 X0.8599 Y1.0944 
G01 X0.8532 Y1.0910 
G01 X0.8461 Y1.0887 
G01 X0.8387 Y1.0875 
G01 X0.8313 Y1.0875 
G01 X0.8239 Y1.0887 
G01 X0.8168 Y1.0910 
G01 X0.8101 Y1.0944 
G01 X0.8041 Y1.0988 
G01 X0.7988 Y1.1041 
G00 Z0.1000 
G00 X0.8153 Y1.1875 
G01 Z-0.0070 F10.00 
G01 X0.7875 Y1.2153 F20.00 
G01 X0.7875 Y1.2547 
G01 X0.8153 Y1.2825 
G01 X0.8547 Y1.2825 
G01 X0.8825 Y1.2547 
G01 X0.8825 Y1.2153 
G01 X0.8547 Y1.1875 
G01 X0.8153 Y1.1875 
G00 Z0.1000 
G00 X0.9845 Y1.1697 
G01 Z-0.0070 F10.00 
G01 X1.0053 Y1.1905 F20.00 
G01 X1.0347 Y1.1905 
G01 X1.0555 Y1.1697 
G01 X1.0555 Y1.1403 
G01 X1.0347 Y1.1195 
G01 X1.0053 Y1.1195 
G01 X0.9845 Y1.1403 
G01 X0.9845 Y1.1697 
G00 Z0.1000 
G00 X0.9773 Y1.1063 
G01 Z-0.0070 F10.00 
G01 X1.0627 Y1.1063 F20.00 
G01 X1.0644 Y1.1056 
G01 X1.0656 Y1.1044 
G01 X1.0663 Y1.1027 
G01 X1.0663 Y1.0725 
G01 X1.2916 Y1.0725 
G01 X1.2948 Y1.0716 
G01 X1.2954 Y1.0713 
G01 X1.3677 Y1.0713 
G01 X1.3694 Y1.0706 
G01 X1.3706 Y1.0694 
G01 X1.3713 Y1.0677 
G01 X1.3713 Y0.9823 
G01 X1.3706 Y0.9806 
G01 X1.3694 Y0.9794 
G01 X1.3677 Y0.9787 
G01 X1.2823 Y0.9787 
G01 X1.2806 Y0.9794 
G01 X1.2794 Y0.9806 
G01 X1.2787 Y0.9823 
G01 X1.2787 Y1.0475 
G01 X1.0663 Y1.0475 
G01 X1.0663 Y1.0173 
G01 X1.0656 Y1.0156 
G01 X1.0644 Y1.0144 
G01 X1.0627 Y1.0137 
G01 X0.9773 Y1.0137 
G01 X0.9756 Y1.0144 
G01 X0.9744 Y1.0156 
G01 X0.9737 Y1.0173 
G01 X0.9737 Y1.1027 
G01 X0.9744 Y1.1044 
G01 X0.9756 Y1.1056 
G01 X0.9773 Y1.1063 
G00 Z0.1000 
G00 X1.0845 Y1.1403 
G01 Z-0.0070 F10.00 
G01 X1.0845 Y1.1697 F20.00 
G01 X1.1053 Y1.1905 
G01 X1.1347 Y1.1905 
G01 X1.1555 Y1.1697 
G01 X1.1555 Y1.1403 
G01 X1.1347 Y1.1195 
G01 X1.1053 Y1.1195 
G01 X1.0845 Y1.1403 
G00 Z0.1000 
G00 X1.1055 Y1.2425 
G01 Z-0.0070 F10.00 
G01 X1.1125 Y1.2425 F20.00 
G01 X1.1125 Y1.2476 
G01 X1.0876 Y1.2725 
G01 X1.0825 Y1.2725 
G01 X1.0825 Y1.2655 
G01 X1.0847 Y1.2655 
G01 X1.1055 Y1.2447 
G01 X1.1055 Y1.2425 
G00 Z0.1000 
G00 X1.0345 Y1.2425 
G01 Z-0.0070 F10.00 
G01 X1.0345 Y1.2447 F20.00 
G01 X1.0553 Y1.2655 
G01 X1.0575 Y1.2655 
G01 X1.0575 Y1.2725 
G01 X1.0524 Y1.2725 
G01 X1.0275 Y1.2476 
G01 X1.0275 Y1.2425 
G01 X1.0345 Y1.2425 
G00 Z0.1000 
G00 X1.3025 Y1.2447 
G01 Z-0.0070 F10.00 
G01 X1.3303 Y1.2725 F20.00 
G01 X1.3697 Y1.2725 
G01 X1.3975 Y1.2447 
G01 X1.3975 Y1.2053 
G01 X1.3697 Y1.1775 
G01 X1.3303 Y1.1775 
G01 X1.3025 Y1.2053 
G01 X1.3025 Y1.2447 
G00 Z0.1000 
G00 X1.3191 Y1.1612 
G01 Z-0.0070 F10.00 
G01 X1.3251 Y1.1656 F20.00 
G01 X1.3318 Y1.1690 
G01 X1.3389 Y1.1713 
G01 X1.3463 Y1.1725 
G01 X1.3537 Y1.1725 
G01 X1.3611 Y1.1713 
G01 X1.3682 Y1.1690 
G01 X1.3749 Y1.1656 
G01 X1.3809 Y1.1612 
G01 X1.3862 Y1.1559 
G01 X1.3906 Y1.1499 
G01 X1.3940 Y1.1432 
G01 X1.3963 Y1.1361 
G01 X1.3975 Y1.1287 
G01 X1.3975 Y1.1213 
G01 X1.3963 Y1.1139 
G01 X1.3940 Y1.1068 
G01 X1.3906 Y1.1001 
G01 X1.3862 Y1.0941 
G01 X1.3809 Y1.0888 
G01 X1.3749 Y1.0844 
G01 X1.3682 Y1.0810 
G01 X1.3611 Y1.0787 
G01 X1.3537 Y1.0775 
G01 X1.3463 Y1.0775 
G01 X1.3389 Y1.0787 
G01 X1.3318 Y1.0810 
G01 X1.3251 Y1.0844 
G01 X1.3191 Y1.0888 
G01 X1.3138 Y1.0941 
G01 X1.3094 Y1.1001 
G01 X1.3060 Y1.1068 
G01 X1.3037 Y1.1139 
G01 X1.3025 Y1.1213 
G01 X1.3025 Y1.1287 
G01 X1.3037 Y1.1361 
G01 X1.3060 Y1.1432 
G01 X1.3094 Y1.1499 
G01 X1.3138 Y1.1559 
G01 X1.3191 Y1.1612 
G00 Z0.1000 
G00 X1.1508 Y0.8080 
G01 Z-0.0070 F10.00 
G01 X1.1289 Y0.8171 F20.00 
G01 X1.1053 Y0.8171 
G01 X1.0834 Y0.8080 
G01 X1.0666 Y0.7913 
G01 X1.0576 Y0.7694 
G01 X1.0576 Y0.7457 
G01 X1.0666 Y0.7239 
G01 X1.0834 Y0.7071 
G01 X1.1053 Y0.6981 
G01 X1.1289 Y0.6981 
G01 X1.1508 Y0.7071 
G01 X1.1675 Y0.7239 
G01 X1.1766 Y0.7457 
G01 X1.1766 Y0.7694 
G01 X1.1675 Y0.7913 
G01 X1.1508 Y0.8080 
G00 Z0.1000 
G00 X1.3342 Y0.5312 
G01 Z-0.0070 F10.00 
G01 X1.3317 Y0.5251 F20.00 
G01 X1.3317 Y0.4349 
G01 X1.3342 Y0.4288 
G01 X1.3388 Y0.4242 
G01 X1.3449 Y0.4217 
G01 X1.3564 Y0.4217 
G01 X1.3591 Y0.4210 
G01 X1.3614 Y0.4196 
G01 X1.3634 Y0.4176 
G01 X1.3648 Y0.4152 
G01 X1.3655 Y0.4126 
G01 X1.3655 Y0.2474 
G01 X1.3648 Y0.2448 
G01 X1.3634 Y0.2424 
G01 X1.3614 Y0.2404 
G01 X1.3591 Y0.2390 
G01 X1.3564 Y0.2383 
G01 X1.3449 Y0.2383 
G01 X1.3388 Y0.2358 
G01 X1.3342 Y0.2312 
G01 X1.3317 Y0.2251 
G01 X1.3317 Y0.1349 
G01 X1.3342 Y0.1288 
G01 X1.3388 Y0.1242 
G01 X1.3449 Y0.1217 
G01 X1.4351 Y0.1217 
G01 X1.4412 Y0.1242 
G01 X1.4458 Y0.1288 
G01 X1.4483 Y0.1349 
G01 X1.4483 Y0.2251 
G01 X1.4458 Y0.2312 
G01 X1.4412 Y0.2358 
G01 X1.4351 Y0.2383 
G01 X1.4236 Y0.2383 
G01 X1.4209 Y0.2390 
G01 X1.4186 Y0.2404 
G01 X1.4166 Y0.2424 
G01 X1.4152 Y0.2448 
G01 X1.4145 Y0.2474 
G01 X1.4145 Y0.4126 
G01 X1.4152 Y0.4152 
G01 X1.4166 Y0.4176 
G01 X1.4186 Y0.4196 
G01 X1.4209 Y0.4210 
G01 X1.4236 Y0.4217 
G01 X1.4351 Y0.4217 
G01 X1.4412 Y0.4242 
G01 X1.4458 Y0.4288 
G01 X1.4483 Y0.4349 
G01 X1.4483 Y0.5251 
G01 X1.4458 Y0.5312 
G01 X1.4412 Y0.5358 
G01 X1.4351 Y0.5383 
G01 X1.3449 Y0.5383 
G01 X1.3388 Y0.5358 
G01 X1.3342 Y0.5312 
G00 Z0.1000 
G00 X1.3456 Y0.5256 
G01 Z-0.0070 F10.00 
G01 X1.3473 Y0.5263 F20.00 
G01 X1.4327 Y0.5263 
G01 X1.4344 Y0.5256 
G01 X1.4356 Y0.5244 
G01 X1.4363 Y0.5227 
G01 X1.4363 Y0.4373 
G01 X1.4356 Y0.4356 
G01 X1.4344 Y0.4344 
G01 X1.4327 Y0.4337 
G01 X1.4025 Y0.4337 
G01 X1.4025 Y0.2263 
G01 X1.4327 Y0.2263 
G01 X1.4344 Y0.2256 
G01 X1.4356 Y0.2244 
G01 X1.4363 Y0.2227 
G01 X1.4363 Y0.1373 
G01 X1.4356 Y0.1356 
G01 X1.4344 Y0.1344 
G01 X1.4327 Y0.1337 
G01 X1.3473 Y0.1337 
G01 X1.3456 Y0.1344 
G01 X1.3444 Y0.1356 
G01 X1.3437 Y0.1373 
G01 X1.3437 Y0.2227 
G01 X1.3444 Y0.2244 
G01 X1.3456 Y0.2256 
G01 X1.3473 Y0.2263 
G01 X1.3775 Y0.2263 
G01 X1.3775 Y0.4337 
G01 X1.3473 Y0.4337 
G01 X1.3456 Y0.4344 
G01 X1.3444 Y0.4356 
G01 X1.3437 Y0.4373 
G01 X1.3437 Y0.5227 
G01 X1.3444 Y0.5244 
G01 X1.3456 Y0.5256 
G00 Z0.1000 
G00 X1.2736 Y0.2026 
G01 Z-0.0070 F10.00 
G01 X1.2775 Y0.1968 F20.00 
G01 X1.2801 Y0.1904 
G01 X1.2815 Y0.1835 
G01 X1.2815 Y0.1765 
G01 X1.2801 Y0.1696 
G01 X1.2775 Y0.1632 
G01 X1.2736 Y0.1574 
G01 X1.2686 Y0.1524 
G01 X1.2628 Y0.1485 
G01 X1.2564 Y0.1459 
G01 X1.2495 Y0.1445 
G01 X1.1805 Y0.1445 
G01 X1.1736 Y0.1459 
G01 X1.1672 Y0.1485 
G01 X1.1614 Y0.1524 
G01 X1.1564 Y0.1574 
G01 X1.1525 Y0.1632 
G01 X1.1499 Y0.1696 
G01 X1.1485 Y0.1765 
G01 X1.1485 Y0.1835 
G01 X1.1499 Y0.1904 
G01 X1.1525 Y0.1968 
G01 X1.1564 Y0.2026 
G01 X1.1614 Y0.2076 
G01 X1.1672 Y0.2115 
G01 X1.1736 Y0.2141 
G01 X1.1805 Y0.2155 
G01 X1.2495 Y0.2155 
G01 X1.2564 Y0.2141 
G01 X1.2628 Y0.2115 
G01 X1.2686 Y0.2076 
G01 X1.2736 Y0.2026 
G00 Z0.1000 
G00 X0.9863 Y0.2531 
G01 Z-0.0070 F10.00 
G01 X0.9935 Y0.2706 F20.00 
G01 X0.9935 Y0.2894 
G01 X0.9863 Y0.3069 
G01 X0.9729 Y0.3203 
G01 X0.9554 Y0.3275 
G01 X0.8746 Y0.3275 
G01 X0.8571 Y0.3203 
G01 X0.8437 Y0.3069 
G01 X0.8365 Y0.2894 
G01 X0.8365 Y0.2706 
G01 X0.8437 Y0.2531 
G01 X0.8571 Y0.2397 
G01 X0.8746 Y0.2325 
G01 X0.9554 Y0.2325 
G01 X0.9729 Y0.2397 
G01 X0.9863 Y0.2531 
G00 Z0.1000 
G00 X0.9736 Y0.2574 
G01 Z-0.0070 F10.00 
G01 X0.9686 Y0.2524 F20.00 
G01 X0.9628 Y0.2485 
G01 X0.9564 Y0.2459 
G01 X0.9495 Y0.2445 
G01 X0.8805 Y0.2445 
G01 X0.8736 Y0.2459 
G01 X0.8672 Y0.2485 
G01 X0.8614 Y0.2524 
G01 X0.8564 Y0.2574 
G01 X0.8525 Y0.2632 
G01 X0.8499 Y0.2696 
G01 X0.8485 Y0.2765 
G01 X0.8485 Y0.2835 
G01 X0.8499 Y0.2904 
G01 X0.8525 Y0.2968 
G01 X0.8564 Y0.3026 
G01 X0.8614 Y0.3076 
G01 X0.8672 Y0.3115 
G01 X0.8736 Y0.3141 
G01 X0.8805 Y0.3155 
G01 X0.9495 Y0.3155 
G01 X0.9564 Y0.3141 
G01 X0.9628 Y0.3115 
G01 X0.9686 Y0.3076 
G01 X0.9736 Y0.3026 
G01 X0.9775 Y0.2968 
G01 X0.9801 Y0.2904 
G01 X0.9815 Y0.2835 
G01 X0.9815 Y0.2765 
G01 X0.9801 Y0.2696 
G01 X0.9775 Y0.2632 
G01 X0.9736 Y0.2574 
G00 Z0.1000 
G00 X0.7737 Y0.2124 
G01 Z-0.0070 F10.00 
G01 X0.7683 Y0.2163 F20.00 
G01 X0.7623 Y0.2194 
G01 X0.7560 Y0.2215 
G01 X0.7493 Y0.2225 
G01 X0.7275 Y0.2225 
G01 X0.7275 Y0.2155 
G01 X0.7495 Y0.2155 
G01 X0.7564 Y0.2141 
G01 X0.7628 Y0.2115 
G01 X0.7686 Y0.2076 
G01 X0.7736 Y0.2026 
G01 X0.7775 Y0.1968 
G01 X0.7792 Y0.1925 
G01 X0.7866 Y0.1925 
G01 X0.7854 Y0.1963 
G01 X0.7823 Y0.2023 
G01 X0.7784 Y0.2077 
G01 X0.7737 Y0.2124 
G00 Z0.1000 
G00 X0.7025 Y0.2155 
G01 Z-0.0070 F10.00 
G01 X0.7025 Y0.2225 F20.00 
G01 X0.6807 Y0.2225 
G01 X0.6740 Y0.2215 
G01 X0.6677 Y0.2194 
G01 X0.6617 Y0.2163 
G01 X0.6563 Y0.2124 
G01 X0.6516 Y0.2077 
G01 X0.6477 Y0.2023 
G01 X0.6446 Y0.1963 
G01 X0.6434 Y0.1925 
G01 X0.6508 Y0.1925 
G01 X0.6525 Y0.1968 
G01 X0.6564 Y0.2026 
G01 X0.6614 Y0.2076 
G01 X0.6672 Y0.2115 
G01 X0.6736 Y0.2141 
G01 X0.6805 Y0.2155 
G01 X0.7025 Y0.2155 
G00 Z0.1000 
G00 X2.0131 Y0.1863 
G01 Z-0.0070 F10.00 
G01 X1.9997 Y0.1729 F20.00 
G01 X1.9925 Y0.1554 
G01 X1.9925 Y0.0746 
G01 X1.9997 Y0.0571 
G01 X2.0131 Y0.0437 
G01 X2.0306 Y0.0365 
G01 X2.0494 Y0.0365 
G01 X2.0669 Y0.0437 
G01 X2.0803 Y0.0571 
G01 X2.0808 Y0.0584 
G01 X2.0816 Y0.0595 
G01 X2.0825 Y0.0606 
G01 X2.0837 Y0.0615 
G01 X2.0847 Y0.0623 
G01 X2.0857 Y0.0627 
G01 X2.0873 Y0.0634 
G01 X2.0879 Y0.0635 
G01 X2.0900 Y0.0637 
G01 X2.0911 Y0.0636 
G01 X2.0927 Y0.0634 
G01 X2.0936 Y0.0630 
G01 X2.0953 Y0.0623 
G01 X2.0964 Y0.0615 
G01 X2.0975 Y0.0606 
G01 X2.0984 Y0.0595 
G01 X2.0992 Y0.0584 
G01 X2.0996 Y0.0574 
G01 X2.0997 Y0.0571 
G01 X2.1131 Y0.0437 
G01 X2.1306 Y0.0365 
G01 X2.1494 Y0.0365 
G01 X2.1669 Y0.0437 
G01 X2.1803 Y0.0571 
G01 X2.1808 Y0.0584 
G01 X2.1816 Y0.0595 
G01 X2.1825 Y0.0606 
G01 X2.1837 Y0.0615 
G01 X2.1847 Y0.0623 
G01 X2.1857 Y0.0627 
G01 X2.1873 Y0.0634 
G01 X2.1879 Y0.0635 
G01 X2.1900 Y0.0637 
G01 X2.1911 Y0.0636 
G01 X2.1927 Y0.0634 
G01 X2.1936 Y0.0630 
G01 X2.1953 Y0.0623 
G01 X2.1964 Y0.0615 
G01 X2.1975 Y0.0606 
G01 X2.1984 Y0.0595 
G01 X2.1992 Y0.0584 
G01 X2.1996 Y0.0574 
G01 X2.1997 Y0.0571 
G01 X2.2131 Y0.0437 
G01 X2.2306 Y0.0365 
G01 X2.2494 Y0.0365 
G01 X2.2669 Y0.0437 
G01 X2.2803 Y0.0571 
G01 X2.2875 Y0.0746 
G01 X2.2875 Y0.1554 
G01 X2.2803 Y0.1729 
G01 X2.2669 Y0.1863 
G01 X2.2494 Y0.1935 
G01 X2.2306 Y0.1935 
G01 X2.2131 Y0.1863 
G01 X2.1997 Y0.1729 
G01 X2.1996 Y0.1726 
G01 X2.1992 Y0.1716 
G01 X2.1984 Y0.1705 
G01 X2.1975 Y0.1694 
G01 X2.1963 Y0.1685 
G01 X2.1953 Y0.1677 
G01 X2.1936 Y0.1670 
G01 X2.1927 Y0.1666 
G01 X2.1911 Y0.1664 
G01 X2.1900 Y0.1663 
G01 X2.1878 Y0.1665 
G01 X2.1873 Y0.1666 
G01 X2.1857 Y0.1673 
G01 X2.1847 Y0.1677 
G01 X2.1836 Y0.1685 
G01 X2.1825 Y0.1694 
G01 X2.1816 Y0.1705 
G01 X2.1808 Y0.1716 
G01 X2.1803 Y0.1729 
G01 X2.1669 Y0.1863 
G01 X2.1494 Y0.1935 
G01 X2.1306 Y0.1935 
G01 X2.1131 Y0.1863 
G01 X2.0997 Y0.1729 
G01 X2.0996 Y0.1726 
G01 X2.0992 Y0.1716 
G01 X2.0984 Y0.1705 
G01 X2.0975 Y0.1694 
G01 X2.0963 Y0.1685 
G01 X2.0953 Y0.1677 
G01 X2.0936 Y0.1670 
G01 X2.0927 Y0.1666 
G01 X2.0911 Y0.1664 
G01 X2.0900 Y0.1663 
G01 X2.0878 Y0.1665 
G01 X2.0873 Y0.1666 
G01 X2.0857 Y0.1673 
G01 X2.0847 Y0.1677 
G01 X2.0836 Y0.1685 
G01 X2.0825 Y0.1694 
G01 X2.0816 Y0.1705 
G01 X2.0808 Y0.1716 
G01 X2.0803 Y0.1729 
G01 X2.0669 Y0.1863 
G01 X2.0494 Y0.1935 
G01 X2.0306 Y0.1935 
G01 X2.0131 Y0.1863 
G00 Z0.1000 
G00 X2.0174 Y0.1736 
G01 Z-0.0070 F10.00 
G01 X2.0232 Y0.1775 F20.00 
G01 X2.0296 Y0.1801 
G01 X2.0365 Y0.1815 
G01 X2.0435 Y0.1815 
G01 X2.0504 Y0.1801 
G01 X2.0568 Y0.1775 
G01 X2.0626 Y0.1736 
G01 X2.0676 Y0.1686 
G01 X2.0715 Y0.1628 
G01 X2.0741 Y0.1564 
G01 X2.0755 Y0.1495 
G01 X2.0755 Y0.0805 
G01 X2.0741 Y0.0736 
G01 X2.0715 Y0.0672 
G01 X2.0676 Y0.0614 
G01 X2.0626 Y0.0564 
G01 X2.0568 Y0.0525 
G01 X2.0504 Y0.0499 
G01 X2.0435 Y0.0485 
G01 X2.0365 Y0.0485 
G01 X2.0296 Y0.0499 
G01 X2.0232 Y0.0525 
G01 X2.0174 Y0.0564 
G01 X2.0124 Y0.0614 
G01 X2.0085 Y0.0672 
G01 X2.0059 Y0.0736 
G01 X2.0045 Y0.0805 
G01 X2.0045 Y0.1495 
G01 X2.0059 Y0.1564 
G01 X2.0085 Y0.1628 
G01 X2.0124 Y0.1686 
G01 X2.0174 Y0.1736 
G00 Z0.1000 
G00 X2.1174 Y0.1736 
G01 Z-0.0070 F10.00 
G01 X2.1232 Y0.1775 F20.00 
G01 X2.1296 Y0.1801 
G01 X2.1365 Y0.1815 
G01 X2.1435 Y0.1815 
G01 X2.1504 Y0.1801 
G01 X2.1568 Y0.1775 
G01 X2.1626 Y0.1736 
G01 X2.1676 Y0.1686 
G01 X2.1715 Y0.1628 
G01 X2.1741 Y0.1564 
G01 X2.1755 Y0.1495 
G01 X2.1755 Y0.0805 
G01 X2.1741 Y0.0736 
G01 X2.1715 Y0.0672 
G01 X2.1676 Y0.0614 
G01 X2.1626 Y0.0564 
G01 X2.1568 Y0.0525 
G01 X2.1504 Y0.0499 
G01 X2.1435 Y0.0485 
G01 X2.1365 Y0.0485 
G01 X2.1296 Y0.0499 
G01 X2.1232 Y0.0525 
G01 X2.1174 Y0.0564 
G01 X2.1124 Y0.0614 
G01 X2.1085 Y0.0672 
G01 X2.1059 Y0.0736 
G01 X2.1045 Y0.0805 
G01 X2.1045 Y0.1495 
G01 X2.1059 Y0.1564 
G01 X2.1085 Y0.1628 
G01 X2.1124 Y0.1686 
G01 X2.1174 Y0.1736 
G00 Z0.1000 
G00 X2.2174 Y0.1736 
G01 Z-0.0070 F10.00 
G01 X2.2232 Y0.1775 F20.00 
G01 X2.2296 Y0.1801 
G01 X2.2365 Y0.1815 
G01 X2.2435 Y0.1815 
G01 X2.2504 Y0.1801 
G01 X2.2568 Y0.1775 
G01 X2.2626 Y0.1736 
G01 X2.2676 Y0.1686 
G01 X2.2715 Y0.1628 
G01 X2.2741 Y0.1564 
G01 X2.2755 Y0.1495 
G01 X2.2755 Y0.0805 
G01 X2.2741 Y0.0736 
G01 X2.2715 Y0.0672 
G01 X2.2676 Y0.0614 
G01 X2.2626 Y0.0564 
G01 X2.2568 Y0.0525 
G01 X2.2504 Y0.0499 
G01 X2.2435 Y0.0485 
G01 X2.2365 Y0.0485 
G01 X2.2296 Y0.0499 
G01 X2.2232 Y0.0525 
G01 X2.2174 Y0.0564 
G01 X2.2124 Y0.0614 
G01 X2.2085 Y0.0672 
G01 X2.2059 Y0.0736 
G01 X2.2045 Y0.0805 
G01 X2.2045 Y0.1495 
G01 X2.2059 Y0.1564 
G01 X2.2085 Y0.1628 
G01 X2.2124 Y0.1686 
G01 X2.2174 Y0.1736 
G00 Z0.1000 
G00 X2.2131 Y0.3437 
G01 Z-0.0070 F10.00 
G01 X2.2306 Y0.3365 F20.00 
G01 X2.2494 Y0.3365 
G01 X2.2669 Y0.3437 
G01 X2.2803 Y0.3571 
G01 X2.2875 Y0.3746 
G01 X2.2875 Y0.4554 
G01 X2.2803 Y0.4729 
G01 X2.2669 Y0.4863 
G01 X2.2494 Y0.4935 
G01 X2.2306 Y0.4935 
G01 X2.2131 Y0.4863 
G01 X2.1997 Y0.4729 
G01 X2.1992 Y0.4716 
G01 X2.1984 Y0.4705 
G01 X2.1975 Y0.4694 
G01 X2.1963 Y0.4685 
G01 X2.1953 Y0.4677 
G01 X2.1943 Y0.4673 
G01 X2.1927 Y0.4666 
G01 X2.1921 Y0.4665 
G01 X2.1900 Y0.4663 
G01 X2.1889 Y0.4664 
G01 X2.1873 Y0.4666 
G01 X2.1864 Y0.4670 
G01 X2.1847 Y0.4677 
G01 X2.1836 Y0.4685 
G01 X2.1825 Y0.4694 
G01 X2.1816 Y0.4705 
G01 X2.1808 Y0.4716 
G01 X2.1804 Y0.4726 
G01 X2.1803 Y0.4729 
G01 X2.1669 Y0.4863 
G01 X2.1494 Y0.4935 
G01 X2.1306 Y0.4935 
G01 X2.1145 Y0.4869 
G01 X2.1127 Y0.4850 
G01 X2.1107 Y0.4838 
G01 X2.0997 Y0.4729 
G01 X2.0992 Y0.4716 
G01 X2.0984 Y0.4705 
G01 X2.0975 Y0.4694 
G01 X2.0963 Y0.4685 
G01 X2.0953 Y0.4677 
G01 X2.0943 Y0.4673 
G01 X2.0927 Y0.4666 
G01 X2.0921 Y0.4665 
G01 X2.0900 Y0.4663 
G01 X2.0889 Y0.4664 
G01 X2.0873 Y0.4666 
G01 X2.0864 Y0.4670 
G01 X2.0847 Y0.4677 
G01 X2.0836 Y0.4685 
G01 X2.0825 Y0.4694 
G01 X2.0816 Y0.4705 
G01 X2.0808 Y0.4716 
G01 X2.0804 Y0.4726 
G01 X2.0803 Y0.4729 
G01 X2.0707 Y0.4825 
G01 X2.0093 Y0.4825 
G01 X1.9997 Y0.4729 
G01 X1.9925 Y0.4554 
G01 X1.9925 Y0.3746 
G01 X1.9997 Y0.3571 
G01 X2.0131 Y0.3437 
G01 X2.0306 Y0.3365 
G01 X2.0494 Y0.3365 
G01 X2.0669 Y0.3437 
G01 X2.0803 Y0.3571 
G01 X2.0804 Y0.3574 
G01 X2.0808 Y0.3584 
G01 X2.0816 Y0.3595 
G01 X2.0825 Y0.3606 
G01 X2.0837 Y0.3615 
G01 X2.0847 Y0.3623 
G01 X2.0864 Y0.3630 
G01 X2.0873 Y0.3634 
G01 X2.0889 Y0.3636 
G01 X2.0900 Y0.3637 
G01 X2.0922 Y0.3635 
G01 X2.0927 Y0.3634 
G01 X2.0943 Y0.3627 
G01 X2.0953 Y0.3623 
G01 X2.0964 Y0.3615 
G01 X2.0975 Y0.3606 
G01 X2.0984 Y0.3595 
G01 X2.0992 Y0.3584 
G01 X2.0997 Y0.3571 
G01 X2.1131 Y0.3437 
G01 X2.1306 Y0.3365 
G01 X2.1494 Y0.3365 
G01 X2.1669 Y0.3437 
G01 X2.1803 Y0.3571 
G01 X2.1804 Y0.3574 
G01 X2.1808 Y0.3584 
G01 X2.1816 Y0.3595 
G01 X2.1825 Y0.3606 
G01 X2.1837 Y0.3615 
G01 X2.1847 Y0.3623 
G01 X2.1864 Y0.3630 
G01 X2.1873 Y0.3634 
G01 X2.1889 Y0.3636 
G01 X2.1900 Y0.3637 
G01 X2.1922 Y0.3635 
G01 X2.1927 Y0.3634 
G01 X2.1943 Y0.3627 
G01 X2.1953 Y0.3623 
G01 X2.1964 Y0.3615 
G01 X2.1975 Y0.3606 
G01 X2.1984 Y0.3595 
G01 X2.1992 Y0.3584 
G01 X2.1997 Y0.3571 
G01 X2.2131 Y0.3437 
G00 Z0.1000 
G00 X2.2174 Y0.3564 
G01 Z-0.0070 F10.00 
G01 X2.2124 Y0.3614 F20.00 
G01 X2.2085 Y0.3672 
G01 X2.2059 Y0.3736 
G01 X2.2045 Y0.3805 
G01 X2.2045 Y0.4495 
G01 X2.2059 Y0.4564 
G01 X2.2085 Y0.4628 
G01 X2.2124 Y0.4686 
G01 X2.2174 Y0.4736 
G01 X2.2232 Y0.4775 
G01 X2.2296 Y0.4801 
G01 X2.2365 Y0.4815 
G01 X2.2435 Y0.4815 
G01 X2.2504 Y0.4801 
G01 X2.2568 Y0.4775 
G01 X2.2626 Y0.4736 
G01 X2.2676 Y0.4686 
G01 X2.2715 Y0.4628 
G01 X2.2741 Y0.4564 
G01 X2.2755 Y0.4495 
G01 X2.2755 Y0.3805 
G01 X2.2741 Y0.3736 
G01 X2.2715 Y0.3672 
G01 X2.2676 Y0.3614 
G01 X2.2626 Y0.3564 
G01 X2.2568 Y0.3525 
G01 X2.2504 Y0.3499 
G01 X2.2435 Y0.3485 
G01 X2.2365 Y0.3485 
G01 X2.2296 Y0.3499 
G01 X2.2232 Y0.3525 
G01 X2.2174 Y0.3564 
G00 Z0.1000 
G00 X2.1626 Y0.3564 
G01 Z-0.0070 F10.00 
G01 X2.1568 Y0.3525 F20.00 
G01 X2.1504 Y0.3499 
G01 X2.1435 Y0.3485 
G01 X2.1365 Y0.3485 
G01 X2.1296 Y0.3499 
G01 X2.1232 Y0.3525 
G01 X2.1174 Y0.3564 
G01 X2.1124 Y0.3614 
G01 X2.1085 Y0.3672 
G01 X2.1059 Y0.3736 
G01 X2.1045 Y0.3805 
G01 X2.1045 Y0.4495 
G01 X2.1059 Y0.4564 
G01 X2.1085 Y0.4628 
G01 X2.1124 Y0.4686 
G01 X2.1174 Y0.4736 
G01 X2.1232 Y0.4775 
G01 X2.1296 Y0.4801 
G01 X2.1365 Y0.4815 
G01 X2.1435 Y0.4815 
G01 X2.1504 Y0.4801 
G01 X2.1568 Y0.4775 
G01 X2.1626 Y0.4736 
G01 X2.1676 Y0.4686 
G01 X2.1715 Y0.4628 
G01 X2.1741 Y0.4564 
G01 X2.1755 Y0.4495 
G01 X2.1755 Y0.3805 
G01 X2.1741 Y0.3736 
G01 X2.1715 Y0.3672 
G01 X2.1676 Y0.3614 
G01 X2.1626 Y0.3564 
G00 Z0.1000 
G00 X2.0626 Y0.3564 
G01 Z-0.0070 F10.00 
G01 X2.0568 Y0.3525 F20.00 
G01 X2.0504 Y0.3499 
G01 X2.0435 Y0.3485 
G01 X2.0365 Y0.3485 
G01 X2.0296 Y0.3499 
G01 X2.0232 Y0.3525 
G01 X2.0174 Y0.3564 
G01 X2.0124 Y0.3614 
G01 X2.0085 Y0.3672 
G01 X2.0059 Y0.3736 
G01 X2.0045 Y0.3805 
G01 X2.0045 Y0.4495 
G01 X2.0059 Y0.4564 
G01 X2.0085 Y0.4628 
G01 X2.0124 Y0.4686 
G01 X2.0174 Y0.4736 
G01 X2.0232 Y0.4775 
G01 X2.0296 Y0.4801 
G01 X2.0365 Y0.4815 
G01 X2.0435 Y0.4815 
G01 X2.0504 Y0.4801 
G01 X2.0568 Y0.4775 
G01 X2.0626 Y0.4736 
G01 X2.0676 Y0.4686 
G01 X2.0715 Y0.4628 
G01 X2.0741 Y0.4564 
G01 X2.0755 Y0.4495 
G01 X2.0755 Y0.3805 
G01 X2.0741 Y0.3736 
G01 X2.0715 Y0.3672 
G01 X2.0676 Y0.3614 
G01 X2.0626 Y0.3564 
G00 Z0.1000 
G00 X2.3325 Y0.7985 
G01 Z-0.0070 F10.00 
G01 X2.3875 Y0.7985 F20.00 
G01 X2.4265 Y0.8375 
G01 X2.4265 Y0.8925 
G01 X2.3875 Y0.9315 
G01 X2.3325 Y0.9315 
G01 X2.2935 Y0.8925 
G01 X2.2935 Y0.8375 
G01 X2.3325 Y0.7985 
G00 Z0.1000 
G00 X2.3374 Y0.8105 
G01 Z-0.0070 F10.00 
G01 X2.3055 Y0.8424 F20.00 
G01 X2.3055 Y0.8876 
G01 X2.3374 Y0.9195 
G01 X2.3826 Y0.9195 
G01 X2.4145 Y0.8876 
G01 X2.4145 Y0.8424 
G01 X2.3826 Y0.8105 
G01 X2.3374 Y0.8105 
G00 Z0.1000 
G00 X2.3325 Y1.0985 
G01 Z-0.0070 F10.00 
G01 X2.3875 Y1.0985 F20.00 
G01 X2.4265 Y1.1375 
G01 X2.4265 Y1.1925 
G01 X2.3875 Y1.2315 
G01 X2.3325 Y1.2315 
G01 X2.2935 Y1.1925 
G01 X2.2935 Y1.1375 
G01 X2.3325 Y1.0985 
G00 Z0.1000 
G00 X2.3374 Y1.1105 
G01 Z-0.0070 F10.00 
G01 X2.3055 Y1.1424 F20.00 
G01 X2.3055 Y1.1876 
G01 X2.3374 Y1.2195 
G01 X2.3826 Y1.2195 
G01 X2.4145 Y1.1876 
G01 X2.4145 Y1.1424 
G01 X2.3826 Y1.1105 
G01 X2.3374 Y1.1105 
G00 Z0.1000 
G00 X0.1947 Y1.1230 
G01 Z-0.0070 F10.00 
G01 X0.2170 Y1.1453 F20.00 
G01 X0.2290 Y1.1743 
G01 X0.2290 Y1.2057 
G01 X0.2170 Y1.2347 
G01 X0.1947 Y1.2570 
G01 X0.1657 Y1.2690 
G01 X0.1343 Y1.2690 
G01 X0.1052 Y1.2570 
G01 X0.0830 Y1.2347 
G01 X0.0710 Y1.2057 
G01 X0.0710 Y1.1743 
G01 X0.0830 Y1.1453 
G01 X0.1052 Y1.1230 
G01 X0.1343 Y1.1110 
G01 X0.1657 Y1.1110 
G01 X0.1947 Y1.1230 
(Between Passes)
(Top between passes)
G00 Z0.1000 
G00 X-0.0114 Y-0.0105 
G01 Z-0.0070 F10.00 
G01 X-0.0105 Y-0.0114 F20.00 
G01 X-0.0114 Y-0.0114 
G01 X-0.0114 Y-0.0105 
G00 Z0.1000 
G00 X0.1081 Y0.0673 
G01 Z-0.0070 F10.00 
G01 X0.0873 Y0.0881 F20.00 
G01 X0.0760 Y0.1153 
G01 X0.0760 Y0.1447 
G01 X0.0873 Y0.1719 
G01 X0.1081 Y0.1927 
G01 X0.1353 Y0.2040 
G01 X0.1647 Y0.2040 
G01 X0.1919 Y0.1927 
G01 X0.2127 Y0.1719 
G01 X0.2240 Y0.1447 
G01 X0.2240 Y0.1153 
G01 X0.2127 Y0.0881 
G01 X0.1919 Y0.0673 
G01 X0.1647 Y0.0560 
G01 X0.1353 Y0.0560 
G01 X0.1081 Y0.0673 
G00 Z0.1000 
G00 X0.3735 Y0.0940 
G01 Z-0.0070 F10.00 
G01 X0.3705 Y0.1011 F20.00 
G01 X0.3705 Y0.4332 
G01 X0.3694 Y0.4372 
G01 X0.3674 Y0.4407 
G01 X0.3645 Y0.4436 
G01 X0.3610 Y0.4456 
G01 X0.3570 Y0.4467 
G01 X0.3445 Y0.4467 
G01 X0.3405 Y0.4456 
G01 X0.3370 Y0.4436 
G01 X0.3341 Y0.4407 
G01 X0.3326 Y0.4382 
G01 X0.3320 Y0.4372 
G01 X0.3314 Y0.4347 
G01 X0.3310 Y0.4332 
G01 X0.3310 Y0.4291 
G01 X0.3320 Y0.4252 
G01 X0.3341 Y0.4217 
G01 X0.3365 Y0.4193 
G01 X0.3365 Y0.3807 
G01 X0.3093 Y0.3535 
G01 X0.2707 Y0.3535 
G01 X0.2524 Y0.3718 
G01 X0.2495 Y0.3747 
G01 X0.2460 Y0.3768 
G01 X0.2421 Y0.3778 
G01 X0.2380 Y0.3778 
G01 X0.2340 Y0.3768 
G01 X0.2305 Y0.3747 
G01 X0.2093 Y0.3535 
G01 X0.1707 Y0.3535 
G01 X0.1435 Y0.3807 
G01 X0.1435 Y0.4193 
G01 X0.1647 Y0.4405 
G01 X0.1668 Y0.4440 
G01 X0.1678 Y0.4480 
G01 X0.1678 Y0.4520 
G01 X0.1668 Y0.4560 
G01 X0.1647 Y0.4595 
G01 X0.1618 Y0.4624 
G01 X0.1435 Y0.4807 
G01 X0.1435 Y0.5193 
G01 X0.1618 Y0.5376 
G01 X0.1647 Y0.5405 
G01 X0.1668 Y0.5440 
G01 X0.1678 Y0.5479 
G01 X0.1678 Y0.5520 
G01 X0.1668 Y0.5560 
G01 X0.1647 Y0.5595 
G01 X0.1435 Y0.5807 
G01 X0.1435 Y0.6193 
G01 X0.1618 Y0.6376 
G01 X0.1647 Y0.6405 
G01 X0.1668 Y0.6440 
G01 X0.1678 Y0.6479 
G01 X0.1678 Y0.6520 
G01 X0.1668 Y0.6560 
G01 X0.1647 Y0.6595 
G01 X0.1435 Y0.6807 
G01 X0.1435 Y0.7193 
G01 X0.1618 Y0.7376 
G01 X0.1647 Y0.7405 
G01 X0.1668 Y0.7440 
G01 X0.1678 Y0.7479 
G01 X0.1678 Y0.7520 
G01 X0.1668 Y0.7560 
G01 X0.1647 Y0.7595 
G01 X0.1435 Y0.7807 
G01 X0.1435 Y0.8193 
G01 X0.1618 Y0.8376 
G01 X0.1647 Y0.8405 
G01 X0.1668 Y0.8440 
G01 X0.1678 Y0.8479 
G01 X0.1678 Y0.8520 
G01 X0.1668 Y0.8560 
G01 X0.1647 Y0.8595 
G01 X0.1435 Y0.8807 
G01 X0.1435 Y0.9193 
G01 X0.1618 Y0.9376 
G01 X0.1647 Y0.9405 
G01 X0.1668 Y0.9440 
G01 X0.1678 Y0.9479 
G01 X0.1678 Y0.9520 
G01 X0.1668 Y0.9560 
G01 X0.1647 Y0.9595 
G01 X0.1435 Y0.9807 
G01 X0.1435 Y1.0193 
G01 X0.1707 Y1.0465 
G01 X0.2093 Y1.0465 
G01 X0.2311 Y1.0246 
G01 X0.2335 Y1.0222 
G01 X0.2340 Y1.0217 
G01 X0.2376 Y1.0197 
G01 X0.2414 Y1.0187 
G01 X0.2456 Y1.0186 
G01 X0.2458 Y1.0187 
G01 X0.2455 Y1.0184 
G01 X0.2455 Y0.9816 
G01 X0.2458 Y0.9813 
G01 X0.2456 Y0.9814 
G01 X0.2415 Y0.9814 
G01 X0.2376 Y0.9803 
G01 X0.2340 Y0.9783 
G01 X0.2153 Y0.9595 
G01 X0.2132 Y0.9560 
G01 X0.2122 Y0.9520 
G01 X0.2122 Y0.9480 
G01 X0.2132 Y0.9440 
G01 X0.2153 Y0.9405 
G01 X0.2182 Y0.9376 
G01 X0.2305 Y0.9253 
G01 X0.2340 Y0.9232 
G01 X0.2380 Y0.9222 
G01 X0.2420 Y0.9222 
G01 X0.2460 Y0.9232 
G01 X0.2495 Y0.9253 
G01 X0.2524 Y0.9282 
G01 X0.2683 Y0.9440 
G01 X0.2703 Y0.9476 
G01 X0.2714 Y0.9515 
G01 X0.2714 Y0.9556 
G01 X0.2713 Y0.9558 
G01 X0.2716 Y0.9555 
G01 X0.3084 Y0.9555 
G01 X0.3087 Y0.9558 
G01 X0.3086 Y0.9556 
G01 X0.3086 Y0.9515 
G01 X0.3097 Y0.9476 
G01 X0.3117 Y0.9440 
G01 X0.3146 Y0.9411 
G01 X0.3217 Y0.9341 
G01 X0.3252 Y0.9320 
G01 X0.3291 Y0.9310 
G01 X0.3332 Y0.9310 
G01 X0.3372 Y0.9320 
G01 X0.3407 Y0.9341 
G01 X0.3436 Y0.9370 
G01 X0.3456 Y0.9405 
G01 X0.3464 Y0.9435 
G01 X0.3484 Y0.9483 
G01 X0.3517 Y0.9516 
G01 X0.3559 Y0.9533 
G01 X0.4432 Y0.9533 
G01 X0.4472 Y0.9544 
G01 X0.4507 Y0.9564 
G01 X0.4536 Y0.9593 
G01 X0.4556 Y0.9628 
G01 X0.4567 Y0.9668 
G01 X0.4567 Y1.0191 
G01 X0.4584 Y1.0231 
G01 X0.4589 Y1.0240 
G01 X0.4591 Y1.0250 
G01 X0.4595 Y1.0260 
G01 X0.4597 Y1.0270 
G01 X0.4599 Y1.0280 
G01 X0.4599 Y1.0290 
G01 X0.4601 Y1.0300 
G01 X0.4599 Y1.0310 
G01 X0.4599 Y1.0320 
G01 X0.4597 Y1.0330 
G01 X0.4595 Y1.0340 
G01 X0.4591 Y1.0350 
G01 X0.4589 Y1.0360 
G01 X0.4584 Y1.0369 
G01 X0.4580 Y1.0378 
G01 X0.4573 Y1.0386 
G01 X0.4568 Y1.0395 
G01 X0.4561 Y1.0402 
G01 X0.4555 Y1.0411 
G01 X0.4547 Y1.0417 
G01 X0.4539 Y1.0424 
G01 X0.4531 Y1.0429 
G01 X0.4522 Y1.0435 
G01 X0.4513 Y1.0439 
G01 X0.4504 Y1.0444 
G01 X0.4494 Y1.0447 
G01 X0.4485 Y1.0451 
G01 X0.4475 Y1.0452 
G01 X0.4465 Y1.0455 
G01 X0.4454 Y1.0455 
G01 X0.4444 Y1.0456 
G01 X0.4434 Y1.0455 
G01 X0.4061 Y1.0455 
G01 X0.3990 Y1.0485 
G01 X0.3947 Y1.0527 
G01 X0.3885 Y1.0590 
G01 X0.3855 Y1.0661 
G01 X0.3855 Y1.1232 
G01 X0.3844 Y1.1272 
G01 X0.3824 Y1.1307 
G01 X0.3795 Y1.1336 
G01 X0.3760 Y1.1356 
G01 X0.3720 Y1.1367 
G01 X0.3659 Y1.1367 
G01 X0.3617 Y1.1384 
G01 X0.3584 Y1.1417 
G01 X0.3567 Y1.1459 
G01 X0.3567 Y1.2341 
G01 X0.3584 Y1.2383 
G01 X0.3617 Y1.2416 
G01 X0.3659 Y1.2433 
G01 X0.4541 Y1.2433 
G01 X0.4583 Y1.2416 
G01 X0.4616 Y1.2383 
G01 X0.4633 Y1.2341 
G01 X0.4633 Y1.1459 
G01 X0.4616 Y1.1417 
G01 X0.4583 Y1.1384 
G01 X0.4541 Y1.1367 
G01 X0.4380 Y1.1367 
G01 X0.4340 Y1.1356 
G01 X0.4305 Y1.1336 
G01 X0.4276 Y1.1307 
G01 X0.4256 Y1.1272 
G01 X0.4245 Y1.1232 
G01 X0.4245 Y1.0980 
G01 X0.4256 Y1.0940 
G01 X0.4276 Y1.0905 
G01 X0.4305 Y1.0876 
G01 X0.4340 Y1.0856 
G01 X0.4380 Y1.0845 
G01 X0.6132 Y1.0845 
G01 X0.6172 Y1.0856 
G01 X0.6207 Y1.0876 
G01 X0.6236 Y1.0905 
G01 X0.6256 Y1.0940 
G01 X0.6267 Y1.0980 
G01 X0.6267 Y1.1091 
G01 X0.6284 Y1.1133 
G01 X0.6317 Y1.1166 
G01 X0.6359 Y1.1183 
G01 X0.7100 Y1.1183 
G01 X0.7140 Y1.1194 
G01 X0.7175 Y1.1214 
G01 X0.7204 Y1.1243 
G01 X0.7224 Y1.1278 
G01 X0.7235 Y1.1318 
G01 X0.7235 Y1.2873 
G01 X0.7253 Y1.2915 
G01 X0.7285 Y1.2947 
G01 X0.7327 Y1.2965 
G01 X0.9373 Y1.2965 
G01 X0.9415 Y1.2947 
G01 X0.9447 Y1.2915 
G01 X0.9465 Y1.2873 
G01 X0.9465 Y1.1258 
G01 X0.9465 Y1.1238 
G01 X0.9465 Y1.1218 
G01 X0.9472 Y1.1193 
G01 X0.9476 Y1.1178 
G01 X0.9488 Y1.1156 
G01 X0.9496 Y1.1143 
G01 X0.9515 Y1.1124 
G01 X0.9525 Y1.1114 
G01 X0.9552 Y1.1099 
G01 X0.9560 Y1.1094 
G01 X0.9582 Y1.1088 
G01 X0.9600 Y1.1083 
G01 X0.9620 Y1.1083 
G01 X0.9640 Y1.1083 
G01 X0.9665 Y1.1090 
G01 X0.9680 Y1.1094 
G01 X0.9702 Y1.1106 
G01 X0.9715 Y1.1114 
G01 X0.9717 Y1.1116 
G01 X0.9727 Y1.1118 
G01 X0.9736 Y1.1123 
G01 X0.9745 Y1.1127 
G01 X0.9753 Y1.1134 
G01 X0.9762 Y1.1139 
G01 X0.9769 Y1.1146 
G01 X0.9778 Y1.1152 
G01 X0.9784 Y1.1160 
G01 X0.9791 Y1.1168 
G01 X0.9796 Y1.1176 
G01 X0.9802 Y1.1185 
G01 X0.9806 Y1.1194 
G01 X0.9811 Y1.1203 
G01 X0.9814 Y1.1213 
G01 X0.9818 Y1.1222 
G01 X0.9819 Y1.1232 
G01 X0.9822 Y1.1242 
G01 X0.9822 Y1.1253 
G01 X0.9823 Y1.1263 
G01 X0.9822 Y1.1273 
G01 X0.9822 Y1.1283 
G01 X0.9819 Y1.1293 
G01 X0.9818 Y1.1303 
G01 X0.9814 Y1.1313 
G01 X0.9811 Y1.1323 
G01 X0.9806 Y1.1331 
G01 X0.9802 Y1.1341 
G01 X0.9796 Y1.1349 
G01 X0.9791 Y1.1358 
G01 X0.9784 Y1.1365 
G01 X0.9778 Y1.1373 
G01 X0.9775 Y1.1375 
G01 X0.9775 Y1.1726 
G01 X1.0024 Y1.1975 
G01 X1.0190 Y1.1975 
G01 X1.0230 Y1.1986 
G01 X1.0265 Y1.2006 
G01 X1.0294 Y1.2035 
G01 X1.0314 Y1.2070 
G01 X1.0323 Y1.2104 
G01 X1.0532 Y1.1895 
G01 X1.0868 Y1.1895 
G01 X1.1077 Y1.2104 
G01 X1.1086 Y1.2070 
G01 X1.1106 Y1.2035 
G01 X1.1135 Y1.2006 
G01 X1.1170 Y1.1986 
G01 X1.1210 Y1.1975 
G01 X1.1376 Y1.1975 
G01 X1.1625 Y1.1726 
G01 X1.1625 Y1.1374 
G01 X1.1376 Y1.1125 
G01 X1.1024 Y1.1125 
G01 X1.0983 Y1.1166 
G01 X1.0948 Y1.1186 
G01 X1.0909 Y1.1197 
G01 X1.0868 Y1.1197 
G01 X1.0858 Y1.1194 
G01 X1.0828 Y1.1186 
G01 X1.0793 Y1.1166 
G01 X1.0764 Y1.1137 
G01 X1.0744 Y1.1101 
G01 X1.0733 Y1.1062 
G01 X1.0733 Y1.0930 
G01 X1.0744 Y1.0890 
G01 X1.0764 Y1.0855 
G01 X1.0793 Y1.0826 
G01 X1.0828 Y1.0806 
G01 X1.0868 Y1.0795 
G01 X1.2250 Y1.0795 
G01 X1.2290 Y1.0806 
G01 X1.2325 Y1.0826 
G01 X1.2354 Y1.0855 
G01 X1.2374 Y1.0890 
G01 X1.2385 Y1.0930 
G01 X1.2385 Y1.2773 
G01 X1.2403 Y1.2815 
G01 X1.2435 Y1.2847 
G01 X1.2477 Y1.2865 
G01 X1.4523 Y1.2865 
G01 X1.4565 Y1.2847 
G01 X1.4597 Y1.2815 
G01 X1.4615 Y1.2773 
G01 X1.4615 Y1.0727 
G01 X1.4597 Y1.0685 
G01 X1.4565 Y1.0653 
G01 X1.4523 Y1.0635 
G01 X1.3918 Y1.0635 
G01 X1.3878 Y1.0624 
G01 X1.3843 Y1.0604 
G01 X1.3814 Y1.0575 
G01 X1.3794 Y1.0540 
G01 X1.3783 Y1.0500 
G01 X1.3783 Y0.9809 
G01 X1.3766 Y0.9767 
G01 X1.3733 Y0.9734 
G01 X1.3691 Y0.9717 
G01 X1.2809 Y0.9717 
G01 X1.2757 Y0.9739 
G01 X1.2748 Y0.9744 
G01 X1.2738 Y0.9746 
G01 X1.2729 Y0.9750 
G01 X1.2718 Y0.9752 
G01 X1.2709 Y0.9754 
G01 X1.2698 Y0.9754 
G01 X1.2688 Y0.9756 
G01 X1.2678 Y0.9754 
G01 X1.2668 Y0.9754 
G01 X1.2658 Y0.9752 
G01 X1.2648 Y0.9750 
G01 X1.2638 Y0.9746 
G01 X1.2628 Y0.9744 
G01 X1.2619 Y0.9739 
G01 X1.2610 Y0.9735 
G01 X1.2602 Y0.9728 
G01 X1.2593 Y0.9723 
G01 X1.2586 Y0.9716 
G01 X1.2578 Y0.9710 
G01 X1.2571 Y0.9702 
G01 X1.2564 Y0.9694 
G01 X1.2559 Y0.9686 
G01 X1.2553 Y0.9677 
G01 X1.2549 Y0.9668 
G01 X1.2544 Y0.9659 
G01 X1.2541 Y0.9649 
G01 X1.2537 Y0.9640 
G01 X1.2536 Y0.9630 
G01 X1.2533 Y0.9620 
G01 X1.2533 Y0.9609 
G01 X1.2532 Y0.9599 
G01 X1.2533 Y0.9589 
G01 X1.2533 Y0.9559 
G01 X1.2516 Y0.9517 
G01 X1.2483 Y0.9484 
G01 X1.2441 Y0.9467 
G01 X1.1559 Y0.9467 
G01 X1.1517 Y0.9484 
G01 X1.1484 Y0.9517 
G01 X1.1467 Y0.9559 
G01 X1.1467 Y0.9670 
G01 X1.1456 Y0.9710 
G01 X1.1436 Y0.9745 
G01 X1.1407 Y0.9774 
G01 X1.1372 Y0.9794 
G01 X1.1332 Y0.9805 
G01 X0.5768 Y0.9805 
G01 X0.5728 Y0.9794 
G01 X0.5693 Y0.9774 
G01 X0.5664 Y0.9745 
G01 X0.5644 Y0.9710 
G01 X0.5633 Y0.9670 
G01 X0.5633 Y0.9309 
G01 X0.5616 Y0.9267 
G01 X0.5583 Y0.9234 
G01 X0.5541 Y0.9217 
G01 X0.4668 Y0.9217 
G01 X0.4628 Y0.9206 
G01 X0.4593 Y0.9186 
G01 X0.4564 Y0.9157 
G01 X0.4544 Y0.9122 
G01 X0.4533 Y0.9082 
G01 X0.4533 Y0.8559 
G01 X0.4516 Y0.8517 
G01 X0.4483 Y0.8484 
G01 X0.4441 Y0.8467 
G01 X0.4330 Y0.8467 
G01 X0.4290 Y0.8456 
G01 X0.4255 Y0.8436 
G01 X0.4226 Y0.8407 
G01 X0.4206 Y0.8372 
G01 X0.4195 Y0.8332 
G01 X0.4195 Y0.7775 
G01 X0.4194 Y0.7765 
G01 X0.4195 Y0.7755 
G01 X0.4195 Y0.7745 
G01 X0.4198 Y0.7735 
G01 X0.4199 Y0.7725 
G01 X0.4203 Y0.7715 
G01 X0.4206 Y0.7705 
G01 X0.4211 Y0.7696 
G01 X0.4215 Y0.7687 
G01 X0.4221 Y0.7679 
G01 X0.4226 Y0.7670 
G01 X0.4233 Y0.7663 
G01 X0.4239 Y0.7655 
G01 X0.4248 Y0.7648 
G01 X0.4255 Y0.7641 
G01 X0.4264 Y0.7636 
G01 X0.4272 Y0.7630 
G01 X0.4281 Y0.7626 
G01 X0.4290 Y0.7621 
G01 X0.4300 Y0.7618 
G01 X0.4310 Y0.7614 
G01 X0.4320 Y0.7613 
G01 X0.4330 Y0.7610 
G01 X0.4340 Y0.7610 
G01 X0.4350 Y0.7609 
G01 X0.4360 Y0.7610 
G01 X0.4370 Y0.7610 
G01 X0.4380 Y0.7613 
G01 X0.4390 Y0.7614 
G01 X0.4400 Y0.7618 
G01 X0.4410 Y0.7621 
G01 X0.4419 Y0.7626 
G01 X0.4428 Y0.7630 
G01 X0.4436 Y0.7636 
G01 X0.4445 Y0.7641 
G01 X0.4452 Y0.7648 
G01 X0.4461 Y0.7655 
G01 X0.4467 Y0.7663 
G01 X0.4474 Y0.7670 
G01 X0.4479 Y0.7679 
G01 X0.4485 Y0.7687 
G01 X0.4489 Y0.7696 
G01 X0.4494 Y0.7705 
G01 X0.4497 Y0.7715 
G01 X0.4567 Y0.7884 
G01 X0.4720 Y0.8038 
G01 X0.4921 Y0.8121 
G01 X0.5138 Y0.8121 
G01 X0.5338 Y0.8038 
G01 X0.5491 Y0.7884 
G01 X0.5574 Y0.7684 
G01 X0.5574 Y0.7467 
G01 X0.5491 Y0.7267 
G01 X0.5338 Y0.7114 
G01 X0.5138 Y0.7031 
G01 X0.4921 Y0.7031 
G01 X0.4720 Y0.7114 
G01 X0.4567 Y0.7267 
G01 X0.4497 Y0.7436 
G01 X0.4494 Y0.7446 
G01 X0.4489 Y0.7455 
G01 X0.4485 Y0.7464 
G01 X0.4479 Y0.7472 
G01 X0.4474 Y0.7481 
G01 X0.4467 Y0.7488 
G01 X0.4461 Y0.7497 
G01 X0.4452 Y0.7503 
G01 X0.4445 Y0.7510 
G01 X0.4436 Y0.7515 
G01 X0.4428 Y0.7521 
G01 X0.4419 Y0.7525 
G01 X0.4410 Y0.7530 
G01 X0.4400 Y0.7533 
G01 X0.4390 Y0.7537 
G01 X0.4380 Y0.7538 
G01 X0.4370 Y0.7541 
G01 X0.4360 Y0.7541 
G01 X0.4350 Y0.7542 
G01 X0.4340 Y0.7541 
G01 X0.4330 Y0.7541 
G01 X0.4320 Y0.7538 
G01 X0.4310 Y0.7537 
G01 X0.4300 Y0.7533 
G01 X0.4290 Y0.7530 
G01 X0.4281 Y0.7525 
G01 X0.4272 Y0.7521 
G01 X0.4264 Y0.7515 
G01 X0.4255 Y0.7510 
G01 X0.4248 Y0.7503 
G01 X0.4239 Y0.7497 
G01 X0.4233 Y0.7488 
G01 X0.4226 Y0.7481 
G01 X0.4221 Y0.7472 
G01 X0.4215 Y0.7464 
G01 X0.4211 Y0.7455 
G01 X0.4206 Y0.7446 
G01 X0.4203 Y0.7436 
G01 X0.4199 Y0.7426 
G01 X0.4198 Y0.7416 
G01 X0.4195 Y0.7406 
G01 X0.4195 Y0.7396 
G01 X0.4194 Y0.7386 
G01 X0.4195 Y0.7376 
G01 X0.4195 Y0.6225 
G01 X0.4206 Y0.6185 
G01 X0.4226 Y0.6150 
G01 X0.4561 Y0.5815 
G01 X0.4567 Y0.5807 
G01 X0.4575 Y0.5800 
G01 X0.4583 Y0.5793 
G01 X0.4591 Y0.5788 
G01 X0.4600 Y0.5782 
G01 X0.4609 Y0.5778 
G01 X0.4618 Y0.5773 
G01 X0.4628 Y0.5770 
G01 X0.4637 Y0.5766 
G01 X0.4647 Y0.5765 
G01 X0.4657 Y0.5762 
G01 X0.4668 Y0.5762 
G01 X0.4678 Y0.5761 
G01 X0.4688 Y0.5762 
G01 X0.4698 Y0.5762 
G01 X0.4708 Y0.5765 
G01 X0.4718 Y0.5766 
G01 X0.4728 Y0.5770 
G01 X0.4738 Y0.5773 
G01 X0.4746 Y0.5778 
G01 X0.4759 Y0.5783 
G01 X0.5641 Y0.5783 
G01 X0.5683 Y0.5766 
G01 X0.5716 Y0.5733 
G01 X0.5733 Y0.5691 
G01 X0.5733 Y0.4809 
G01 X0.5716 Y0.4767 
G01 X0.5683 Y0.4734 
G01 X0.5641 Y0.4717 
G01 X0.5530 Y0.4717 
G01 X0.5490 Y0.4706 
G01 X0.5455 Y0.4686 
G01 X0.5426 Y0.4657 
G01 X0.5406 Y0.4622 
G01 X0.5395 Y0.4582 
G01 X0.5395 Y0.3018 
G01 X0.5406 Y0.2978 
G01 X0.5426 Y0.2943 
G01 X0.5455 Y0.2914 
G01 X0.5490 Y0.2894 
G01 X0.5530 Y0.2883 
G01 X0.5541 Y0.2883 
G01 X0.5583 Y0.2866 
G01 X0.5616 Y0.2833 
G01 X0.5633 Y0.2791 
G01 X0.5633 Y0.1909 
G01 X0.5616 Y0.1867 
G01 X0.5583 Y0.1834 
G01 X0.5541 Y0.1817 
G01 X0.4680 Y0.1817 
G01 X0.4640 Y0.1806 
G01 X0.4605 Y0.1786 
G01 X0.4576 Y0.1757 
G01 X0.4556 Y0.1722 
G01 X0.4545 Y0.1682 
G01 X0.4545 Y0.1475 
G01 X0.4556 Y0.1435 
G01 X0.4576 Y0.1400 
G01 X0.4605 Y0.1371 
G01 X0.4750 Y0.1226 
G01 X0.4785 Y0.1206 
G01 X0.4825 Y0.1195 
G01 X0.6550 Y0.1195 
G01 X0.6562 Y0.1194 
G01 X0.6570 Y0.1195 
G01 X0.6578 Y0.1195 
G01 X0.6590 Y0.1198 
G01 X0.6602 Y0.1200 
G01 X0.6610 Y0.1203 
G01 X0.6618 Y0.1206 
G01 X0.6628 Y0.1212 
G01 X0.6639 Y0.1217 
G01 X0.6646 Y0.1222 
G01 X0.6653 Y0.1226 
G01 X0.6662 Y0.1235 
G01 X0.6671 Y0.1242 
G01 X0.6676 Y0.1249 
G01 X0.6682 Y0.1255 
G01 X0.6688 Y0.1265 
G01 X0.6695 Y0.1275 
G01 X0.6698 Y0.1283 
G01 X0.6702 Y0.1290 
G01 X0.6705 Y0.1302 
G01 X0.6710 Y0.1314 
G01 X0.6711 Y0.1322 
G01 X0.6713 Y0.1330 
G01 X0.6713 Y0.1342 
G01 X0.6714 Y0.1354 
G01 X0.6713 Y0.1362 
G01 X0.6713 Y0.1370 
G01 X0.6710 Y0.1382 
G01 X0.6708 Y0.1394 
G01 X0.6704 Y0.1402 
G01 X0.6702 Y0.1410 
G01 X0.6696 Y0.1420 
G01 X0.6696 Y0.1421 
G01 X0.6722 Y0.1411 
G01 X0.6800 Y0.1395 
G01 X0.7500 Y0.1395 
G01 X0.7578 Y0.1411 
G01 X0.7604 Y0.1421 
G01 X0.7604 Y0.1420 
G01 X0.7598 Y0.1410 
G01 X0.7596 Y0.1402 
G01 X0.7592 Y0.1394 
G01 X0.7590 Y0.1382 
G01 X0.7587 Y0.1370 
G01 X0.7587 Y0.1362 
G01 X0.7586 Y0.1354 
G01 X0.7587 Y0.1342 
G01 X0.7587 Y0.1330 
G01 X0.7589 Y0.1322 
G01 X0.7590 Y0.1314 
G01 X0.7595 Y0.1302 
G01 X0.7598 Y0.1290 
G01 X0.7602 Y0.1283 
G01 X0.7605 Y0.1275 
G01 X0.7612 Y0.1265 
G01 X0.7618 Y0.1255 
G01 X0.7624 Y0.1249 
G01 X0.7629 Y0.1242 
G01 X0.7638 Y0.1235 
G01 X0.7647 Y0.1226 
G01 X0.7654 Y0.1222 
G01 X0.7661 Y0.1217 
G01 X0.7672 Y0.1212 
G01 X0.7682 Y0.1206 
G01 X0.7690 Y0.1203 
G01 X0.7698 Y0.1200 
G01 X0.7710 Y0.1198 
G01 X0.7722 Y0.1195 
G01 X0.7730 Y0.1195 
G01 X0.7738 Y0.1194 
G01 X0.7750 Y0.1195 
G01 X0.8962 Y0.1195 
G01 X0.8978 Y0.1194 
G01 X0.8983 Y0.1195 
G01 X0.8987 Y0.1195 
G01 X0.9002 Y0.1199 
G01 X0.9018 Y0.1202 
G01 X0.9022 Y0.1204 
G01 X0.9026 Y0.1206 
G01 X0.9040 Y0.1214 
G01 X0.9055 Y0.1221 
G01 X0.9058 Y0.1224 
G01 X0.9062 Y0.1226 
G01 X0.9073 Y0.1237 
G01 X1.0353 Y0.2379 
G01 X1.0357 Y0.2381 
G01 X1.0368 Y0.2393 
G01 X1.0380 Y0.2403 
G01 X1.0383 Y0.2407 
G01 X1.0386 Y0.2410 
G01 X1.0394 Y0.2424 
G01 X1.0403 Y0.2437 
G01 X1.0404 Y0.2442 
G01 X1.0406 Y0.2445 
G01 X1.0410 Y0.2461 
G01 X1.0415 Y0.2476 
G01 X1.0416 Y0.2481 
G01 X1.0417 Y0.2485 
G01 X1.0417 Y0.2501 
G01 X1.0418 Y0.2517 
G01 X1.0417 Y0.2521 
G01 X1.0417 Y0.3091 
G01 X1.0434 Y0.3133 
G01 X1.0467 Y0.3166 
G01 X1.0509 Y0.3183 
G01 X1.1391 Y0.3183 
G01 X1.1433 Y0.3166 
G01 X1.1466 Y0.3133 
G01 X1.1483 Y0.3091 
G01 X1.1483 Y0.2354 
G01 X1.1482 Y0.2344 
G01 X1.1483 Y0.2334 
G01 X1.1483 Y0.2324 
G01 X1.1486 Y0.2314 
G01 X1.1487 Y0.2304 
G01 X1.1491 Y0.2294 
G01 X1.1494 Y0.2284 
G01 X1.1499 Y0.2275 
G01 X1.1503 Y0.2266 
G01 X1.1509 Y0.2258 
G01 X1.1514 Y0.2249 
G01 X1.1521 Y0.2242 
G01 X1.1528 Y0.2234 
G01 X1.1536 Y0.2227 
G01 X1.1543 Y0.2220 
G01 X1.1552 Y0.2215 
G01 X1.1560 Y0.2209 
G01 X1.1569 Y0.2205 
G01 X1.1578 Y0.2200 
G01 X1.1588 Y0.2197 
G01 X1.1598 Y0.2193 
G01 X1.1608 Y0.2192 
G01 X1.1618 Y0.2189 
G01 X1.1628 Y0.2189 
G01 X1.1638 Y0.2188 
G01 X1.1648 Y0.2189 
G01 X1.1659 Y0.2189 
G01 X1.1668 Y0.2192 
G01 X1.1679 Y0.2193 
G01 X1.1688 Y0.2197 
G01 X1.1698 Y0.2200 
G01 X1.1707 Y0.2205 
G01 X1.1755 Y0.2225 
G01 X1.2545 Y0.2225 
G01 X1.2701 Y0.2160 
G01 X1.2820 Y0.2041 
G01 X1.2885 Y0.1885 
G01 X1.2885 Y0.1715 
G01 X1.2820 Y0.1559 
G01 X1.2701 Y0.1440 
G01 X1.2545 Y0.1375 
G01 X1.1755 Y0.1375 
G01 X1.1599 Y0.1440 
G01 X1.1480 Y0.1559 
G01 X1.1415 Y0.1715 
G01 X1.1415 Y0.1885 
G01 X1.1419 Y0.1893 
G01 X1.1424 Y0.1902 
G01 X1.1426 Y0.1912 
G01 X1.1430 Y0.1921 
G01 X1.1432 Y0.1932 
G01 X1.1434 Y0.1941 
G01 X1.1434 Y0.1952 
G01 X1.1436 Y0.1962 
G01 X1.1434 Y0.1972 
G01 X1.1434 Y0.1982 
G01 X1.1432 Y0.1992 
G01 X1.1430 Y0.2002 
G01 X1.1426 Y0.2012 
G01 X1.1424 Y0.2022 
G01 X1.1419 Y0.2031 
G01 X1.1415 Y0.2040 
G01 X1.1408 Y0.2048 
G01 X1.1403 Y0.2057 
G01 X1.1396 Y0.2064 
G01 X1.1390 Y0.2072 
G01 X1.1382 Y0.2079 
G01 X1.1374 Y0.2086 
G01 X1.1366 Y0.2091 
G01 X1.1357 Y0.2097 
G01 X1.1348 Y0.2101 
G01 X1.1339 Y0.2106 
G01 X1.1329 Y0.2109 
G01 X1.1320 Y0.2113 
G01 X1.1310 Y0.2114 
G01 X1.1300 Y0.2117 
G01 X1.1289 Y0.2117 
G01 X1.1279 Y0.2118 
G01 X1.1269 Y0.2117 
G01 X1.0709 Y0.2117 
G01 X1.0693 Y0.2118 
G01 X1.0688 Y0.2117 
G01 X1.0684 Y0.2117 
G01 X1.0668 Y0.2113 
G01 X1.0653 Y0.2110 
G01 X1.0649 Y0.2107 
G01 X1.0644 Y0.2106 
G01 X1.0631 Y0.2098 
G01 X1.0616 Y0.2091 
G01 X1.0613 Y0.2088 
G01 X1.0609 Y0.2086 
G01 X1.0598 Y0.2075 
G01 X0.9535 Y0.1126 
G01 X0.9531 Y0.1124 
G01 X0.9519 Y0.1113 
G01 X0.9507 Y0.1102 
G01 X0.9505 Y0.1098 
G01 X0.9502 Y0.1095 
G01 X0.9494 Y0.1081 
G01 X0.9485 Y0.1068 
G01 X0.9484 Y0.1064 
G01 X0.9481 Y0.1060 
G01 X0.9477 Y0.1044 
G01 X0.9472 Y0.1029 
G01 X0.9472 Y0.1025 
G01 X0.9471 Y0.1020 
G01 X0.9471 Y0.1004 
G01 X0.9470 Y0.0988 
G01 X0.9471 Y0.0984 
G01 X0.9471 Y0.0980 
G01 X0.9475 Y0.0964 
G01 X0.9478 Y0.0949 
G01 X0.9480 Y0.0945 
G01 X0.9481 Y0.0940 
G01 X0.9489 Y0.0926 
G01 X0.9497 Y0.0912 
G01 X0.9500 Y0.0909 
G01 X0.9502 Y0.0905 
G01 X0.9513 Y0.0894 
G01 X0.9524 Y0.0882 
G01 X0.9527 Y0.0879 
G01 X0.9531 Y0.0876 
G01 X0.9544 Y0.0868 
G01 X0.9558 Y0.0859 
G01 X0.9562 Y0.0858 
G01 X0.9566 Y0.0856 
G01 X0.9581 Y0.0851 
G01 X0.9597 Y0.0846 
G01 X0.9601 Y0.0846 
G01 X0.9605 Y0.0845 
G01 X0.9621 Y0.0845 
G01 X0.9637 Y0.0844 
G01 X0.9642 Y0.0845 
G01 X1.8066 Y0.0845 
G01 X1.8077 Y0.0844 
G01 X1.8086 Y0.0845 
G01 X1.8095 Y0.0845 
G01 X1.8106 Y0.0848 
G01 X1.8117 Y0.0849 
G01 X1.8126 Y0.0853 
G01 X1.8135 Y0.0856 
G01 X1.8144 Y0.0861 
G01 X1.8155 Y0.0865 
G01 X1.8162 Y0.0871 
G01 X1.8170 Y0.0876 
G01 X1.8178 Y0.0884 
G01 X1.8187 Y0.0891 
G01 X1.8192 Y0.0898 
G01 X1.8199 Y0.0905 
G01 X1.8205 Y0.0914 
G01 X1.8767 Y0.1665 
G01 X1.8774 Y0.1671 
G01 X1.8780 Y0.1681 
G01 X1.8786 Y0.1690 
G01 X1.8790 Y0.1699 
G01 X1.8794 Y0.1707 
G01 X1.8797 Y0.1718 
G01 X1.8801 Y0.1728 
G01 X1.8803 Y0.1737 
G01 X1.8805 Y0.1746 
G01 X1.8805 Y0.1757 
G01 X1.8806 Y0.1768 
G01 X1.8805 Y0.1778 
G01 X1.8805 Y0.2732 
G01 X1.8794 Y0.2772 
G01 X1.8774 Y0.2807 
G01 X1.8745 Y0.2836 
G01 X1.8710 Y0.2856 
G01 X1.8670 Y0.2867 
G01 X1.8559 Y0.2867 
G01 X1.8517 Y0.2884 
G01 X1.8484 Y0.2917 
G01 X1.8467 Y0.2959 
G01 X1.8467 Y0.3841 
G01 X1.8484 Y0.3883 
G01 X1.8517 Y0.3916 
G01 X1.8559 Y0.3933 
G01 X1.9441 Y0.3933 
G01 X1.9483 Y0.3916 
G01 X1.9516 Y0.3883 
G01 X1.9533 Y0.3841 
G01 X1.9533 Y0.2959 
G01 X1.9516 Y0.2917 
G01 X1.9483 Y0.2884 
G01 X1.9441 Y0.2867 
G01 X1.9330 Y0.2867 
G01 X1.9290 Y0.2856 
G01 X1.9255 Y0.2836 
G01 X1.9226 Y0.2807 
G01 X1.9206 Y0.2772 
G01 X1.9195 Y0.2732 
G01 X1.9195 Y0.1684 
G01 X1.9194 Y0.1673 
G01 X1.9195 Y0.1664 
G01 X1.9195 Y0.1654 
G01 X1.9198 Y0.1644 
G01 X1.9199 Y0.1639 
G01 X1.9195 Y0.1626 
G01 X1.9195 Y0.1625 
G01 X1.9195 Y0.1611 
G01 X1.9193 Y0.1607 
G01 X1.9188 Y0.1597 
G01 X1.9185 Y0.1588 
G01 X1.9182 Y0.1580 
G01 X1.9180 Y0.1568 
G01 X1.9179 Y0.1564 
G01 X1.9171 Y0.1553 
G01 X1.9170 Y0.1552 
G01 X1.9165 Y0.1539 
G01 X1.9162 Y0.1536 
G01 X1.9153 Y0.1529 
G01 X1.9148 Y0.1522 
G01 X1.9141 Y0.1515 
G01 X1.9135 Y0.1506 
G01 X1.8433 Y0.0569 
G01 X1.8421 Y0.0553 
G01 X1.8420 Y0.0552 
G01 X1.8415 Y0.0539 
G01 X1.8412 Y0.0536 
G01 X1.8403 Y0.0529 
G01 X1.8398 Y0.0522 
G01 X1.8391 Y0.0515 
G01 X1.8385 Y0.0506 
G01 X1.8383 Y0.0502 
G01 X1.8371 Y0.0495 
G01 X1.8370 Y0.0494 
G01 X1.8360 Y0.0485 
G01 X1.8356 Y0.0483 
G01 X1.8346 Y0.0480 
G01 X1.8337 Y0.0475 
G01 X1.8329 Y0.0472 
G01 X1.8320 Y0.0465 
G01 X1.8316 Y0.0463 
G01 X1.8303 Y0.0461 
G01 X1.8301 Y0.0460 
G01 X1.8289 Y0.0455 
G01 X1.8284 Y0.0455 
G01 X1.8273 Y0.0456 
G01 X1.8264 Y0.0455 
G01 X1.8254 Y0.0455 
G01 X1.8244 Y0.0452 
G01 X1.8239 Y0.0451 
G01 X1.8226 Y0.0455 
G01 X1.8225 Y0.0455 
G01 X1.8205 Y0.0455 
G01 X0.4261 Y0.0455 
G01 X0.4190 Y0.0485 
G01 X0.3735 Y0.0940 
G00 Z0.1000 
G00 X0.3760 Y0.0943 
G01 Z-0.0070 F10.00 
G01 X0.4193 Y0.0510 F20.00 
G01 X0.4232 Y0.0487 
G01 X0.4277 Y0.0475 
G01 X0.4323 Y0.0475 
G01 X1.8239 Y0.0475 
G01 X1.8252 Y0.0474 
G01 X1.8262 Y0.0475 
G01 X1.8273 Y0.0475 
G01 X1.8285 Y0.0478 
G01 X1.8298 Y0.0480 
G01 X1.8307 Y0.0484 
G01 X1.8318 Y0.0487 
G01 X1.8328 Y0.0493 
G01 X1.8340 Y0.0498 
G01 X1.8348 Y0.0505 
G01 X1.8357 Y0.0510 
G01 X1.8366 Y0.0519 
G01 X1.8376 Y0.0527 
G01 X1.8383 Y0.0535 
G01 X1.8390 Y0.0543 
G01 X1.8396 Y0.0553 
G01 X1.9133 Y0.1535 
G01 X1.9140 Y0.1543 
G01 X1.9146 Y0.1553 
G01 X1.9154 Y0.1563 
G01 X1.9158 Y0.1573 
G01 X1.9163 Y0.1582 
G01 X1.9166 Y0.1595 
G01 X1.9171 Y0.1606 
G01 X1.9172 Y0.1617 
G01 X1.9175 Y0.1627 
G01 X1.9175 Y0.1639 
G01 X1.9176 Y0.1652 
G01 X1.9175 Y0.1662 
G01 X1.9175 Y0.2887 
G01 X1.9437 Y0.2887 
G01 X1.9472 Y0.2901 
G01 X1.9499 Y0.2928 
G01 X1.9513 Y0.2963 
G01 X1.9513 Y0.3837 
G01 X1.9499 Y0.3872 
G01 X1.9472 Y0.3899 
G01 X1.9437 Y0.3913 
G01 X1.8563 Y0.3913 
G01 X1.8528 Y0.3899 
G01 X1.8501 Y0.3872 
G01 X1.8487 Y0.3837 
G01 X1.8487 Y0.2963 
G01 X1.8501 Y0.2928 
G01 X1.8528 Y0.2901 
G01 X1.8563 Y0.2887 
G01 X1.8825 Y0.2887 
G01 X1.8825 Y0.1708 
G01 X1.8162 Y0.0825 
G01 X0.9118 Y0.0825 
G01 X0.9123 Y0.0825 
G01 X0.9140 Y0.0830 
G01 X0.9158 Y0.0833 
G01 X0.9163 Y0.0836 
G01 X0.9168 Y0.0837 
G01 X0.9183 Y0.0846 
G01 X0.9199 Y0.0854 
G01 X0.9203 Y0.0857 
G01 X0.9207 Y0.0860 
G01 X0.9220 Y0.0873 
G01 X1.0638 Y0.2137 
G01 X1.1387 Y0.2137 
G01 X1.1422 Y0.2151 
G01 X1.1449 Y0.2178 
G01 X1.1463 Y0.2213 
G01 X1.1463 Y0.3087 
G01 X1.1449 Y0.3122 
G01 X1.1422 Y0.3149 
G01 X1.1387 Y0.3163 
G01 X1.0513 Y0.3163 
G01 X1.0478 Y0.3149 
G01 X1.0451 Y0.3122 
G01 X1.0437 Y0.3087 
G01 X1.0437 Y0.2427 
G01 X0.9033 Y0.1175 
G01 X0.4772 Y0.1175 
G01 X0.4525 Y0.1422 
G01 X0.4525 Y0.4028 
G01 X0.4640 Y0.4143 
G01 X0.4663 Y0.4182 
G01 X0.4675 Y0.4227 
G01 X0.4675 Y0.5623 
G01 X0.4663 Y0.5668 
G01 X0.4640 Y0.5707 
G01 X0.4607 Y0.5740 
G01 X0.4175 Y0.6172 
G01 X0.4175 Y0.8487 
G01 X0.4437 Y0.8487 
G01 X0.4472 Y0.8501 
G01 X0.4499 Y0.8528 
G01 X0.4513 Y0.8563 
G01 X0.4513 Y0.9437 
G01 X0.4499 Y0.9472 
G01 X0.4472 Y0.9499 
G01 X0.4437 Y0.9513 
G01 X0.3563 Y0.9513 
G01 X0.3528 Y0.9499 
G01 X0.3501 Y0.9472 
G01 X0.3487 Y0.9437 
G01 X0.3487 Y0.8563 
G01 X0.3501 Y0.8528 
G01 X0.3528 Y0.8501 
G01 X0.3563 Y0.8487 
G01 X0.3825 Y0.8487 
G01 X0.3825 Y0.6077 
G01 X0.3837 Y0.6032 
G01 X0.3860 Y0.5993 
G01 X0.4325 Y0.5528 
G01 X0.4325 Y0.5513 
G01 X0.3463 Y0.5513 
G01 X0.3428 Y0.5499 
G01 X0.3401 Y0.5472 
G01 X0.3387 Y0.5437 
G01 X0.3387 Y0.4563 
G01 X0.3401 Y0.4528 
G01 X0.3428 Y0.4501 
G01 X0.3463 Y0.4487 
G01 X0.3725 Y0.4487 
G01 X0.3725 Y0.1027 
G01 X0.3737 Y0.0982 
G01 X0.3760 Y0.0943 
G00 Z0.1000 
G00 X0.4075 Y0.1122 
G01 Z-0.0070 F10.00 
G01 X0.4075 Y0.4487 F20.00 
G01 X0.4325 Y0.4487 
G01 X0.4325 Y0.4322 
G01 X0.4243 Y0.4240 
G01 X0.4210 Y0.4207 
G01 X0.4187 Y0.4168 
G01 X0.4175 Y0.4123 
G01 X0.4175 Y0.1327 
G01 X0.4187 Y0.1282 
G01 X0.4210 Y0.1243 
G01 X0.4560 Y0.0893 
G01 X0.4593 Y0.0860 
G01 X0.4632 Y0.0837 
G01 X0.4677 Y0.0825 
G01 X0.9095 Y0.0825 
G01 X0.4372 Y0.0825 
G01 X0.4075 Y0.1122 
G00 Z0.1000 
G00 X0.4601 Y0.1878 
G01 Z-0.0070 F10.00 
G01 X0.4628 Y0.1851 F20.00 
G01 X0.4663 Y0.1837 
G01 X0.5537 Y0.1837 
G01 X0.5572 Y0.1851 
G01 X0.5599 Y0.1878 
G01 X0.5613 Y0.1913 
G01 X0.5613 Y0.2787 
G01 X0.5599 Y0.2822 
G01 X0.5572 Y0.2849 
G01 X0.5537 Y0.2863 
G01 X0.5375 Y0.2863 
G01 X0.5375 Y0.4737 
G01 X0.5637 Y0.4737 
G01 X0.5672 Y0.4751 
G01 X0.5699 Y0.4778 
G01 X0.5713 Y0.4813 
G01 X0.5713 Y0.5687 
G01 X0.5699 Y0.5722 
G01 X0.5672 Y0.5749 
G01 X0.5637 Y0.5763 
G01 X0.4763 Y0.5763 
G01 X0.4728 Y0.5749 
G01 X0.4701 Y0.5722 
G01 X0.4687 Y0.5687 
G01 X0.4687 Y0.4813 
G01 X0.4701 Y0.4778 
G01 X0.4728 Y0.4751 
G01 X0.4763 Y0.4737 
G01 X0.5025 Y0.4737 
G01 X0.5025 Y0.2863 
G01 X0.4663 Y0.2863 
G01 X0.4628 Y0.2849 
G01 X0.4601 Y0.2822 
G01 X0.4587 Y0.2787 
G01 X0.4587 Y0.1913 
G01 X0.4601 Y0.1878 
G00 Z0.1000 
G00 X0.4605 Y0.2914 
G01 Z-0.0070 F10.00 
G01 X0.4640 Y0.2894 F20.00 
G01 X0.4680 Y0.2883 
G01 X0.4720 Y0.2883 
G01 X0.4870 Y0.2883 
G01 X0.4910 Y0.2894 
G01 X0.4945 Y0.2914 
G01 X0.4974 Y0.2943 
G01 X0.4994 Y0.2978 
G01 X0.5005 Y0.3018 
G01 X0.5005 Y0.4170 
G01 X0.5006 Y0.4180 
G01 X0.5005 Y0.4191 
G01 X0.5005 Y0.4582 
G01 X0.4994 Y0.4622 
G01 X0.4974 Y0.4657 
G01 X0.4945 Y0.4686 
G01 X0.4910 Y0.4706 
G01 X0.4870 Y0.4717 
G01 X0.4830 Y0.4717 
G01 X0.4790 Y0.4706 
G01 X0.4755 Y0.4686 
G01 X0.4726 Y0.4657 
G01 X0.4706 Y0.4622 
G01 X0.4695 Y0.4582 
G01 X0.4695 Y0.4211 
G01 X0.4665 Y0.4140 
G01 X0.4576 Y0.4050 
G01 X0.4556 Y0.4015 
G01 X0.4545 Y0.3975 
G01 X0.4545 Y0.3018 
G01 X0.4556 Y0.2978 
G01 X0.4576 Y0.2943 
G01 X0.4605 Y0.2914 
G00 Z0.1000 
G00 X0.3345 Y0.3816 
G01 Z-0.0070 F10.00 
G01 X0.3345 Y0.4184 F20.00 
G01 X0.3084 Y0.4445 
G01 X0.2716 Y0.4445 
G01 X0.2455 Y0.4184 
G01 X0.2455 Y0.3816 
G01 X0.2716 Y0.3555 
G01 X0.3084 Y0.3555 
G01 X0.3345 Y0.3816 
G00 Z0.1000 
G00 X0.3345 Y0.4816 
G01 Z-0.0070 F10.00 
G01 X0.3345 Y0.5184 F20.00 
G01 X0.3084 Y0.5445 
G01 X0.2716 Y0.5445 
G01 X0.2455 Y0.5184 
G01 X0.2455 Y0.4816 
G01 X0.2716 Y0.4555 
G01 X0.3084 Y0.4555 
G01 X0.3345 Y0.4816 
G00 Z0.1000 
G00 X0.3370 Y0.5564 
G01 Z-0.0070 F10.00 
G01 X0.3405 Y0.5544 F20.00 
G01 X0.3445 Y0.5533 
G01 X0.3937 Y0.5533 
G01 X0.3977 Y0.5544 
G01 X0.4012 Y0.5564 
G01 X0.4041 Y0.5593 
G01 X0.4061 Y0.5628 
G01 X0.4072 Y0.5667 
G01 X0.4072 Y0.5709 
G01 X0.4061 Y0.5748 
G01 X0.4041 Y0.5783 
G01 X0.3835 Y0.5990 
G01 X0.3805 Y0.6061 
G01 X0.3805 Y0.8332 
G01 X0.3794 Y0.8372 
G01 X0.3774 Y0.8407 
G01 X0.3745 Y0.8436 
G01 X0.3710 Y0.8456 
G01 X0.3670 Y0.8467 
G01 X0.3559 Y0.8467 
G01 X0.3517 Y0.8484 
G01 X0.3484 Y0.8517 
G01 X0.3464 Y0.8565 
G01 X0.3456 Y0.8595 
G01 X0.3436 Y0.8630 
G01 X0.3407 Y0.8659 
G01 X0.3372 Y0.8680 
G01 X0.3332 Y0.8690 
G01 X0.3291 Y0.8690 
G01 X0.3252 Y0.8680 
G01 X0.3217 Y0.8659 
G01 X0.3188 Y0.8630 
G01 X0.3153 Y0.8595 
G01 X0.3132 Y0.8560 
G01 X0.3122 Y0.8520 
G01 X0.3122 Y0.8480 
G01 X0.3132 Y0.8440 
G01 X0.3153 Y0.8405 
G01 X0.3182 Y0.8376 
G01 X0.3365 Y0.8193 
G01 X0.3365 Y0.7807 
G01 X0.3153 Y0.7595 
G01 X0.3132 Y0.7560 
G01 X0.3122 Y0.7520 
G01 X0.3122 Y0.7480 
G01 X0.3132 Y0.7440 
G01 X0.3153 Y0.7405 
G01 X0.3182 Y0.7376 
G01 X0.3365 Y0.7193 
G01 X0.3365 Y0.6807 
G01 X0.3153 Y0.6595 
G01 X0.3132 Y0.6560 
G01 X0.3122 Y0.6520 
G01 X0.3122 Y0.6480 
G01 X0.3132 Y0.6440 
G01 X0.3153 Y0.6405 
G01 X0.3182 Y0.6376 
G01 X0.3365 Y0.6193 
G01 X0.3365 Y0.5807 
G01 X0.3341 Y0.5783 
G01 X0.3320 Y0.5748 
G01 X0.3310 Y0.5709 
G01 X0.3310 Y0.5668 
G01 X0.3311 Y0.5664 
G01 X0.3320 Y0.5628 
G01 X0.3341 Y0.5593 
G01 X0.3370 Y0.5564 
G00 Z0.1000 
G00 X0.3345 Y0.5816 
G01 Z-0.0070 F10.00 
G01 X0.3345 Y0.6184 F20.00 
G01 X0.3084 Y0.6445 
G01 X0.2716 Y0.6445 
G01 X0.2455 Y0.6184 
G01 X0.2455 Y0.5816 
G01 X0.2716 Y0.5555 
G01 X0.3084 Y0.5555 
G01 X0.3345 Y0.5816 
G00 Z0.1000 
G00 X0.2647 Y0.5595 
G01 Z-0.0070 F10.00 
G01 X0.2618 Y0.5624 F20.00 
G01 X0.2524 Y0.5718 
G01 X0.2495 Y0.5747 
G01 X0.2460 Y0.5768 
G01 X0.2420 Y0.5778 
G01 X0.2380 Y0.5778 
G01 X0.2370 Y0.5776 
G01 X0.2340 Y0.5768 
G01 X0.2305 Y0.5747 
G01 X0.2153 Y0.5595 
G01 X0.2132 Y0.5560 
G01 X0.2122 Y0.5520 
G01 X0.2122 Y0.5480 
G01 X0.2125 Y0.5469 
G01 X0.2132 Y0.5440 
G01 X0.2153 Y0.5405 
G01 X0.2182 Y0.5376 
G01 X0.2276 Y0.5282 
G01 X0.2305 Y0.5253 
G01 X0.2340 Y0.5232 
G01 X0.2369 Y0.5225 
G01 X0.2380 Y0.5222 
G01 X0.2420 Y0.5222 
G01 X0.2458 Y0.5232 
G01 X0.2460 Y0.5232 
G01 X0.2495 Y0.5253 
G01 X0.2647 Y0.5405 
G01 X0.2668 Y0.5440 
G01 X0.2675 Y0.5469 
G01 X0.2678 Y0.5480 
G01 X0.2678 Y0.5520 
G01 X0.2668 Y0.5560 
G01 X0.2647 Y0.5595 
G00 Z0.1000 
G00 X0.2345 Y0.5816 
G01 Z-0.0070 F10.00 
G01 X0.2345 Y0.6184 F20.00 
G01 X0.2084 Y0.6445 
G01 X0.1716 Y0.6445 
G01 X0.1455 Y0.6184 
G01 X0.1455 Y0.5816 
G01 X0.1716 Y0.5555 
G01 X0.2084 Y0.5555 
G01 X0.2345 Y0.5816 
G00 Z0.1000 
G00 X0.2340 Y0.6232 
G01 Z-0.0070 F10.00 
G01 X0.2369 Y0.6225 F20.00 
G01 X0.2380 Y0.6222 
G01 X0.2420 Y0.6222 
G01 X0.2458 Y0.6232 
G01 X0.2460 Y0.6232 
G01 X0.2495 Y0.6253 
G01 X0.2647 Y0.6405 
G01 X0.2668 Y0.6440 
G01 X0.2675 Y0.6469 
G01 X0.2678 Y0.6480 
G01 X0.2678 Y0.6520 
G01 X0.2668 Y0.6560 
G01 X0.2647 Y0.6595 
G01 X0.2618 Y0.6624 
G01 X0.2524 Y0.6718 
G01 X0.2495 Y0.6747 
G01 X0.2460 Y0.6768 
G01 X0.2420 Y0.6778 
G01 X0.2380 Y0.6778 
G01 X0.2370 Y0.6776 
G01 X0.2340 Y0.6768 
G01 X0.2305 Y0.6747 
G01 X0.2153 Y0.6595 
G01 X0.2132 Y0.6560 
G01 X0.2122 Y0.6520 
G01 X0.2122 Y0.6480 
G01 X0.2125 Y0.6469 
G01 X0.2132 Y0.6440 
G01 X0.2153 Y0.6405 
G01 X0.2182 Y0.6376 
G01 X0.2276 Y0.6282 
G01 X0.2305 Y0.6253 
G01 X0.2340 Y0.6232 
G00 Z0.1000 
G00 X0.2084 Y0.6555 
G01 Z-0.0070 F10.00 
G01 X0.2345 Y0.6816 F20.00 
G01 X0.2345 Y0.7184 
G01 X0.2084 Y0.7445 
G01 X0.1716 Y0.7445 
G01 X0.1455 Y0.7184 
G01 X0.1455 Y0.6816 
G01 X0.1716 Y0.6555 
G01 X0.2084 Y0.6555 
G00 Z0.1000 
G00 X0.2455 Y0.6816 
G01 Z-0.0070 F10.00 
G01 X0.2716 Y0.6555 F20.00 
G01 X0.3084 Y0.6555 
G01 X0.3345 Y0.6816 
G01 X0.3345 Y0.7184 
G01 X0.3084 Y0.7445 
G01 X0.2716 Y0.7445 
G01 X0.2455 Y0.7184 
G01 X0.2455 Y0.6816 
G00 Z0.1000 
G00 X0.2458 Y0.7232 
G01 Z-0.0070 F10.00 
G01 X0.2460 Y0.7232 F20.00 
G01 X0.2495 Y0.7253 
G01 X0.2647 Y0.7405 
G01 X0.2668 Y0.7440 
G01 X0.2675 Y0.7469 
G01 X0.2678 Y0.7480 
G01 X0.2678 Y0.7520 
G01 X0.2668 Y0.7560 
G01 X0.2647 Y0.7595 
G01 X0.2618 Y0.7624 
G01 X0.2524 Y0.7718 
G01 X0.2495 Y0.7747 
G01 X0.2460 Y0.7768 
G01 X0.2420 Y0.7778 
G01 X0.2380 Y0.7778 
G01 X0.2370 Y0.7776 
G01 X0.2340 Y0.7768 
G01 X0.2305 Y0.7747 
G01 X0.2153 Y0.7595 
G01 X0.2132 Y0.7560 
G01 X0.2122 Y0.7520 
G01 X0.2122 Y0.7480 
G01 X0.2125 Y0.7469 
G01 X0.2132 Y0.7440 
G01 X0.2153 Y0.7405 
G01 X0.2182 Y0.7376 
G01 X0.2276 Y0.7282 
G01 X0.2305 Y0.7253 
G01 X0.2340 Y0.7232 
G01 X0.2369 Y0.7225 
G01 X0.2380 Y0.7222 
G01 X0.2420 Y0.7222 
G01 X0.2458 Y0.7232 
G00 Z0.1000 
G00 X0.2716 Y0.7555 
G01 Z-0.0070 F10.00 
G01 X0.3084 Y0.7555 F20.00 
G01 X0.3345 Y0.7816 
G01 X0.3345 Y0.8184 
G01 X0.3084 Y0.8445 
G01 X0.2716 Y0.8445 
G01 X0.2455 Y0.8184 
G01 X0.2455 Y0.7816 
G01 X0.2716 Y0.7555 
G00 Z0.1000 
G00 X0.2345 Y0.7816 
G01 Z-0.0070 F10.00 
G01 X0.2345 Y0.8184 F20.00 
G01 X0.2084 Y0.8445 
G01 X0.1716 Y0.8445 
G01 X0.1455 Y0.8184 
G01 X0.1455 Y0.7816 
G01 X0.1716 Y0.7555 
G01 X0.2084 Y0.7555 
G01 X0.2345 Y0.7816 
G00 Z0.1000 
G00 X0.2340 Y0.8232 
G01 Z-0.0070 F10.00 
G01 X0.2369 Y0.8225 F20.00 
G01 X0.2380 Y0.8222 
G01 X0.2420 Y0.8222 
G01 X0.2458 Y0.8232 
G01 X0.2460 Y0.8232 
G01 X0.2495 Y0.8253 
G01 X0.2647 Y0.8405 
G01 X0.2668 Y0.8440 
G01 X0.2675 Y0.8469 
G01 X0.2678 Y0.8480 
G01 X0.2678 Y0.8520 
G01 X0.2668 Y0.8560 
G01 X0.2647 Y0.8595 
G01 X0.2618 Y0.8624 
G01 X0.2524 Y0.8718 
G01 X0.2495 Y0.8747 
G01 X0.2460 Y0.8768 
