(.../john/src/pcbgcode/pcb-gcode.ulp)
(Copyright 2005 - 2012 by John Johnson)
(See readme.txt for licensing terms.)
(This file generated from the board:)
(.../docs/examples/04151_lcdi2c.brd)
(Current profile is .../pcb-gcode-3.6.2.4/profiles/generic.pp  )
(This file generated 9/2/22 12:51 PM)
(Settings from pcb-machine.h)
(spindle on time = 3.0000)
(spindle speed = 15000.0000)
(milling depth = -0.0100)
(tool change at 0.0000 0.0000 1.0000 )
(feed rate xy = F10.00 )
(feed rate z  = F5.00  )
(Z Axis Settings)
(  High     Up        Down     Drill)
(0.5000 	0.1000 	-0.0070 	-0.0320 )
(Settings from pcb-defaults.h)
(isolate min = 0.0010)
(isolate max = 0.0200)
(isolate step = 0.0050)
(Generated top outlines, top drill, bottom outlines, bottom drill, )
(Unit of measure: inch)
(Beginning of every file)
(Beginning of every bottom file)
(MILL Begin)
(Bottom MILL Begin)
(Inch Mode)
G20
(Absolute Coordinates)
G90
S15000
G00 Z0.5000 
G00 X0.0000 Y0.0000 
M03
G04 P3.000000
G00 Z0.1000 
G00 X0.0000 Y0.1100 
G01 Z-0.0100 F5.00  
G01 X0.0000 Y1.1750 F10.00 
(ARC CENTER: rx1=-0.145000, ry1=1.175000, rx2=0.000000, ry2=0.000000)
(ARC: rx1=0.000000, ry1=1.175000, rx2=-0.145000, ry2=1.320000, cx=-0.145000, cy=1.175000)
G03 X-0.1450 Y1.3200 R0.1450 F10.00 
G01 X-2.6500 Y1.3200 
(ARC CENTER: rx1=-2.650000, ry1=1.190000, rx2=0.000000, ry2=0.000000)
(ARC: rx1=-2.650000, ry1=1.320000, rx2=-2.780000, ry2=1.190000, cx=-2.650000, cy=1.190000)
G03 X-2.7800 Y1.1900 R0.1300 F10.00 
G01 X-2.7800 Y0.1150 
(ARC CENTER: rx1=-2.665000, ry1=0.115000, rx2=0.000000, ry2=0.000000)
(ARC: rx1=-2.780000, ry1=0.115000, rx2=-2.665000, ry2=0.000000, cx=-2.665000, cy=0.115000)
G03 X-2.6650 Y0.0000 R0.1150 F10.00 
G01 X-0.1350 Y0.0000 
(ARC CENTER: rx1=-0.122500, ry1=0.122500, rx2=0.000000, ry2=0.000000)
(ARC: rx1=-0.135000, ry1=0.000000, rx2=0.000000, ry2=0.110000, cx=-0.122500, cy=0.122500)
G03 X0.0000 Y0.1100 R0.1231 F10.00 
(Bottom MILL End)
(MILL End)
(End of every bottom file)
(End of every file)
G00 Z0.5000 
M05
M02
