(.../src/pcbgcode.repo/pcb-gcode.ulp)
(Copyright 2005 - 2012 by John Johnson)
(See readme.txt for licensing terms.)
(This file generated from the board:)
(.../docs/examples/04151_lcdi2c.brd)
(Current profile is .../pcbgcode-work/profiles/mach.pp  )
(This file generated 2/6/14 10:02 AM)
(Settings from pcb-machine.h)
(spindle on time = 3.0000)
(  Tool Size)
(0.0120  )
(spindle speed = 30000.0000)
(tool change at 0.0000  0.0000  1.0000  )
(feed rate xy = F20    )
(feed rate z  = F10    )
(Z Axis Settings)
(  High     Up        Down     Drill)
(0.5000  	0.1000  	-0.0070 	-0.0320 )
(Settings from pcb-defaults.h)
(isolate min = 0.0010)
(isolate max = 0.0200)
(isolate step = 0.0050)
(Generated top outlines, top drill, top stencil, bottom outlines, bottom drill, bottom stencil)
(Unit of measure: inch)
(Inch Mode)
G20
(Absolute Coordinates)
G90
S30000
G00 Z0.5000  
G00 X0.0000  Y0.0000  
M03
G04 P3.000000
G00 Z0.1000  
G00 X-0.0450 Y0.8048  
G01 Z-0.0070 F10    
G01 X-0.0450 Y0.8048  F20    
G01 X-0.0450 Y0.3301  
G01 X-0.0450 Y0.8048  
G00 Z0.1000  
G00 X-0.0750 Y0.3452  
G01 Z-0.0070 F10    
G01 X-0.0750 Y0.3452  F20    
G01 X-0.0750 Y0.7492  
G01 X-0.0750 Y0.3452  
G00 Z0.1000  
G00 X-1.4388 Y0.4368  
G01 Z-0.0070 F10    
G01 X-1.4388 Y0.5232  F20    
G01 X-1.4377 Y0.5258  
G01 X-1.4358 Y0.5277  
G01 X-1.4332 Y0.5288  
G01 X-1.4050 Y0.5288  
G01 X-1.4050 Y0.5562  
G01 X-1.4336 Y0.5562  
G01 X-1.4362 Y0.5573  
G01 X-1.4381 Y0.5592  
G01 X-1.4392 Y0.5618  
G01 X-1.4392 Y0.5882  
G01 X-1.4381 Y0.5908  
G01 X-1.4362 Y0.5927  
G01 X-1.4336 Y0.5938  
G01 X-1.3442 Y0.5938  
G01 X-1.3416 Y0.5927  
G01 X-1.3397 Y0.5908  
G01 X-1.3386 Y0.5882  
G01 X-1.3386 Y0.5618  
G01 X-1.3397 Y0.5592  
G01 X-1.3416 Y0.5573  
G01 X-1.3442 Y0.5562  
G01 X-1.3750 Y0.5562  
G01 X-1.3750 Y0.5288  
G01 X-1.3468 Y0.5288  
G01 X-1.3442 Y0.5277  
G01 X-1.3423 Y0.5258  
G01 X-1.3412 Y0.5232  
G01 X-1.3412 Y0.4368  
G01 X-1.3423 Y0.4342  
G01 X-1.3442 Y0.4323  
G01 X-1.3468 Y0.4312  
G01 X-1.4332 Y0.4312  
G01 X-1.4358 Y0.4323  
G01 X-1.4377 Y0.4342  
G01 X-1.4388 Y0.4368  
G00 Z0.1000  
G00 X-1.9488 Y0.2968  
G01 Z-0.0070 F10    
G01 X-1.9488 Y0.3832  F20    
G01 X-1.9477 Y0.3858  
G01 X-1.9458 Y0.3877  
G01 X-1.9432 Y0.3888  
G01 X-1.9150 Y0.3888  
G01 X-1.9150 Y0.7370  
G01 X-1.9140 Y0.7408  
G01 X-1.9120 Y0.7442  
G01 X-1.8720 Y0.7842  
G01 X-1.8692 Y0.7870  
G01 X-1.8658 Y0.7890  
G01 X-1.8620 Y0.7900  
G01 X-1.8007 Y0.7900  
G01 X-1.8003 Y0.7908  
G01 X-1.7984 Y0.7927  
G01 X-1.7958 Y0.7938  
G01 X-1.7064 Y0.7938  
G01 X-1.7038 Y0.7927  
G01 X-1.7019 Y0.7908  
G01 X-1.7008 Y0.7882  
G01 X-1.7008 Y0.7618  
G01 X-1.7019 Y0.7592  
G01 X-1.7038 Y0.7573  
G01 X-1.7064 Y0.7562  
G01 X-1.7958 Y0.7562  
G01 X-1.7984 Y0.7573  
G01 X-1.8003 Y0.7592  
G01 X-1.8007 Y0.7600  
G01 X-1.8538 Y0.7600  
G01 X-1.8850 Y0.7288  
G01 X-1.8850 Y0.3888  
G01 X-1.8568 Y0.3888  
G01 X-1.8542 Y0.3877  
G01 X-1.8523 Y0.3858  
G01 X-1.8512 Y0.3832  
G01 X-1.8512 Y0.2968  
G01 X-1.8523 Y0.2942  
G01 X-1.8542 Y0.2923  
G01 X-1.8568 Y0.2912  
G01 X-1.9432 Y0.2912  
G01 X-1.9458 Y0.2923  
G01 X-1.9477 Y0.2942  
G01 X-1.9488 Y0.2968  
G00 Z0.1000  
G00 X-0.4982 Y1.1866  
G01 Z-0.0070 F10    
G01 X-0.5718 Y1.1866  F20    
G01 X-0.5744 Y1.1877  
G01 X-0.5764 Y1.1897  
G01 X-0.5774 Y1.1922  
G01 X-0.5774 Y1.2580  
G01 X-0.5764 Y1.2606  
G01 X-0.5744 Y1.2625  
G01 X-0.5718 Y1.2636  
G01 X-0.5698 Y1.2636  
G01 X-0.5862 Y1.2800  
G01 X-0.8093 Y1.2800  
G01 X-0.7850 Y1.2557  
G01 X-0.7850 Y1.2500  
G01 X-0.6930 Y1.2500  
G01 X-0.6892 Y1.2490  
G01 X-0.6858 Y1.2470  
G01 X-0.6830 Y1.2442  
G01 X-0.5858 Y1.1470  
G01 X-0.5830 Y1.1442  
G01 X-0.5774 Y1.1386  
G01 X-0.5774 Y1.1478  
G01 X-0.5764 Y1.1503  
G01 X-0.5744 Y1.1523  
G01 X-0.5718 Y1.1534  
G01 X-0.4982 Y1.1534  
G01 X-0.4956 Y1.1523  
G01 X-0.4936 Y1.1503  
G01 X-0.4926 Y1.1478  
G01 X-0.4926 Y1.1300  
G01 X-0.4900 Y1.1300  
G01 X-0.4900 Y1.2670  
G01 X-0.4890 Y1.2708  
G01 X-0.4870 Y1.2742  
G01 X-0.4842 Y1.2770  
G01 X-0.4742 Y1.2870  
G01 X-0.4708 Y1.2890  
G01 X-0.4670 Y1.2900  
G01 X-0.3451 Y1.2900  
G01 X-0.3433 Y1.2900  
G01 X-0.3431 Y1.2900  
G01 X-0.3430 Y1.2900  
G01 X-0.3412 Y1.2895  
G01 X-0.3394 Y1.2891  
G01 X-0.3393 Y1.2890  
G01 X-0.3392 Y1.2890  
G01 X-0.3376 Y1.2881  
G01 X-0.3360 Y1.2871  
G01 X-0.3358 Y1.2870  
G01 X-0.3345 Y1.2857  
G01 X-0.0209 Y0.9821  
G01 X-0.0208 Y0.9820  
G01 X-0.0195 Y0.9807  
G01 X-0.0181 Y0.9794  
G01 X-0.0181 Y0.9793  
G01 X-0.0171 Y0.9776  
G01 X-0.0161 Y0.9760  
G01 X-0.0161 Y0.9759  
G01 X-0.0160 Y0.9758  
G01 X-0.0155 Y0.9740  
G01 X-0.0150 Y0.9722  
G01 X-0.0150 Y0.9721  
G01 X-0.0150 Y0.9720  
G01 X-0.0150 Y0.9701  
G01 X-0.0150 Y0.9683  
G01 X-0.0150 Y0.9681  
G01 X-0.0150 Y0.0830  
G01 X-0.0160 Y0.0792  
G01 X-0.0180 Y0.0758  
G01 X-0.0580 Y0.0358  
G01 X-0.0608 Y0.0330  
G01 X-0.0642 Y0.0310  
G01 X-0.0680 Y0.0300  
G01 X-0.5820 Y0.0300  
G01 X-0.5858 Y0.0310  
G01 X-0.5892 Y0.0330  
G01 X-0.5920 Y0.0358  
G01 X-0.6982 Y0.1420  
G01 X-0.7497 Y0.1420  
G01 X-0.7571 Y0.1435  
G01 X-0.7640 Y0.1463  
G01 X-0.7702 Y0.1505  
G01 X-0.7755 Y0.1558  
G01 X-0.7797 Y0.1620  
G01 X-0.7825 Y0.1689  
G01 X-0.7840 Y0.1763  
G01 X-0.7840 Y0.1837  
G01 X-0.7825 Y0.1911  
G01 X-0.7797 Y0.1980  
G01 X-0.7755 Y0.2042  
G01 X-0.7702 Y0.2095  
G01 X-0.7640 Y0.2137  
G01 X-0.7571 Y0.2165  
G01 X-0.7497 Y0.2180  
G01 X-0.6803 Y0.2180  
G01 X-0.6729 Y0.2165  
G01 X-0.6660 Y0.2137  
G01 X-0.6598 Y0.2095  
G01 X-0.6545 Y0.2042  
G01 X-0.6503 Y0.1980  
G01 X-0.6475 Y0.1911  
G01 X-0.6460 Y0.1837  
G01 X-0.6460 Y0.1763  
G01 X-0.6475 Y0.1689  
G01 X-0.6503 Y0.1620  
G01 X-0.6545 Y0.1558  
G01 X-0.6598 Y0.1505  
G01 X-0.6625 Y0.1487  
G01 X-0.5738 Y0.0600  
G01 X-0.0762 Y0.0600  
G01 X-0.0450 Y0.0912  
G01 X-0.0450 Y0.3281  
G01 X-0.0450 Y0.3280  
G01 X-0.0455 Y0.3262  
G01 X-0.0459 Y0.3244  
G01 X-0.0460 Y0.3243  
G01 X-0.0460 Y0.3242  
G01 X-0.0469 Y0.3226  
G01 X-0.0479 Y0.3210  
G01 X-0.0480 Y0.3208  
G01 X-0.0493 Y0.3195  
G01 X-0.2029 Y0.1609  
G01 X-0.2030 Y0.1608  
G01 X-0.2043 Y0.1595  
G01 X-0.2056 Y0.1581  
G01 X-0.2057 Y0.1581  
G01 X-0.2074 Y0.1571  
G01 X-0.2090 Y0.1561  
G01 X-0.2091 Y0.1561  
G01 X-0.2092 Y0.1560  
G01 X-0.2110 Y0.1555  
G01 X-0.2128 Y0.1550  
G01 X-0.2129 Y0.1550  
G01 X-0.2130 Y0.1550  
G01 X-0.2149 Y0.1550  
G01 X-0.2167 Y0.1550  
G01 X-0.2169 Y0.1550  
G01 X-0.5620 Y0.1550  
G01 X-0.5658 Y0.1560  
G01 X-0.5692 Y0.1580  
G01 X-0.6412 Y0.2300  
G01 X-0.7988 Y0.2300  
G01 X-0.9230 Y0.1058  
G01 X-0.9258 Y0.1030  
G01 X-0.9292 Y0.1010  
G01 X-0.9330 Y0.1000  
G01 X-1.3270 Y0.1000  
G01 X-1.3308 Y0.1010  
G01 X-1.3342 Y0.1030  
G01 X-1.3624 Y0.1312  
G01 X-1.4332 Y0.1312  
G01 X-1.4358 Y0.1323  
G01 X-1.4377 Y0.1342  
G01 X-1.4388 Y0.1368  
G01 X-1.4388 Y0.2232  
G01 X-1.4377 Y0.2258  
G01 X-1.4358 Y0.2277  
G01 X-1.4332 Y0.2288  
G01 X-1.3468 Y0.2288  
G01 X-1.3442 Y0.2277  
G01 X-1.3423 Y0.2258  
G01 X-1.3412 Y0.2232  
G01 X-1.3412 Y0.1524  
G01 X-1.3188 Y0.1300  
G01 X-0.9412 Y0.1300  
G01 X-0.8142 Y0.2570  
G01 X-0.8108 Y0.2590  
G01 X-0.8070 Y0.2600  
G01 X-0.6330 Y0.2600  
G01 X-0.6292 Y0.2590  
G01 X-0.6258 Y0.2570  
G01 X-0.6230 Y0.2542  
G01 X-0.5538 Y0.1850  
G01 X-0.2214 Y0.1850  
G01 X-0.0750 Y0.3361  
G01 X-0.0750 Y0.3432  
G01 X-0.0750 Y0.3430  
G01 X-0.0755 Y0.3413  
G01 X-0.0759 Y0.3395  
G01 X-0.0760 Y0.3394  
G01 X-0.0760 Y0.3392  
G01 X-0.0769 Y0.3377  
G01 X-0.0778 Y0.3361  
G01 X-0.0779 Y0.3359  
G01 X-0.0780 Y0.3358  
G01 X-0.0793 Y0.3345  
G01 X-0.1829 Y0.2259  
G01 X-0.1830 Y0.2258  
G01 X-0.1843 Y0.2245  
G01 X-0.1855 Y0.2232  
G01 X-0.1857 Y0.2231  
G01 X-0.1858 Y0.2230  
G01 X-0.1873 Y0.2221  
G01 X-0.1889 Y0.2212  
G01 X-0.1891 Y0.2211  
G01 X-0.1892 Y0.2210  
G01 X-0.1909 Y0.2206  
G01 X-0.1927 Y0.2200  
G01 X-0.1929 Y0.2200  
G01 X-0.1930 Y0.2200  
G01 X-0.1948 Y0.2200  
G01 X-0.1966 Y0.2200  
G01 X-0.1968 Y0.2200  
G01 X-0.4612 Y0.2200  
G01 X-0.4612 Y0.1918  
G01 X-0.4623 Y0.1892  
G01 X-0.4642 Y0.1873  
G01 X-0.4668 Y0.1862  
G01 X-0.5532 Y0.1862  
G01 X-0.5558 Y0.1873  
G01 X-0.5577 Y0.1892  
G01 X-0.5588 Y0.1918  
G01 X-0.5588 Y0.2782  
G01 X-0.5577 Y0.2808  
G01 X-0.5558 Y0.2827  
G01 X-0.5532 Y0.2838  
G01 X-0.4668 Y0.2838  
G01 X-0.4642 Y0.2827  
G01 X-0.4623 Y0.2808  
G01 X-0.4612 Y0.2782  
G01 X-0.4612 Y0.2500  
G01 X-0.2014 Y0.2500  
G01 X-0.1050 Y0.3510  
G01 X-0.1050 Y0.7447  
G01 X-0.1372 Y0.7850  
G01 X-0.1480 Y0.7850  
G01 X-0.1480 Y0.7826  
G01 X-0.1726 Y0.7580  
G01 X-0.2074 Y0.7580  
G01 X-0.2320 Y0.7826  
G01 X-0.2320 Y0.8174  
G01 X-0.2074 Y0.8420  
G01 X-0.1726 Y0.8420  
G01 X-0.1480 Y0.8174  
G01 X-0.1480 Y0.8150  
G01 X-0.1311 Y0.8150  
G01 X-0.1303 Y0.8151  
G01 X-0.1292 Y0.8150  
G01 X-0.1280 Y0.8150  
G01 X-0.1272 Y0.8148  
G01 X-0.1264 Y0.8147  
G01 X-0.1253 Y0.8143  
G01 X-0.1242 Y0.8140  
G01 X-0.1235 Y0.8136  
G01 X-0.1227 Y0.8133  
G01 X-0.1218 Y0.8126  
G01 X-0.1208 Y0.8120  
G01 X-0.1202 Y0.8114  
G01 X-0.1195 Y0.8109  
G01 X-0.1188 Y0.8100  
G01 X-0.1180 Y0.8092  
G01 X-0.1176 Y0.8085  
G01 X-0.0788 Y0.7600  
G01 X-0.0780 Y0.7592  
G01 X-0.0776 Y0.7585  
G01 X-0.0771 Y0.7578  
G01 X-0.0766 Y0.7568  
G01 X-0.0760 Y0.7558  
G01 X-0.0758 Y0.7550  
G01 X-0.0755 Y0.7542  
G01 X-0.0753 Y0.7531  
G01 X-0.0750 Y0.7520  
G01 X-0.0750 Y0.7511  
G01 X-0.0750 Y0.7990  
G01 X-0.1512 Y0.8794  
G01 X-0.1726 Y0.8580  
G01 X-0.2074 Y0.8580  
G01 X-0.2320 Y0.8826  
G01 X-0.2320 Y0.9174  
G01 X-0.2074 Y0.9420  
G01 X-0.1726 Y0.9420  
G01 X-0.1480 Y0.9174  
G01 X-0.1480 Y0.9150  
G01 X-0.1478 Y0.9149  
G01 X-0.1476 Y0.9149  
G01 X-0.1459 Y0.9144  
G01 X-0.1442 Y0.9140  
G01 X-0.1440 Y0.9139  
G01 X-0.1438 Y0.9138  
G01 X-0.1423 Y0.9129  
G01 X-0.1408 Y0.9120  
G01 X-0.1406 Y0.9119  
G01 X-0.1405 Y0.9117  
G01 X-0.1393 Y0.9105  
G01 X-0.1380 Y0.9092  
G01 X-0.1379 Y0.9090  
G01 X-0.0492 Y0.8155  
G01 X-0.0480 Y0.8142  
G01 X-0.0479 Y0.8140  
G01 X-0.0478 Y0.8139  
G01 X-0.0469 Y0.8123  
G01 X-0.0460 Y0.8108  
G01 X-0.0460 Y0.8106  
G01 X-0.0459 Y0.8104  
G01 X-0.0455 Y0.8087  
G01 X-0.0450 Y0.8070  
G01 X-0.0450 Y0.8068  
G01 X-0.0450 Y0.9636  
G01 X-0.3511 Y1.2600  
G01 X-0.4588 Y1.2600  
G01 X-0.4600 Y1.2588  
G01 X-0.4600 Y1.1300  
G01 X-0.3530 Y1.1300  
G01 X-0.3492 Y1.1290  
G01 X-0.3458 Y1.1270  
G01 X-0.3430 Y1.1242  
G01 X-0.2780 Y1.0592  
G01 X-0.2760 Y1.0558  
G01 X-0.2750 Y1.0520  
G01 X-0.2750 Y1.0420  
G01 X-0.2726 Y1.0420  
G01 X-0.2480 Y1.0174  
G01 X-0.2480 Y0.9826  
G01 X-0.2726 Y0.9580  
G01 X-0.3074 Y0.9580  
G01 X-0.3320 Y0.9826  
G01 X-0.3320 Y1.0174  
G01 X-0.3074 Y1.0420  
G01 X-0.3050 Y1.0420  
G01 X-0.3050 Y1.0438  
G01 X-0.3612 Y1.1000  
G01 X-0.4926 Y1.1000  
G01 X-0.4926 Y1.0820  
G01 X-0.4936 Y1.0794  
G01 X-0.4956 Y1.0775  
G01 X-0.4982 Y1.0764  
G01 X-0.5718 Y1.0764  
G01 X-0.5744 Y1.0775  
G01 X-0.5764 Y1.0794  
G01 X-0.5774 Y1.0820  
G01 X-0.5774 Y1.1000  
G01 X-0.5800 Y1.1007  
G01 X-0.5800 Y1.0030  
G01 X-0.5810 Y0.9992  
G01 X-0.5830 Y0.9958  
G01 X-0.5858 Y0.9930  
G01 X-0.6750 Y0.9038  
G01 X-0.6750 Y0.7680  
G01 X-0.6760 Y0.7642  
G01 X-0.6780 Y0.7608  
G01 X-0.6808 Y0.7580  
G01 X-0.7208 Y0.7180  
G01 X-0.7242 Y0.7160  
G01 X-0.7280 Y0.7150  
G01 X-0.7788 Y0.7150  
G01 X-0.7871 Y0.7067  
G01 X-0.7871 Y0.7059  
G01 X-0.7841 Y0.7046  
G01 X-0.7779 Y0.7005  
G01 X-0.7726 Y0.6952  
G01 X-0.7685 Y0.6889  
G01 X-0.7656 Y0.6820  
G01 X-0.7641 Y0.6747  
G01 X-0.7641 Y0.6052  
G01 X-0.7656 Y0.5979  
G01 X-0.7685 Y0.5909  
G01 X-0.7726 Y0.5847  
G01 X-0.7779 Y0.5794  
G01 X-0.7841 Y0.5753  
G01 X-0.7910 Y0.5724  
G01 X-0.7984 Y0.5709  
G01 X-0.8059 Y0.5709  
G01 X-0.8132 Y0.5724  
G01 X-0.8201 Y0.5753  
G01 X-0.8263 Y0.5794  
G01 X-0.8316 Y0.5847  
G01 X-0.8358 Y0.5909  
G01 X-0.8387 Y0.5979  
G01 X-0.8401 Y0.6052  
G01 X-0.8401 Y0.6747  
G01 X-0.8387 Y0.6820  
G01 X-0.8358 Y0.6889  
G01 X-0.8316 Y0.6952  
G01 X-0.8263 Y0.7005  
G01 X-0.8201 Y0.7046  
G01 X-0.8171 Y0.7059  
G01 X-0.8171 Y0.7148  
G01 X-0.8161 Y0.7187  
G01 X-0.8141 Y0.7221  
G01 X-0.7970 Y0.7392  
G01 X-0.7942 Y0.7420  
G01 X-0.7908 Y0.7440  
G01 X-0.7870 Y0.7450  
G01 X-0.7362 Y0.7450  
G01 X-0.7050 Y0.7762  
G01 X-0.7050 Y0.9120  
G01 X-0.7040 Y0.9158  
G01 X-0.7020 Y0.9192  
G01 X-0.6100 Y1.0112  
G01 X-0.6100 Y1.1288  
G01 X-0.7012 Y1.2200  
G01 X-0.7850 Y1.2200  
G01 X-0.7850 Y1.2143  
G01 X-0.8143 Y1.1850  
G01 X-0.8557 Y1.1850  
G01 X-0.8850 Y1.2143  
G01 X-0.8850 Y1.2200  
G01 X-1.0320 Y1.2200  
G01 X-1.0320 Y1.2143  
G01 X-1.0543 Y1.1920  
G01 X-1.0857 Y1.1920  
G01 X-1.1080 Y1.2143  
G01 X-1.1080 Y1.2150  
G01 X-1.3000 Y1.2150  
G01 X-1.3000 Y1.2043  
G01 X-1.3293 Y1.1750  
G01 X-1.3707 Y1.1750  
G01 X-1.4000 Y1.2043  
G01 X-1.4000 Y1.2150  
G01 X-1.4662 Y1.2150  
G01 X-1.4662 Y1.1868  
G01 X-1.4673 Y1.1842  
G01 X-1.4692 Y1.1823  
G01 X-1.4718 Y1.1812  
G01 X-1.5582 Y1.1812  
G01 X-1.5608 Y1.1823  
G01 X-1.5627 Y1.1842  
G01 X-1.5638 Y1.1868  
G01 X-1.5638 Y1.2732  
G01 X-1.5627 Y1.2758  
G01 X-1.5608 Y1.2777  
G01 X-1.5582 Y1.2788  
G01 X-1.4718 Y1.2788  
G01 X-1.4692 Y1.2777  
G01 X-1.4673 Y1.2758  
G01 X-1.4662 Y1.2732  
G01 X-1.4662 Y1.2450  
G01 X-1.4000 Y1.2450  
G01 X-1.4000 Y1.2457  
G01 X-1.3707 Y1.2750  
G01 X-1.3293 Y1.2750  
G01 X-1.3000 Y1.2457  
G01 X-1.3000 Y1.2450  
G01 X-1.1080 Y1.2450  
G01 X-1.1080 Y1.2457  
G01 X-1.0857 Y1.2680  
G01 X-1.0543 Y1.2680  
G01 X-1.0363 Y1.2500  
G01 X-0.8850 Y1.2500  
G01 X-0.8850 Y1.2557  
G01 X-0.8607 Y1.2800  
G01 X-1.5988 Y1.2800  
G01 X-1.6250 Y1.2538  
G01 X-1.6250 Y1.1662  
G01 X-1.5988 Y1.1400  
G01 X-1.3977 Y1.1400  
G01 X-1.3963 Y1.1442  
G01 X-1.3928 Y1.1512  
G01 X-1.3881 Y1.1576  
G01 X-1.3826 Y1.1631  
G01 X-1.3762 Y1.1678  
G01 X-1.3692 Y1.1713  
G01 X-1.3617 Y1.1738  
G01 X-1.3539 Y1.1750  
G01 X-1.3461 Y1.1750  
G01 X-1.3383 Y1.1738  
G01 X-1.3308 Y1.1713  
G01 X-1.3238 Y1.1678  
G01 X-1.3174 Y1.1631  
G01 X-1.3119 Y1.1576  
G01 X-1.3072 Y1.1512  
G01 X-1.3037 Y1.1442  
G01 X-1.3023 Y1.1400  
G01 X-1.1580 Y1.1400  
G01 X-1.1580 Y1.1707  
G01 X-1.1357 Y1.1930  
G01 X-1.1043 Y1.1930  
G01 X-1.0820 Y1.1707  
G01 X-1.0820 Y1.1393  
G01 X-1.1043 Y1.1170  
G01 X-1.1050 Y1.1170  
G01 X-1.1050 Y0.8962  
G01 X-1.0088 Y0.8000  
G01 X-0.9582 Y0.8000  
G01 X-0.9582 Y0.8548  
G01 X-0.9568 Y0.8621  
G01 X-0.9539 Y0.8691  
G01 X-0.9498 Y0.8753  
G01 X-0.9445 Y0.8806  
G01 X-0.9382 Y0.8847  
G01 X-0.9313 Y0.8876  
G01 X-0.9240 Y0.8891  
G01 X-0.9165 Y0.8891  
G01 X-0.9092 Y0.8876  
G01 X-0.9022 Y0.8847  
G01 X-0.8960 Y0.8806  
G01 X-0.8907 Y0.8753  
G01 X-0.8866 Y0.8691  
G01 X-0.8837 Y0.8621  
G01 X-0.8822 Y0.8548  
G01 X-0.8822 Y0.7853  
G01 X-0.8837 Y0.7780  
G01 X-0.8866 Y0.7711  
G01 X-0.8907 Y0.7648  
G01 X-0.8960 Y0.7595  
G01 X-0.9022 Y0.7554  
G01 X-0.9092 Y0.7525  
G01 X-0.9165 Y0.7511  
G01 X-0.9240 Y0.7511  
G01 X-0.9313 Y0.7525  
G01 X-0.9382 Y0.7554  
G01 X-0.9445 Y0.7595  
G01 X-0.9498 Y0.7648  
G01 X-0.9532 Y0.7700  
G01 X-1.0170 Y0.7700  
G01 X-1.0195 Y0.7707  
G01 X-0.9988 Y0.7500  
G01 X-0.8912 Y0.7500  
G01 X-0.8732 Y0.7680  
G01 X-0.8752 Y0.7711  
G01 X-0.8780 Y0.7780  
G01 X-0.8795 Y0.7853  
G01 X-0.8795 Y0.8548  
G01 X-0.8780 Y0.8621  
G01 X-0.8752 Y0.8691  
G01 X-0.8710 Y0.8753  
G01 X-0.8657 Y0.8806  
G01 X-0.8595 Y0.8847  
G01 X-0.8526 Y0.8876  
G01 X-0.8452 Y0.8891  
G01 X-0.8378 Y0.8891  
G01 X-0.8304 Y0.8876  
G01 X-0.8235 Y0.8847  
G01 X-0.8173 Y0.8806  
G01 X-0.8120 Y0.8753  
G01 X-0.8078 Y0.8691  
G01 X-0.8050 Y0.8621  
G01 X-0.8035 Y0.8548  
G01 X-0.8035 Y0.7853  
G01 X-0.8050 Y0.7780  
G01 X-0.8078 Y0.7711  
G01 X-0.8120 Y0.7648  
G01 X-0.8173 Y0.7595  
G01 X-0.8235 Y0.7554  
G01 X-0.8304 Y0.7525  
G01 X-0.8378 Y0.7511  
G01 X-0.8452 Y0.7511  
G01 X-0.8473 Y0.7515  
G01 X-0.8730 Y0.7258  
G01 X-0.8758 Y0.7230  
G01 X-0.8792 Y0.7210  
G01 X-0.8830 Y0.7200  
G01 X-1.0070 Y0.7200  
G01 X-1.0108 Y0.7210  
G01 X-1.0142 Y0.7230  
G01 X-1.1012 Y0.8100  
G01 X-1.3393 Y0.8100  
G01 X-1.3397 Y0.8092  
G01 X-1.3416 Y0.8073  
G01 X-1.3442 Y0.8062  
G01 X-1.4336 Y0.8062  
G01 X-1.4362 Y0.8073  
G01 X-1.4381 Y0.8092  
G01 X-1.4392 Y0.8118  
G01 X-1.4392 Y0.8382  
G01 X-1.4381 Y0.8408  
G01 X-1.4362 Y0.8427  
G01 X-1.4336 Y0.8438  
G01 X-1.3442 Y0.8438  
G01 X-1.3416 Y0.8427  
G01 X-1.3397 Y0.8408  
G01 X-1.3393 Y0.8400  
G01 X-1.0930 Y0.8400  
G01 X-1.0905 Y0.8393  
G01 X-1.1320 Y0.8808  
G01 X-1.1340 Y0.8842  
G01 X-1.1350 Y0.8880  
G01 X-1.1350 Y1.1170  
G01 X-1.1357 Y1.1170  
G01 X-1.1363 Y1.1175  
G01 X-1.1408 Y1.1130  
G01 X-1.1442 Y1.1110  
G01 X-1.1480 Y1.1100  
G01 X-1.3023 Y1.1100  
G01 X-1.3037 Y1.1058  
G01 X-1.3072 Y1.0988  
G01 X-1.3119 Y1.0924  
G01 X-1.3174 Y1.0869  
G01 X-1.3238 Y1.0822  
G01 X-1.3308 Y1.0787  
G01 X-1.3383 Y1.0762  
G01 X-1.3461 Y1.0750  
G01 X-1.3539 Y1.0750  
G01 X-1.3617 Y1.0762  
G01 X-1.3692 Y1.0787  
G01 X-1.3762 Y1.0822  
G01 X-1.3826 Y1.0869  
G01 X-1.3881 Y1.0924  
G01 X-1.3928 Y1.0988  
G01 X-1.3963 Y1.1058  
G01 X-1.3977 Y1.1100  
G01 X-1.6070 Y1.1100  
G01 X-1.6108 Y1.1110  
G01 X-1.6142 Y1.1130  
G01 X-1.6170 Y1.1158  
G01 X-1.6520 Y1.1508  
G01 X-1.6540 Y1.1542  
G01 X-1.6550 Y1.1580  
G01 X-1.6550 Y1.2620  
G01 X-1.6540 Y1.2658  
G01 X-1.6520 Y1.2692  
G01 X-1.6492 Y1.2720  
G01 X-1.6142 Y1.3070  
G01 X-1.6108 Y1.3090  
G01 X-1.6070 Y1.3100  
G01 X-0.5780 Y1.3100  
G01 X-0.5742 Y1.3090  
G01 X-0.5708 Y1.3070  
G01 X-0.5680 Y1.3042  
G01 X-0.5274 Y1.2636  
G01 X-0.4982 Y1.2636  
G01 X-0.4956 Y1.2625  
G01 X-0.4936 Y1.2606  
G01 X-0.4926 Y1.2580  
G01 X-0.4926 Y1.1922  
G01 X-0.4936 Y1.1897  
G01 X-0.4956 Y1.1877  
G01 X-0.4982 Y1.1866  
G00 Z0.1000  
G00 X-1.9875 Y0.9719  
G01 Z-0.0070 F10    
G01 X-1.9875 Y0.8981  F20    
G01 X-1.9886 Y0.8955  
G01 X-1.9905 Y0.8936  
G01 X-1.9931 Y0.8925  
G01 X-2.0473 Y0.8925  
G01 X-2.0660 Y0.8738  
G01 X-2.0660 Y0.8625  
G01 X-2.0481 Y0.8625  
G01 X-2.0455 Y0.8614  
G01 X-2.0436 Y0.8595  
G01 X-2.0425 Y0.8569  
G01 X-2.0425 Y0.7831  
G01 X-2.0436 Y0.7805  
G01 X-2.0455 Y0.7786  
G01 X-2.0481 Y0.7775  
G01 X-2.1139 Y0.7775  
G01 X-2.1164 Y0.7786  
G01 X-2.1184 Y0.7805  
G01 X-2.1195 Y0.7831  
G01 X-2.1195 Y0.8569  
G01 X-2.1184 Y0.8595  
G01 X-2.1164 Y0.8614  
G01 X-2.1139 Y0.8625  
G01 X-2.0960 Y0.8625  
G01 X-2.0960 Y0.8820  
G01 X-2.0950 Y0.8858  
G01 X-2.0947 Y0.8862  
G01 X-2.1532 Y0.8862  
G01 X-2.1558 Y0.8873  
G01 X-2.1577 Y0.8892  
G01 X-2.1588 Y0.8918  
G01 X-2.1588 Y0.9782  
G01 X-2.1577 Y0.9808  
G01 X-2.1558 Y0.9827  
G01 X-2.1532 Y0.9838  
G01 X-2.0668 Y0.9838  
G01 X-2.0642 Y0.9827  
G01 X-2.0623 Y0.9808  
G01 X-2.0612 Y0.9782  
G01 X-2.0612 Y0.9765  
G01 X-2.0589 Y0.9775  
G01 X-1.9931 Y0.9775  
G01 X-1.9905 Y0.9764  
G01 X-1.9886 Y0.9745  
G01 X-1.9875 Y0.9719  
G00 Z0.1000  
G00 X-1.9355 Y0.6531  
G01 Z-0.0070 F10    
G01 X-1.9366 Y0.6505  F20    
G01 X-1.9386 Y0.6486  
G01 X-1.9411 Y0.6475  
G01 X-1.9616 Y0.6475  
G01 X-1.9620 Y0.6468  
G01 X-2.0030 Y0.6058  
G01 X-2.0058 Y0.6030  
G01 X-2.0092 Y0.6010  
G01 X-2.0130 Y0.6000  
G01 X-2.1838 Y0.6000  
G01 X-2.2250 Y0.5588  
G01 X-2.2250 Y0.4809  
G01 X-2.2220 Y0.4797  
G01 X-2.2158 Y0.4755  
G01 X-2.2105 Y0.4702  
G01 X-2.2063 Y0.4640  
G01 X-2.2035 Y0.4571  
G01 X-2.2020 Y0.4497  
G01 X-2.2020 Y0.3803  
G01 X-2.2035 Y0.3729  
G01 X-2.2063 Y0.3660  
G01 X-2.2105 Y0.3598  
G01 X-2.2158 Y0.3545  
G01 X-2.2220 Y0.3503  
G01 X-2.2289 Y0.3475  
G01 X-2.2363 Y0.3460  
G01 X-2.2437 Y0.3460  
G01 X-2.2511 Y0.3475  
G01 X-2.2580 Y0.3503  
G01 X-2.2642 Y0.3545  
G01 X-2.2695 Y0.3598  
G01 X-2.2737 Y0.3660  
G01 X-2.2765 Y0.3729  
G01 X-2.2780 Y0.3803  
G01 X-2.2780 Y0.4497  
G01 X-2.2765 Y0.4571  
G01 X-2.2737 Y0.4640  
G01 X-2.2695 Y0.4702  
G01 X-2.2642 Y0.4755  
G01 X-2.2580 Y0.4797  
G01 X-2.2550 Y0.4809  
G01 X-2.2550 Y0.5670  
G01 X-2.2540 Y0.5708  
G01 X-2.2520 Y0.5742  
G01 X-2.2492 Y0.5770  
G01 X-2.1992 Y0.6270  
G01 X-2.1958 Y0.6290  
G01 X-2.1920 Y0.6300  
G01 X-2.0212 Y0.6300  
G01 X-2.0037 Y0.6475  
G01 X-2.0069 Y0.6475  
G01 X-2.0095 Y0.6486  
G01 X-2.0114 Y0.6505  
G01 X-2.0125 Y0.6531  
G01 X-2.0125 Y0.7269  
G01 X-2.0114 Y0.7295  
G01 X-2.0095 Y0.7314  
G01 X-2.0069 Y0.7325  
G01 X-1.9687 Y0.7325  
G01 X-1.8642 Y0.8370  
G01 X-1.8608 Y0.8390  
G01 X-1.8570 Y0.8400  
G01 X-1.8007 Y0.8400  
G01 X-1.8003 Y0.8408  
G01 X-1.7984 Y0.8427  
G01 X-1.7958 Y0.8438  
G01 X-1.7064 Y0.8438  
G01 X-1.7038 Y0.8427  
G01 X-1.7019 Y0.8408  
G01 X-1.7008 Y0.8382  
G01 X-1.7008 Y0.8118  
G01 X-1.7019 Y0.8092  
G01 X-1.7038 Y0.8073  
G01 X-1.7064 Y0.8062  
G01 X-1.7958 Y0.8062  
G01 X-1.7984 Y0.8073  
G01 X-1.8003 Y0.8092  
G01 X-1.8007 Y0.8100  
G01 X-1.8488 Y0.8100  
G01 X-1.9355 Y0.7233  
G01 X-1.9355 Y0.6531  
G00 Z0.1000  
G00 X-2.0020 Y0.4497  
G01 Z-0.0070 F10    
G01 X-2.0020 Y0.3803  F20    
G01 X-2.0035 Y0.3729  
G01 X-2.0063 Y0.3660  
G01 X-2.0105 Y0.3598  
G01 X-2.0158 Y0.3545  
G01 X-2.0220 Y0.3503  
G01 X-2.0250 Y0.3491  
G01 X-2.0250 Y0.3030  
G01 X-2.0260 Y0.2992  
G01 X-2.0280 Y0.2958  
G01 X-2.0308 Y0.2930  
G01 X-2.0558 Y0.2680  
G01 X-2.0592 Y0.2660  
G01 X-2.0630 Y0.2650  
G01 X-2.3320 Y0.2650  
G01 X-2.3358 Y0.2660  
G01 X-2.3392 Y0.2680  
G01 X-2.3420 Y0.2708  
G01 X-2.4070 Y0.3358  
G01 X-2.4090 Y0.3392  
G01 X-2.4100 Y0.3430  
G01 X-2.4100 Y0.6770  
G01 X-2.4090 Y0.6808  
G01 X-2.4070 Y0.6842  
G01 X-2.4042 Y0.6870  
G01 X-2.2200 Y0.8712  
G01 X-2.2200 Y0.9570  
G01 X-2.2190 Y0.9608  
G01 X-2.2170 Y0.9642  
G01 X-2.2142 Y0.9670  
G01 X-2.1642 Y1.0170  
G01 X-2.1608 Y1.0190  
G01 X-2.1570 Y1.0200  
G01 X-1.9430 Y1.0200  
G01 X-1.9392 Y1.0190  
G01 X-1.9358 Y1.0170  
G01 X-1.9330 Y1.0142  
G01 X-1.8970 Y0.9782  
G01 X-1.8966 Y0.9775  
G01 X-1.8811 Y0.9775  
G01 X-1.8786 Y0.9764  
G01 X-1.8766 Y0.9745  
G01 X-1.8755 Y0.9719  
G01 X-1.8755 Y0.9400  
G01 X-1.8007 Y0.9400  
G01 X-1.8003 Y0.9408  
G01 X-1.7984 Y0.9427  
G01 X-1.7958 Y0.9438  
G01 X-1.7064 Y0.9438  
G01 X-1.7038 Y0.9427  
G01 X-1.7019 Y0.9408  
G01 X-1.7008 Y0.9382  
G01 X-1.7008 Y0.9118  
G01 X-1.7019 Y0.9092  
G01 X-1.7038 Y0.9073  
G01 X-1.7064 Y0.9062  
G01 X-1.7958 Y0.9062  
G01 X-1.7984 Y0.9073  
G01 X-1.8003 Y0.9092  
G01 X-1.8007 Y0.9100  
G01 X-1.8755 Y0.9100  
G01 X-1.8755 Y0.8981  
G01 X-1.8766 Y0.8955  
G01 X-1.8786 Y0.8936  
G01 X-1.8811 Y0.8925  
G01 X-1.9469 Y0.8925  
G01 X-1.9495 Y0.8936  
G01 X-1.9514 Y0.8955  
G01 X-1.9525 Y0.8981  
G01 X-1.9525 Y0.9719  
G01 X-1.9514 Y0.9745  
G01 X-1.9495 Y0.9764  
G01 X-1.9469 Y0.9775  
G01 X-1.9387 Y0.9775  
G01 X-1.9512 Y0.9900  
G01 X-2.1488 Y0.9900  
G01 X-2.1900 Y0.9488  
G01 X-2.1900 Y0.8630  
G01 X-2.1910 Y0.8592  
G01 X-2.1930 Y0.8558  
G01 X-2.3800 Y0.6688  
G01 X-2.3800 Y0.3512  
G01 X-2.3238 Y0.2950  
G01 X-2.0712 Y0.2950  
G01 X-2.0550 Y0.3112  
G01 X-2.0550 Y0.3491  
G01 X-2.0580 Y0.3503  
G01 X-2.0642 Y0.3545  
G01 X-2.0695 Y0.3598  
G01 X-2.0737 Y0.3660  
G01 X-2.0765 Y0.3729  
G01 X-2.0780 Y0.3803  
G01 X-2.0780 Y0.4497  
G01 X-2.0765 Y0.4571  
G01 X-2.0737 Y0.4640  
G01 X-2.0695 Y0.4702  
G01 X-2.0642 Y0.4755  
G01 X-2.0580 Y0.4797  
G01 X-2.0511 Y0.4825  
G01 X-2.0437 Y0.4840  
G01 X-2.0363 Y0.4840  
G01 X-2.0289 Y0.4825  
G01 X-2.0220 Y0.4797  
G01 X-2.0158 Y0.4755  
G01 X-2.0105 Y0.4702  
G01 X-2.0063 Y0.4640  
G01 X-2.0035 Y0.4571  
G01 X-2.0020 Y0.4497  
G00 Z0.1000  
G00 X-1.2497 Y0.2180  
G01 Z-0.0070 F10    
G01 X-1.1803 Y0.2180  F20    
G01 X-1.1729 Y0.2165  
G01 X-1.1660 Y0.2137  
G01 X-1.1598 Y0.2095  
G01 X-1.1545 Y0.2042  
G01 X-1.1503 Y0.1980  
G01 X-1.1475 Y0.1911  
G01 X-1.1460 Y0.1837  
G01 X-1.1460 Y0.1763  
G01 X-1.1475 Y0.1689  
G01 X-1.1503 Y0.1620  
G01 X-1.1545 Y0.1558  
G01 X-1.1598 Y0.1505  
G01 X-1.1660 Y0.1463  
G01 X-1.1729 Y0.1435  
G01 X-1.1803 Y0.1420  
G01 X-1.2497 Y0.1420  
G01 X-1.2571 Y0.1435  
G01 X-1.2640 Y0.1463  
G01 X-1.2702 Y0.1505  
G01 X-1.2755 Y0.1558  
G01 X-1.2797 Y0.1620  
G01 X-1.2825 Y0.1689  
G01 X-1.2840 Y0.1763  
G01 X-1.2840 Y0.1837  
G01 X-1.2825 Y0.1911  
G01 X-1.2810 Y0.1948  
G01 X-1.3262 Y0.2400  
G01 X-1.4338 Y0.2400  
G01 X-1.5680 Y0.1058  
G01 X-1.5708 Y0.1030  
G01 X-1.5742 Y0.1010  
G01 X-1.5780 Y0.1000  
G01 X-2.0020 Y0.1000  
G01 X-2.0020 Y0.0803  
G01 X-2.0035 Y0.0729  
G01 X-2.0063 Y0.0660  
G01 X-2.0105 Y0.0598  
G01 X-2.0158 Y0.0545  
G01 X-2.0220 Y0.0503  
G01 X-2.0289 Y0.0475  
G01 X-2.0363 Y0.0460  
G01 X-2.0437 Y0.0460  
G01 X-2.0511 Y0.0475  
G01 X-2.0580 Y0.0503  
G01 X-2.0642 Y0.0545  
G01 X-2.0695 Y0.0598  
G01 X-2.0737 Y0.0660  
G01 X-2.0765 Y0.0729  
G01 X-2.0780 Y0.0803  
G01 X-2.0780 Y0.1000  
G01 X-2.1020 Y0.1000  
G01 X-2.1020 Y0.0803  
G01 X-2.1035 Y0.0729  
G01 X-2.1063 Y0.0660  
G01 X-2.1105 Y0.0598  
G01 X-2.1158 Y0.0545  
G01 X-2.1220 Y0.0503  
G01 X-2.1289 Y0.0475  
G01 X-2.1363 Y0.0460  
G01 X-2.1437 Y0.0460  
G01 X-2.1511 Y0.0475  
G01 X-2.1580 Y0.0503  
G01 X-2.1642 Y0.0545  
G01 X-2.1695 Y0.0598  
G01 X-2.1737 Y0.0660  
G01 X-2.1765 Y0.0729  
G01 X-2.1780 Y0.0803  
G01 X-2.1780 Y0.1000  
G01 X-2.2020 Y0.1000  
G01 X-2.2020 Y0.0803  
G01 X-2.2035 Y0.0729  
G01 X-2.2063 Y0.0660  
G01 X-2.2105 Y0.0598  
G01 X-2.2158 Y0.0545  
G01 X-2.2220 Y0.0503  
G01 X-2.2289 Y0.0475  
G01 X-2.2363 Y0.0460  
G01 X-2.2437 Y0.0460  
G01 X-2.2511 Y0.0475  
G01 X-2.2580 Y0.0503  
G01 X-2.2642 Y0.0545  
G01 X-2.2695 Y0.0598  
G01 X-2.2737 Y0.0660  
G01 X-2.2765 Y0.0729  
G01 X-2.2780 Y0.0803  
G01 X-2.2780 Y0.1050  
G01 X-2.3970 Y0.1050  
G01 X-2.4008 Y0.1060  
G01 X-2.4042 Y0.1080  
G01 X-2.4070 Y0.1108  
G01 X-2.4592 Y0.1630  
G01 X-2.4620 Y0.1658  
G01 X-2.4640 Y0.1692  
G01 X-2.4650 Y0.1730  
G01 X-2.4650 Y1.0770  
G01 X-2.4640 Y1.0808  
G01 X-2.4620 Y1.0842  
G01 X-2.4109 Y1.1353  
G01 X-2.4170 Y1.1414  
G01 X-2.4170 Y1.1886  
G01 X-2.3836 Y1.2220  
G01 X-2.3364 Y1.2220  
G01 X-2.3030 Y1.1886  
G01 X-2.3030 Y1.1414  
G01 X-2.3103 Y1.1341  
G01 X-2.2700 Y1.0912  
G01 X-2.2550 Y1.0800  
G01 X-1.7263 Y1.0800  
G01 X-1.7470 Y1.0800  
G01 X-1.7508 Y1.0810  
G01 X-1.7542 Y1.0830  
G01 X-1.7570 Y1.0858  
G01 X-1.7590 Y1.0892  
G01 X-1.7600 Y1.0930  
G01 X-1.7600 Y1.1812  
G01 X-1.7882 Y1.1812  
G01 X-1.7908 Y1.1823  
G01 X-1.7927 Y1.1842  
G01 X-1.7938 Y1.1868  
G01 X-1.7938 Y1.2732  
G01 X-1.7927 Y1.2758  
G01 X-1.7908 Y1.2777  
G01 X-1.7882 Y1.2788  
G01 X-1.7018 Y1.2788  
G01 X-1.6992 Y1.2777  
G01 X-1.6973 Y1.2758  
G01 X-1.6962 Y1.2732  
G01 X-1.6962 Y1.1868  
G01 X-1.6973 Y1.1842  
G01 X-1.6992 Y1.1823  
G01 X-1.7018 Y1.1812  
G01 X-1.7300 Y1.1812  
G01 X-1.7300 Y1.1100  
G01 X-1.5280 Y1.1100  
G01 X-1.5242 Y1.1090  
G01 X-1.5208 Y1.1070  
G01 X-1.5180 Y1.1042  
G01 X-1.5029 Y1.0891  
G01 X-1.5009 Y1.0857  
G01 X-1.4999 Y1.0819  
G01 X-1.4999 Y1.0774  
G01 X-1.4820 Y1.0774  
G01 X-1.4794 Y1.0764  
G01 X-1.4775 Y1.0744  
G01 X-1.4764 Y1.0718  
G01 X-1.4764 Y0.9982  
G01 X-1.4775 Y0.9956  
G01 X-1.4794 Y0.9936  
G01 X-1.4820 Y0.9926  
G01 X-1.5478 Y0.9926  
G01 X-1.5503 Y0.9936  
G01 X-1.5523 Y0.9956  
G01 X-1.5534 Y0.9982  
G01 X-1.5534 Y1.0718  
G01 X-1.5523 Y1.0744  
G01 X-1.5503 Y1.0764  
G01 X-1.5478 Y1.0774  
G01 X-1.5336 Y1.0774  
G01 X-1.5362 Y1.0800  
G01 X-1.7243 Y1.0800  
G01 X-1.7230 Y1.0800  
G01 X-1.7224 Y1.0798  
G01 X-1.7217 Y1.0798  
G01 X-1.7205 Y1.0793  
G01 X-1.7192 Y1.0790  
G01 X-1.7186 Y1.0786  
G01 X-1.7180 Y1.0784  
G01 X-1.7169 Y1.0776  
G01 X-1.7158 Y1.0770  
G01 X-1.7153 Y1.0765  
G01 X-1.7147 Y1.0761  
G01 X-1.7139 Y1.0751  
G01 X-1.7130 Y1.0742  
G01 X-1.7127 Y1.0736  
G01 X-1.6930 Y1.0500  
G01 X-1.6636 Y1.0500  
G01 X-1.6636 Y1.0718  
G01 X-1.6625 Y1.0744  
G01 X-1.6606 Y1.0764  
G01 X-1.6580 Y1.0774  
G01 X-1.5922 Y1.0774  
G01 X-1.5897 Y1.0764  
G01 X-1.5877 Y1.0744  
G01 X-1.5866 Y1.0718  
G01 X-1.5866 Y0.9982  
G01 X-1.5877 Y0.9956  
G01 X-1.5897 Y0.9936  
G01 X-1.5922 Y0.9926  
G01 X-1.6100 Y0.9926  
G01 X-1.6100 Y0.9762  
G01 X-1.5938 Y0.9600  
G01 X-1.4912 Y0.9600  
G01 X-1.4292 Y1.0220  
G01 X-1.4258 Y1.0240  
G01 X-1.4220 Y1.0250  
G01 X-1.4130 Y1.0250  
G01 X-1.4092 Y1.0240  
G01 X-1.4080 Y1.0233  
G01 X-1.3942 Y1.0370  
G01 X-1.3908 Y1.0390  
G01 X-1.3870 Y1.0400  
G01 X-1.3738 Y1.0400  
G01 X-1.3738 Y1.0682  
G01 X-1.3727 Y1.0708  
G01 X-1.3708 Y1.0727  
G01 X-1.3682 Y1.0738  
G01 X-1.2818 Y1.0738  
G01 X-1.2792 Y1.0727  
G01 X-1.2773 Y1.0708  
G01 X-1.2762 Y1.0682  
G01 X-1.2762 Y0.9818  
G01 X-1.2773 Y0.9792  
G01 X-1.2792 Y0.9773  
G01 X-1.2818 Y0.9762  
G01 X-1.3682 Y0.9762  
G01 X-1.3708 Y0.9773  
G01 X-1.3727 Y0.9792  
G01 X-1.3738 Y0.9818  
G01 X-1.3738 Y1.0100  
G01 X-1.3788 Y1.0100  
G01 X-1.3863 Y1.0025  
G01 X-1.3769 Y0.9931  
G01 X-1.3749 Y0.9897  
G01 X-1.3739 Y0.9859  
G01 X-1.3739 Y0.9438  
G01 X-1.3442 Y0.9438  
G01 X-1.3416 Y0.9427  
G01 X-1.3397 Y0.9408  
G01 X-1.3386 Y0.9382  
G01 X-1.3386 Y0.9118  
G01 X-1.3397 Y0.9092  
G01 X-1.3416 Y0.9073  
G01 X-1.3442 Y0.9062  
G01 X-1.4336 Y0.9062  
G01 X-1.4362 Y0.9073  
G01 X-1.4381 Y0.9092  
G01 X-1.4392 Y0.9118  
G01 X-1.4392 Y0.9382  
G01 X-1.4381 Y0.9408  
G01 X-1.4362 Y0.9427  
G01 X-1.4336 Y0.9438  
G01 X-1.4039 Y0.9438  
G01 X-1.4039 Y0.9777  
G01 X-1.4167 Y0.9905  
G01 X-1.4175 Y0.9913  
G01 X-1.4730 Y0.9358  
G01 X-1.4758 Y0.9330  
G01 X-1.4792 Y0.9310  
G01 X-1.4830 Y0.9300  
G01 X-1.6020 Y0.9300  
G01 X-1.6058 Y0.9310  
G01 X-1.6092 Y0.9330  
G01 X-1.6342 Y0.9580  
G01 X-1.6370 Y0.9608  
G01 X-1.6390 Y0.9642  
G01 X-1.6400 Y0.9680  
G01 X-1.6400 Y0.9926  
G01 X-1.6580 Y0.9926  
G01 X-1.6606 Y0.9936  
G01 X-1.6625 Y0.9956  
G01 X-1.6636 Y0.9982  
G01 X-1.6636 Y1.0200  
G01 X-1.6987 Y1.0200  
G01 X-1.6994 Y1.0199  
G01 X-1.7007 Y1.0200  
G01 X-1.7020 Y1.0200  
G01 X-1.7026 Y1.0202  
G01 X-1.7033 Y1.0202  
G01 X-1.7045 Y1.0207  
G01 X-1.7058 Y1.0210  
G01 X-1.7064 Y1.0214  
G01 X-1.7070 Y1.0216  
G01 X-1.7081 Y1.0224  
G01 X-1.7092 Y1.0230  
G01 X-1.7097 Y1.0235  
G01 X-1.7103 Y1.0239  
G01 X-1.7111 Y1.0249  
G01 X-1.7120 Y1.0258  
G01 X-1.7123 Y1.0264  
G01 X-1.7320 Y1.0500  
G01 X-2.2589 Y1.0500  
G01 X-2.2598 Y1.0499  
G01 X-2.2609 Y1.0500  
G01 X-2.2620 Y1.0500  
G01 X-2.2629 Y1.0502  
G01 X-2.2638 Y1.0503  
G01 X-2.2648 Y1.0507  
G01 X-2.2658 Y1.0510  
G01 X-2.2666 Y1.0515  
G01 X-2.2674 Y1.0518  
G01 X-2.2683 Y1.0525  
G01 X-2.2692 Y1.0530  
G01 X-2.2699 Y1.0536  
G01 X-2.2885 Y1.0676  
G01 X-2.2896 Y1.0683  
G01 X-2.2900 Y1.0688  
G01 X-2.2906 Y1.0692  
G01 X-2.2914 Y1.0702  
G01 X-2.3315 Y1.1129  
G01 X-2.3364 Y1.1080  
G01 X-2.3836 Y1.1080  
G01 X-2.3897 Y1.1141  
G01 X-2.4350 Y1.0688  
G01 X-2.4350 Y0.1812  
G01 X-2.3888 Y0.1350  
G01 X-2.2780 Y0.1350  
G01 X-2.2780 Y0.1497  
G01 X-2.2765 Y0.1571  
G01 X-2.2737 Y0.1640  
G01 X-2.2695 Y0.1702  
G01 X-2.2642 Y0.1755  
G01 X-2.2580 Y0.1797  
G01 X-2.2511 Y0.1825  
G01 X-2.2437 Y0.1840  
G01 X-2.2363 Y0.1840  
G01 X-2.2289 Y0.1825  
G01 X-2.2220 Y0.1797  
G01 X-2.2158 Y0.1755  
G01 X-2.2105 Y0.1702  
G01 X-2.2063 Y0.1640  
G01 X-2.2035 Y0.1571  
G01 X-2.2020 Y0.1497  
G01 X-2.2020 Y0.1300  
G01 X-2.1780 Y0.1300  
G01 X-2.1780 Y0.1497  
G01 X-2.1765 Y0.1571  
G01 X-2.1737 Y0.1640  
G01 X-2.1695 Y0.1702  
G01 X-2.1642 Y0.1755  
G01 X-2.1580 Y0.1797  
G01 X-2.1511 Y0.1825  
G01 X-2.1437 Y0.1840  
G01 X-2.1363 Y0.1840  
G01 X-2.1289 Y0.1825  
G01 X-2.1220 Y0.1797  
G01 X-2.1158 Y0.1755  
G01 X-2.1105 Y0.1702  
G01 X-2.1063 Y0.1640  
G01 X-2.1035 Y0.1571  
G01 X-2.1020 Y0.1497  
G01 X-2.1020 Y0.1300  
G01 X-2.0780 Y0.1300  
G01 X-2.0780 Y0.1497  
G01 X-2.0765 Y0.1571  
G01 X-2.0737 Y0.1640  
G01 X-2.0695 Y0.1702  
G01 X-2.0642 Y0.1755  
G01 X-2.0580 Y0.1797  
G01 X-2.0511 Y0.1825  
G01 X-2.0437 Y0.1840  
G01 X-2.0363 Y0.1840  
G01 X-2.0289 Y0.1825  
G01 X-2.0220 Y0.1797  
G01 X-2.0158 Y0.1755  
G01 X-2.0105 Y0.1702  
G01 X-2.0063 Y0.1640  
G01 X-2.0035 Y0.1571  
G01 X-2.0020 Y0.1497  
G01 X-2.0020 Y0.1300  
G01 X-1.5912 Y0.1300  
G01 X-1.4542 Y0.2670  
G01 X-1.4508 Y0.2690  
G01 X-1.4470 Y0.2700  
G01 X-1.3180 Y0.2700  
G01 X-1.3142 Y0.2690  
G01 X-1.3108 Y0.2670  
G01 X-1.3080 Y0.2642  
G01 X-1.2594 Y0.2156  
G01 X-1.2571 Y0.2165  
G01 X-1.2497 Y0.2180  
G00 Z0.1000  
G00 X-0.2320 Y0.4826  
G01 Z-0.0070 F10    
G01 X-0.2320 Y0.5174  F20    
G01 X-0.2074 Y0.5420  
G01 X-0.1726 Y0.5420  
G01 X-0.1480 Y0.5174  
G01 X-0.1480 Y0.5150  
G01 X-0.1442 Y0.5140  
G01 X-0.1408 Y0.5120  
G01 X-0.1080 Y0.4792  
G01 X-0.1060 Y0.4758  
G01 X-0.1050 Y0.4720  
G01 X-0.1050 Y0.3730  
G01 X-0.1060 Y0.3692  
G01 X-0.1080 Y0.3658  
G01 X-0.1930 Y0.2808  
G01 X-0.1958 Y0.2780  
G01 X-0.1992 Y0.2760  
G01 X-0.2030 Y0.2750  
G01 X-0.3920 Y0.2750  
G01 X-0.3958 Y0.2760  
G01 X-0.3992 Y0.2780  
G01 X-0.4412 Y0.3200  
G01 X-1.7720 Y0.3200  
G01 X-1.7758 Y0.3210  
G01 X-1.7792 Y0.3230  
G01 X-1.8442 Y0.3880  
G01 X-1.8470 Y0.3908  
G01 X-1.8490 Y0.3942  
G01 X-1.8500 Y0.3980  
G01 X-1.8500 Y0.7270  
G01 X-1.8490 Y0.7308  
G01 X-1.8470 Y0.7342  
G01 X-1.8442 Y0.7370  
G01 X-1.8408 Y0.7390  
G01 X-1.8370 Y0.7400  
G01 X-1.8007 Y0.7400  
G01 X-1.8003 Y0.7408  
G01 X-1.7984 Y0.7427  
G01 X-1.7958 Y0.7438  
G01 X-1.7064 Y0.7438  
G01 X-1.7038 Y0.7427  
G01 X-1.7019 Y0.7408  
G01 X-1.7008 Y0.7382  
G01 X-1.7008 Y0.7118  
G01 X-1.7019 Y0.7092  
G01 X-1.7038 Y0.7073  
G01 X-1.7064 Y0.7062  
G01 X-1.7958 Y0.7062  
G01 X-1.7984 Y0.7073  
G01 X-1.8003 Y0.7092  
G01 X-1.8007 Y0.7100  
G01 X-1.8200 Y0.7100  
G01 X-1.8200 Y0.4062  
G01 X-1.7638 Y0.3500  
G01 X-0.4330 Y0.3500  
G01 X-0.4292 Y0.3490  
G01 X-0.4258 Y0.3470  
G01 X-0.4230 Y0.3442  
G01 X-0.3838 Y0.3050  
G01 X-0.2112 Y0.3050  
G01 X-0.1350 Y0.3812  
G01 X-0.1350 Y0.4638  
G01 X-0.1509 Y0.4797  
G01 X-0.1726 Y0.4580  
G01 X-0.2074 Y0.4580  
G01 X-0.2320 Y0.4826  
G00 Z0.1000  
G00 X-0.2320 Y0.5826  
G01 Z-0.0070 F10    
G01 X-0.2320 Y0.6174  F20    
G01 X-0.2074 Y0.6420  
G01 X-0.1726 Y0.6420  
G01 X-0.1480 Y0.6174  
G01 X-0.1480 Y0.5826  
G01 X-0.1726 Y0.5580  
G01 X-0.2074 Y0.5580  
G01 X-0.2320 Y0.5826  
G00 Z0.1000  
G00 X-0.2320 Y0.6826  
G01 Z-0.0070 F10    
G01 X-0.2320 Y0.7174  F20    
G01 X-0.2074 Y0.7420  
G01 X-0.1726 Y0.7420  
G01 X-0.1480 Y0.7174  
G01 X-0.1480 Y0.6826  
G01 X-0.1726 Y0.6580  
G01 X-0.2074 Y0.6580  
G01 X-0.2320 Y0.6826  
G00 Z0.1000  
G00 X-0.2320 Y0.9826  
G01 Z-0.0070 F10    
G01 X-0.2320 Y1.0174  F20    
G01 X-0.2153 Y1.0341  
G01 X-0.3562 Y1.1750  
G01 X-0.3612 Y1.1750  
G01 X-0.3612 Y1.1468  
G01 X-0.3623 Y1.1442  
G01 X-0.3642 Y1.1423  
G01 X-0.3668 Y1.1412  
G01 X-0.4532 Y1.1412  
G01 X-0.4558 Y1.1423  
G01 X-0.4577 Y1.1442  
G01 X-0.4588 Y1.1468  
G01 X-0.4588 Y1.2332  
G01 X-0.4577 Y1.2358  
G01 X-0.4558 Y1.2377  
G01 X-0.4532 Y1.2388  
G01 X-0.3668 Y1.2388  
G01 X-0.3642 Y1.2377  
G01 X-0.3623 Y1.2358  
G01 X-0.3612 Y1.2332  
G01 X-0.3612 Y1.2050  
G01 X-0.3480 Y1.2050  
G01 X-0.3442 Y1.2040  
G01 X-0.3408 Y1.2020  
G01 X-0.3380 Y1.1992  
G01 X-0.1808 Y1.0420  
G01 X-0.1726 Y1.0420  
G01 X-0.1480 Y1.0174  
G01 X-0.1480 Y0.9826  
G01 X-0.1726 Y0.9580  
G01 X-0.2074 Y0.9580  
G01 X-0.2320 Y0.9826  
G00 Z0.1000  
G00 X-0.3320 Y0.4826  
G01 Z-0.0070 F10    
G01 X-0.3320 Y0.4850  F20    
G01 X-0.3412 Y0.4850  
G01 X-0.3412 Y0.4568  
G01 X-0.3423 Y0.4542  
G01 X-0.3442 Y0.4523  
G01 X-0.3468 Y0.4512  
G01 X-0.4332 Y0.4512  
G01 X-0.4350 Y0.4519  
G01 X-0.4350 Y0.4330  
G01 X-0.4360 Y0.4292  
G01 X-0.4380 Y0.4258  
G01 X-0.4408 Y0.4230  
G01 X-0.4442 Y0.4210  
G01 X-0.4480 Y0.4200  
G01 X-0.9970 Y0.4200  
G01 X-1.0008 Y0.4210  
G01 X-1.0042 Y0.4230  
G01 X-1.0070 Y0.4258  
G01 X-1.1912 Y0.6100  
G01 X-1.3393 Y0.6100  
G01 X-1.3397 Y0.6092  
G01 X-1.3416 Y0.6073  
G01 X-1.3442 Y0.6062  
G01 X-1.4336 Y0.6062  
G01 X-1.4362 Y0.6073  
G01 X-1.4381 Y0.6092  
G01 X-1.4392 Y0.6118  
G01 X-1.4392 Y0.6382  
G01 X-1.4381 Y0.6408  
G01 X-1.4362 Y0.6427  
G01 X-1.4336 Y0.6438  
G01 X-1.3442 Y0.6438  
G01 X-1.3416 Y0.6427  
G01 X-1.3397 Y0.6408  
G01 X-1.3393 Y0.6400  
G01 X-1.1830 Y0.6400  
G01 X-1.1792 Y0.6390  
G01 X-1.1758 Y0.6370  
G01 X-0.9888 Y0.4500  
G01 X-0.4650 Y0.4500  
G01 X-0.4650 Y0.5670  
G01 X-0.4640 Y0.5708  
G01 X-0.4620 Y0.5742  
G01 X-0.4592 Y0.5770  
G01 X-0.4558 Y0.5790  
G01 X-0.4520 Y0.5800  
G01 X-0.3850 Y0.5800  
G01 X-0.3850 Y0.7795  
G01 X-0.3851 Y0.7811  
G01 X-0.3850 Y0.7815  
G01 X-0.3850 Y0.7820  
G01 X-0.3846 Y0.7834  
G01 X-0.3843 Y0.7849  
G01 X-0.3841 Y0.7853  
G01 X-0.3840 Y0.7858  
G01 X-0.3832 Y0.7871  
G01 X-0.3741 Y0.8053  
G01 X-0.3740 Y0.8058  
G01 X-0.3732 Y0.8071  
G01 X-0.3725 Y0.8085  
G01 X-0.3722 Y0.8088  
G01 X-0.3720 Y0.8092  
G01 X-0.3709 Y0.8103  
G01 X-0.3699 Y0.8114  
G01 X-0.3695 Y0.8117  
G01 X-0.3692 Y0.8120  
G01 X-0.3679 Y0.8128  
G01 X-0.3666 Y0.8136  
G01 X-0.3662 Y0.8137  
G01 X-0.3658 Y0.8140  
G01 X-0.3643 Y0.8144  
G01 X-0.3629 Y0.8149  
G01 X-0.3624 Y0.8149  
G01 X-0.3620 Y0.8150  
G01 X-0.3604 Y0.8150  
G01 X-0.3589 Y0.8151  
G01 X-0.3585 Y0.8150  
G01 X-0.3320 Y0.8150  
G01 X-0.3320 Y0.8174  
G01 X-0.3074 Y0.8420  
G01 X-0.2726 Y0.8420  
G01 X-0.2480 Y0.8174  
G01 X-0.2480 Y0.7826  
G01 X-0.2726 Y0.7580  
G01 X-0.3074 Y0.7580  
G01 X-0.3320 Y0.7826  
G01 X-0.3320 Y0.7850  
G01 X-0.3507 Y0.7850  
G01 X-0.3550 Y0.7765  
G01 X-0.3550 Y0.5630  
G01 X-0.3560 Y0.5592  
G01 X-0.3580 Y0.5558  
G01 X-0.3608 Y0.5530  
G01 X-0.3642 Y0.5510  
G01 X-0.3680 Y0.5500  
G01 X-0.4350 Y0.5500  
G01 X-0.4350 Y0.5481  
G01 X-0.4332 Y0.5488  
G01 X-0.3468 Y0.5488  
G01 X-0.3442 Y0.5477  
G01 X-0.3423 Y0.5458  
G01 X-0.3412 Y0.5432  
G01 X-0.3412 Y0.5150  
G01 X-0.3320 Y0.5150  
G01 X-0.3320 Y0.5174  
G01 X-0.3074 Y0.5420  
G01 X-0.2726 Y0.5420  
G01 X-0.2480 Y0.5174  
G01 X-0.2480 Y0.4826  
G01 X-0.2726 Y0.4580  
G01 X-0.3074 Y0.4580  
G01 X-0.3320 Y0.4826  
G00 Z0.1000  
G00 X-0.3320 Y0.5826  
G01 Z-0.0070 F10    
G01 X-0.3320 Y0.6174  F20    
G01 X-0.3074 Y0.6420  
G01 X-0.2726 Y0.6420  
G01 X-0.2480 Y0.6174  
G01 X-0.2480 Y0.5826  
G01 X-0.2726 Y0.5580  
G01 X-0.3074 Y0.5580  
G01 X-0.3320 Y0.5826  
G00 Z0.1000  
G00 X-0.3320 Y0.6826  
G01 Z-0.0070 F10    
G01 X-0.3320 Y0.7174  F20    
G01 X-0.3074 Y0.7420  
G01 X-0.2726 Y0.7420  
G01 X-0.2480 Y0.7174  
G01 X-0.2480 Y0.6826  
G01 X-0.2726 Y0.6580  
G01 X-0.3074 Y0.6580  
G01 X-0.3320 Y0.6826  
G00 Z0.1000  
G00 X-0.3320 Y0.8826  
G01 Z-0.0070 F10    
G01 X-0.3320 Y0.8850  F20    
G01 X-0.3512 Y0.8850  
G01 X-0.3512 Y0.8568  
G01 X-0.3523 Y0.8542  
G01 X-0.3542 Y0.8523  
G01 X-0.3568 Y0.8512  
G01 X-0.4432 Y0.8512  
G01 X-0.4458 Y0.8523  
G01 X-0.4477 Y0.8542  
G01 X-0.4488 Y0.8568  
G01 X-0.4488 Y0.9432  
G01 X-0.4477 Y0.9458  
G01 X-0.4458 Y0.9477  
G01 X-0.4432 Y0.9488  
G01 X-0.3568 Y0.9488  
G01 X-0.3542 Y0.9477  
G01 X-0.3523 Y0.9458  
G01 X-0.3512 Y0.9432  
G01 X-0.3512 Y0.9150  
G01 X-0.3320 Y0.9150  
G01 X-0.3320 Y0.9174  
G01 X-0.3074 Y0.9420  
G01 X-0.2726 Y0.9420  
G01 X-0.2480 Y0.9174  
G01 X-0.2480 Y0.8826  
G01 X-0.2726 Y0.8580  
G01 X-0.3074 Y0.8580  
G01 X-0.3320 Y0.8826  
G00 Z0.1000  
G00 X-1.3442 Y0.8562  
G01 Z-0.0070 F10    
G01 X-1.4336 Y0.8562  F20    
G01 X-1.4362 Y0.8573  
G01 X-1.4381 Y0.8592  
G01 X-1.4392 Y0.8618  
G01 X-1.4392 Y0.8882  
G01 X-1.4381 Y0.8908  
G01 X-1.4362 Y0.8927  
G01 X-1.4336 Y0.8938  
G01 X-1.3442 Y0.8938  
G01 X-1.3416 Y0.8927  
G01 X-1.3397 Y0.8908  
G01 X-1.3393 Y0.8900  
G01 X-1.3312 Y0.8900  
G01 X-1.2488 Y0.9724  
G01 X-1.2488 Y1.0432  
G01 X-1.2477 Y1.0458  
G01 X-1.2458 Y1.0477  
G01 X-1.2432 Y1.0488  
G01 X-1.1568 Y1.0488  
G01 X-1.1542 Y1.0477  
G01 X-1.1523 Y1.0458  
G01 X-1.1512 Y1.0432  
G01 X-1.1512 Y0.9568  
G01 X-1.1523 Y0.9542  
G01 X-1.1542 Y0.9523  
G01 X-1.1568 Y0.9512  
G01 X-1.2276 Y0.9512  
G01 X-1.3158 Y0.8630  
G01 X-1.3192 Y0.8610  
G01 X-1.3230 Y0.8600  
G01 X-1.3393 Y0.8600  
G01 X-1.3397 Y0.8592  
G01 X-1.3416 Y0.8573  
G01 X-1.3442 Y0.8562  
G00 Z0.1000  
G00 X-1.7064 Y0.5562  
G01 Z-0.0070 F10    
G01 X-1.7361 Y0.5562  F20    
G01 X-1.7361 Y0.5438  
G01 X-1.7068 Y0.5438  
G01 X-1.7042 Y0.5427  
G01 X-1.7023 Y0.5408  
G01 X-1.7012 Y0.5382  
G01 X-1.7012 Y0.4518  
G01 X-1.7023 Y0.4492  
G01 X-1.7042 Y0.4473  
G01 X-1.7068 Y0.4462  
G01 X-1.7932 Y0.4462  
G01 X-1.7958 Y0.4473  
G01 X-1.7977 Y0.4492  
G01 X-1.7988 Y0.4518  
G01 X-1.7988 Y0.5382  
G01 X-1.7977 Y0.5408  
G01 X-1.7958 Y0.5427  
G01 X-1.7932 Y0.5438  
G01 X-1.7661 Y0.5438  
G01 X-1.7661 Y0.5562  
G01 X-1.7958 Y0.5562  
G01 X-1.7984 Y0.5573  
G01 X-1.8003 Y0.5592  
G01 X-1.8014 Y0.5618  
G01 X-1.8014 Y0.5882  
G01 X-1.8003 Y0.5908  
G01 X-1.7984 Y0.5927  
G01 X-1.7958 Y0.5938  
G01 X-1.7064 Y0.5938  
G01 X-1.7038 Y0.5927  
G01 X-1.7019 Y0.5908  
G01 X-1.7008 Y0.5882  
G01 X-1.7008 Y0.5618  
G01 X-1.7019 Y0.5592  
G01 X-1.7038 Y0.5573  
G01 X-1.7064 Y0.5562  
G00 Z0.1000  
G00 X-1.7064 Y0.6062  
G01 Z-0.0070 F10    
G01 X-1.7958 Y0.6062  F20    
G01 X-1.7984 Y0.6073  
G01 X-1.8003 Y0.6092  
G01 X-1.8014 Y0.6118  
G01 X-1.8014 Y0.6382  
G01 X-1.8003 Y0.6408  
G01 X-1.7984 Y0.6427  
G01 X-1.7958 Y0.6438  
G01 X-1.7064 Y0.6438  
G01 X-1.7038 Y0.6427  
G01 X-1.7019 Y0.6408  
G01 X-1.7015 Y0.6400  
G01 X-1.6880 Y0.6400  
G01 X-1.6842 Y0.6390  
G01 X-1.6808 Y0.6370  
G01 X-1.6780 Y0.6342  
G01 X-1.6530 Y0.6092  
G01 X-1.6510 Y0.6058  
G01 X-1.6500 Y0.6020  
G01 X-1.6500 Y0.4412  
G01 X-1.5888 Y0.3800  
G01 X-0.3930 Y0.3800  
G01 X-0.3892 Y0.3790  
G01 X-0.3858 Y0.3770  
G01 X-0.3830 Y0.3742  
G01 X-0.3488 Y0.3400  
G01 X-0.2562 Y0.3400  
G01 X-0.2228 Y0.3734  
G01 X-0.2320 Y0.3826  
G01 X-0.2320 Y0.4174  
G01 X-0.2074 Y0.4420  
G01 X-0.1726 Y0.4420  
G01 X-0.1480 Y0.4174  
G01 X-0.1480 Y0.3826  
G01 X-0.1726 Y0.3580  
G01 X-0.1958 Y0.3580  
G01 X-0.2380 Y0.3158  
G01 X-0.2408 Y0.3130  
G01 X-0.2442 Y0.3110  
G01 X-0.2480 Y0.3100  
G01 X-0.3570 Y0.3100  
G01 X-0.3608 Y0.3110  
G01 X-0.3642 Y0.3130  
G01 X-0.4012 Y0.3500  
G01 X-1.5970 Y0.3500  
G01 X-1.6008 Y0.3510  
G01 X-1.6042 Y0.3530  
G01 X-1.6742 Y0.4230  
G01 X-1.6770 Y0.4258  
G01 X-1.6790 Y0.4292  
G01 X-1.6800 Y0.4330  
G01 X-1.6800 Y0.5938  
G01 X-1.6962 Y0.6100  
G01 X-1.7015 Y0.6100  
G01 X-1.7019 Y0.6092  
G01 X-1.7038 Y0.6073  
G01 X-1.7064 Y0.6062  
G00 Z0.1000  
G00 X-1.7064 Y0.6562  
G01 Z-0.0070 F10    
G01 X-1.7958 Y0.6562  F20    
G01 X-1.7984 Y0.6573  
G01 X-1.8003 Y0.6592  
G01 X-1.8014 Y0.6618  
G01 X-1.8014 Y0.6882  
G01 X-1.8003 Y0.6908  
G01 X-1.7984 Y0.6927  
G01 X-1.7958 Y0.6938  
G01 X-1.7064 Y0.6938  
G01 X-1.7038 Y0.6927  
G01 X-1.7019 Y0.6908  
G01 X-1.7015 Y0.6900  
G01 X-1.6830 Y0.6900  
G01 X-1.6792 Y0.6890  
G01 X-1.6758 Y0.6870  
G01 X-1.6208 Y0.6320  
G01 X-1.6180 Y0.6292  
G01 X-1.6160 Y0.6258  
G01 X-1.6150 Y0.6220  
G01 X-1.6150 Y0.4662  
G01 X-1.5638 Y0.4150  
G01 X-0.3320 Y0.4150  
G01 X-0.3320 Y0.4174  
G01 X-0.3074 Y0.4420  
G01 X-0.2726 Y0.4420  
G01 X-0.2480 Y0.4174  
G01 X-0.2480 Y0.3826  
G01 X-0.2726 Y0.3580  
G01 X-0.3074 Y0.3580  
G01 X-0.3320 Y0.3826  
G01 X-0.3320 Y0.3850  
G01 X-1.5720 Y0.3850  
G01 X-1.5758 Y0.3860  
G01 X-1.5792 Y0.3880  
G01 X-1.5820 Y0.3908  
G01 X-1.6420 Y0.4508  
G01 X-1.6440 Y0.4542  
G01 X-1.6450 Y0.4580  
G01 X-1.6450 Y0.6138  
G01 X-1.6912 Y0.6600  
G01 X-1.7015 Y0.6600  
G01 X-1.7019 Y0.6592  
G01 X-1.7038 Y0.6573  
G01 X-1.7064 Y0.6562  
G00 Z0.1000  
G00 X-1.3442 Y0.6562  
G01 Z-0.0070 F10    
G01 X-1.4336 Y0.6562  F20    
G01 X-1.4362 Y0.6573  
G01 X-1.4381 Y0.6592  
G01 X-1.4392 Y0.6618  
G01 X-1.4392 Y0.6882  
G01 X-1.4381 Y0.6908  
G01 X-1.4362 Y0.6927  
G01 X-1.4336 Y0.6938  
G01 X-1.3442 Y0.6938  
G01 X-1.3416 Y0.6927  
G01 X-1.3397 Y0.6908  
G01 X-1.3393 Y0.6900  
G01 X-1.1830 Y0.6900  
G01 X-1.1792 Y0.6890  
G01 X-1.1758 Y0.6870  
G01 X-1.0288 Y0.5400  
G01 X-0.5688 Y0.5400  
G01 X-0.5688 Y0.5682  
G01 X-0.5677 Y0.5708  
G01 X-0.5658 Y0.5727  
G01 X-0.5632 Y0.5738  
G01 X-0.4768 Y0.5738  
G01 X-0.4742 Y0.5727  
G01 X-0.4723 Y0.5708  
G01 X-0.4712 Y0.5682  
G01 X-0.4712 Y0.4818  
G01 X-0.4723 Y0.4792  
G01 X-0.4742 Y0.4773  
G01 X-0.4768 Y0.4762  
G01 X-0.5632 Y0.4762  
G01 X-0.5658 Y0.4773  
G01 X-0.5677 Y0.4792  
G01 X-0.5688 Y0.4818  
G01 X-0.5688 Y0.5100  
G01 X-1.0370 Y0.5100  
G01 X-1.0408 Y0.5110  
G01 X-1.0442 Y0.5130  
G01 X-1.0470 Y0.5158  
G01 X-1.1912 Y0.6600  
G01 X-1.3393 Y0.6600  
G01 X-1.3397 Y0.6592  
G01 X-1.3416 Y0.6573  
G01 X-1.3442 Y0.6562  
G00 Z0.1000  
G00 X-1.3442 Y0.7062  
G01 Z-0.0070 F10    
G01 X-1.4336 Y0.7062  F20    
G01 X-1.4362 Y0.7073  
G01 X-1.4381 Y0.7092  
G01 X-1.4385 Y0.7100  
G01 X-1.5670 Y0.7100  
G01 X-1.5708 Y0.7110  
G01 X-1.5742 Y0.7130  
G01 X-1.6792 Y0.8180  
G01 X-1.6820 Y0.8208  
G01 X-1.6840 Y0.8242  
G01 X-1.6850 Y0.8280  
G01 X-1.6850 Y0.9438  
G01 X-1.7612 Y1.0200  
G01 X-2.1838 Y1.0200  
G01 X-2.3091 Y0.8947  
G01 X-2.3030 Y0.8886  
G01 X-2.3030 Y0.8414  
G01 X-2.3364 Y0.8080  
G01 X-2.3836 Y0.8080  
G01 X-2.4170 Y0.8414  
G01 X-2.4170 Y0.8886  
G01 X-2.3836 Y0.9220  
G01 X-2.3364 Y0.9220  
G01 X-2.3303 Y0.9159  
G01 X-2.1992 Y1.0470  
G01 X-2.1958 Y1.0490  
G01 X-2.1920 Y1.0500  
G01 X-1.7530 Y1.0500  
G01 X-1.7492 Y1.0490  
G01 X-1.7458 Y1.0470  
G01 X-1.7430 Y1.0442  
G01 X-1.6580 Y0.9592  
G01 X-1.6560 Y0.9558  
G01 X-1.6550 Y0.9520  
G01 X-1.6550 Y0.8362  
G01 X-1.5588 Y0.7400  
G01 X-1.4385 Y0.7400  
G01 X-1.4381 Y0.7408  
G01 X-1.4362 Y0.7427  
G01 X-1.4336 Y0.7438  
G01 X-1.3442 Y0.7438  
G01 X-1.3416 Y0.7427  
G01 X-1.3397 Y0.7408  
G01 X-1.3386 Y0.7382  
G01 X-1.3386 Y0.7118  
G01 X-1.3397 Y0.7092  
G01 X-1.3416 Y0.7073  
G01 X-1.3442 Y0.7062  
G00 Z0.1000  
G00 X-1.7064 Y0.8562  
G01 Z-0.0070 F10    
G01 X-1.7958 Y0.8562  F20    
G01 X-1.7984 Y0.8573  
G01 X-1.8003 Y0.8592  
G01 X-1.8007 Y0.8600  
G01 X-1.8565 Y0.8600  
G01 X-1.9305 Y0.8230  
G01 X-1.9305 Y0.8076  
G01 X-1.9300 Y0.8068  
G01 X-1.9298 Y0.8058  
G01 X-1.9294 Y0.8050  
G01 X-1.9293 Y0.8039  
G01 X-1.9290 Y0.8030  
G01 X-1.9290 Y0.8020  
G01 X-1.9289 Y0.8010  
G01 X-1.9290 Y0.8000  
G01 X-1.9290 Y0.7990  
G01 X-1.9293 Y0.7981  
G01 X-1.9294 Y0.7971  
G01 X-1.9298 Y0.7962  
G01 X-1.9300 Y0.7952  
G01 X-1.9305 Y0.7944  
G01 X-1.9305 Y0.7831  
G01 X-1.9316 Y0.7805  
G01 X-1.9336 Y0.7786  
G01 X-1.9361 Y0.7775  
G01 X-1.9463 Y0.7775  
G01 X-1.9780 Y0.7458  
G01 X-1.9808 Y0.7430  
G01 X-1.9842 Y0.7410  
G01 X-1.9880 Y0.7400  
G01 X-2.2438 Y0.7400  
G01 X-2.2450 Y0.7388  
G01 X-2.1618 Y0.7388  
G01 X-2.1592 Y0.7377  
G01 X-2.1573 Y0.7358  
G01 X-2.1562 Y0.7332  
G01 X-2.1562 Y0.7050  
G01 X-2.1245 Y0.7050  
G01 X-2.1245 Y0.7269  
G01 X-2.1234 Y0.7295  
G01 X-2.1214 Y0.7314  
G01 X-2.1189 Y0.7325  
G01 X-2.0531 Y0.7325  
G01 X-2.0505 Y0.7314  
G01 X-2.0486 Y0.7295  
G01 X-2.0475 Y0.7269  
G01 X-2.0475 Y0.6531  
G01 X-2.0486 Y0.6505  
G01 X-2.0505 Y0.6486  
G01 X-2.0531 Y0.6475  
G01 X-2.1189 Y0.6475  
G01 X-2.1214 Y0.6486  
G01 X-2.1234 Y0.6505  
G01 X-2.1245 Y0.6531  
G01 X-2.1245 Y0.6750  
G01 X-2.1562 Y0.6750  
G01 X-2.1562 Y0.6468  
G01 X-2.1573 Y0.6442  
G01 X-2.1592 Y0.6423  
G01 X-2.1618 Y0.6412  
G01 X-2.2482 Y0.6412  
G01 X-2.2508 Y0.6423  
G01 X-2.2527 Y0.6442  
G01 X-2.2538 Y0.6468  
G01 X-2.2538 Y0.7300  
G01 X-2.3150 Y0.6688  
G01 X-2.3150 Y0.3636  
G01 X-2.2659 Y0.3350  
G01 X-2.1612 Y0.3350  
G01 X-2.1550 Y0.3412  
G01 X-2.1550 Y0.3491  
G01 X-2.1580 Y0.3503  
G01 X-2.1642 Y0.3545  
G01 X-2.1695 Y0.3598  
G01 X-2.1737 Y0.3660  
G01 X-2.1765 Y0.3729  
G01 X-2.1780 Y0.3803  
G01 X-2.1780 Y0.4497  
G01 X-2.1765 Y0.4571  
G01 X-2.1737 Y0.4640  
G01 X-2.1695 Y0.4702  
G01 X-2.1642 Y0.4755  
G01 X-2.1580 Y0.4797  
G01 X-2.1511 Y0.4825  
G01 X-2.1437 Y0.4840  
G01 X-2.1363 Y0.4840  
G01 X-2.1289 Y0.4825  
G01 X-2.1220 Y0.4797  
G01 X-2.1158 Y0.4755  
G01 X-2.1105 Y0.4702  
G01 X-2.1063 Y0.4640  
G01 X-2.1035 Y0.4571  
G01 X-2.1020 Y0.4497  
G01 X-2.1020 Y0.3803  
G01 X-2.1035 Y0.3729  
G01 X-2.1063 Y0.3660  
G01 X-2.1105 Y0.3598  
G01 X-2.1158 Y0.3545  
G01 X-2.1220 Y0.3503  
G01 X-2.1250 Y0.3491  
G01 X-2.1250 Y0.3330  
G01 X-2.1260 Y0.3292  
G01 X-2.1280 Y0.3258  
G01 X-2.1308 Y0.3230  
G01 X-2.1458 Y0.3080  
G01 X-2.1492 Y0.3060  
G01 X-2.1530 Y0.3050  
G01 X-2.2681 Y0.3050  
G01 X-2.2700 Y0.3050  
G01 X-2.2720 Y0.3050  
G01 X-2.2739 Y0.3055  
G01 X-2.2758 Y0.3060  
G01 X-2.2775 Y0.3070  
G01 X-2.2792 Y0.3080  
G01 X-2.3375 Y0.3420  
G01 X-2.3392 Y0.3430  
G01 X-2.3406 Y0.3444  
G01 X-2.3420 Y0.3458  
G01 X-2.3430 Y0.3475  
G01 X-2.3440 Y0.3492  
G01 X-2.3445 Y0.3512  
G01 X-2.3450 Y0.3530  
G01 X-2.3450 Y0.3550  
G01 X-2.3450 Y0.6770  
G01 X-2.3440 Y0.6808  
G01 X-2.3420 Y0.6842  
G01 X-2.3392 Y0.6870  
G01 X-2.2592 Y0.7670  
G01 X-2.2558 Y0.7690  
G01 X-2.2520 Y0.7700  
G01 X-1.9962 Y0.7700  
G01 X-1.9887 Y0.7775  
G01 X-2.0019 Y0.7775  
G01 X-2.0045 Y0.7786  
G01 X-2.0064 Y0.7805  
G01 X-2.0075 Y0.7831  
G01 X-2.0075 Y0.8569  
G01 X-2.0064 Y0.8595  
G01 X-2.0045 Y0.8614  
G01 X-2.0019 Y0.8625  
G01 X-1.9361 Y0.8625  
G01 X-1.9336 Y0.8614  
G01 X-1.9316 Y0.8595  
G01 X-1.9305 Y0.8569  
G01 X-1.9305 Y0.8565  
G01 X-1.8671 Y0.8882  
G01 X-1.8658 Y0.8890  
G01 X-1.8653 Y0.8891  
G01 X-1.8649 Y0.8893  
G01 X-1.8634 Y0.8896  
G01 X-1.8620 Y0.8900  
G01 X-1.8615 Y0.8900  
G01 X-1.8611 Y0.8901  
G01 X-1.8595 Y0.8900  
G01 X-1.8007 Y0.8900  
G01 X-1.8003 Y0.8908  
G01 X-1.7984 Y0.8927  
G01 X-1.7958 Y0.8938  
G01 X-1.7064 Y0.8938  
G01 X-1.7038 Y0.8927  
G01 X-1.7019 Y0.8908  
G01 X-1.7008 Y0.8882  
G01 X-1.7008 Y0.8618  
G01 X-1.7019 Y0.8592  
G01 X-1.7038 Y0.8573  
G01 X-1.7064 Y0.8562  
G00 Z0.1000  
G00 X-0.9189 Y0.6052  
G01 Z-0.0070 F10    
G01 X-0.9189 Y0.6559  F20    
G01 X-1.1229 Y0.6559  
G01 X-1.1267 Y0.6570  
G01 X-1.1302 Y0.6589  
G01 X-1.2312 Y0.7600  
G01 X-1.3393 Y0.7600  
G01 X-1.3397 Y0.7592  
G01 X-1.3416 Y0.7573  
G01 X-1.3442 Y0.7562  
G01 X-1.4336 Y0.7562  
G01 X-1.4362 Y0.7573  
G01 X-1.4381 Y0.7592  
G01 X-1.4392 Y0.7618  
G01 X-1.4392 Y0.7882  
G01 X-1.4381 Y0.7908  
G01 X-1.4362 Y0.7927  
G01 X-1.4336 Y0.7938  
G01 X-1.3442 Y0.7938  
G01 X-1.3416 Y0.7927  
G01 X-1.3397 Y0.7908  
G01 X-1.3393 Y0.7900  
G01 X-1.2230 Y0.7900  
G01 X-1.2192 Y0.7890  
G01 X-1.2158 Y0.7870  
G01 X-1.2130 Y0.7842  
G01 X-1.1147 Y0.6859  
G01 X-0.9158 Y0.6859  
G01 X-0.9145 Y0.6889  
G01 X-0.9104 Y0.6952  
G01 X-0.9051 Y0.7005  
G01 X-0.8989 Y0.7046  
G01 X-0.8920 Y0.7075  
G01 X-0.8846 Y0.7089  
G01 X-0.8771 Y0.7089  
G01 X-0.8698 Y0.7075  
G01 X-0.8629 Y0.7046  
G01 X-0.8566 Y0.7005  
G01 X-0.8513 Y0.6952  
G01 X-0.8472 Y0.6889  
G01 X-0.8443 Y0.6820  
G01 X-0.8429 Y0.6747  
G01 X-0.8429 Y0.6052  
G01 X-0.8443 Y0.5979  
G01 X-0.8472 Y0.5909  
G01 X-0.8513 Y0.5847  
G01 X-0.8566 Y0.5794  
G01 X-0.8629 Y0.5753  
G01 X-0.8698 Y0.5724  
G01 X-0.8771 Y0.5709  
G01 X-0.8846 Y0.5709  
G01 X-0.8920 Y0.5724  
G01 X-0.8989 Y0.5753  
G01 X-0.9051 Y0.5794  
G01 X-0.9104 Y0.5847  
G01 X-0.9145 Y0.5909  
G01 X-0.9174 Y0.5979  
G01 X-0.9189 Y0.6052  
G00 Z0.1000  
G00 X-0.7288 Y1.0218  
G01 Z-0.0070 F10    
G01 X-0.7288 Y1.0350  F20    
G01 X-0.7343 Y1.0350  
G01 X-0.7478 Y1.0215  
G01 X-0.7478 Y0.8860  
G01 X-0.7448 Y0.8847  
G01 X-0.7385 Y0.8806  
G01 X-0.7332 Y0.8753  
G01 X-0.7291 Y0.8691  
G01 X-0.7262 Y0.8621  
G01 X-0.7248 Y0.8548  
G01 X-0.7248 Y0.7853  
G01 X-0.7262 Y0.7780  
G01 X-0.7291 Y0.7711  
G01 X-0.7332 Y0.7648  
G01 X-0.7385 Y0.7595  
G01 X-0.7448 Y0.7554  
G01 X-0.7517 Y0.7525  
G01 X-0.7590 Y0.7511  
G01 X-0.7665 Y0.7511  
G01 X-0.7738 Y0.7525  
G01 X-0.7808 Y0.7554  
G01 X-0.7870 Y0.7595  
G01 X-0.7923 Y0.7648  
G01 X-0.7964 Y0.7711  
G01 X-0.7993 Y0.7780  
G01 X-0.8008 Y0.7853  
G01 X-0.8008 Y0.8548  
G01 X-0.7993 Y0.8621  
G01 X-0.7964 Y0.8691  
G01 X-0.7923 Y0.8753  
G01 X-0.7870 Y0.8806  
G01 X-0.7808 Y0.8847  
G01 X-0.7778 Y0.8860  
G01 X-0.7778 Y1.0215  
G01 X-0.8416 Y1.0854  
G01 X-0.8467 Y1.0862  
G01 X-0.8542 Y1.0887  
G01 X-0.8612 Y1.0922  
G01 X-0.8676 Y1.0969  
G01 X-0.8731 Y1.1024  
G01 X-0.8778 Y1.1088  
G01 X-0.8813 Y1.1158  
G01 X-0.8827 Y1.1200  
G01 X-1.0013 Y1.1200  
G01 X-1.0043 Y1.1170  
G01 X-1.0050 Y1.1170  
G01 X-1.0050 Y1.1088  
G01 X-0.9768 Y1.1088  
G01 X-0.9742 Y1.1077  
G01 X-0.9723 Y1.1058  
G01 X-0.9712 Y1.1032  
G01 X-0.9712 Y1.0168  
G01 X-0.9723 Y1.0142  
G01 X-0.9742 Y1.0123  
G01 X-0.9768 Y1.0112  
G01 X-1.0632 Y1.0112  
G01 X-1.0658 Y1.0123  
G01 X-1.0677 Y1.0142  
G01 X-1.0688 Y1.0168  
G01 X-1.0688 Y1.1032  
G01 X-1.0677 Y1.1058  
G01 X-1.0658 Y1.1077  
G01 X-1.0632 Y1.1088  
G01 X-1.0350 Y1.1088  
G01 X-1.0350 Y1.1170  
G01 X-1.0357 Y1.1170  
G01 X-1.0580 Y1.1393  
G01 X-1.0580 Y1.1707  
G01 X-1.0357 Y1.1930  
G01 X-1.0043 Y1.1930  
G01 X-0.9820 Y1.1707  
G01 X-0.9820 Y1.1500  
G01 X-0.8827 Y1.1500  
G01 X-0.8813 Y1.1542  
G01 X-0.8778 Y1.1612  
G01 X-0.8731 Y1.1676  
G01 X-0.8676 Y1.1731  
G01 X-0.8612 Y1.1778  
G01 X-0.8542 Y1.1813  
G01 X-0.8467 Y1.1838  
G01 X-0.8389 Y1.1850  
G01 X-0.8311 Y1.1850  
G01 X-0.8233 Y1.1838  
G01 X-0.8158 Y1.1813  
G01 X-0.8088 Y1.1778  
G01 X-0.8024 Y1.1731  
G01 X-0.7969 Y1.1676  
G01 X-0.7922 Y1.1612  
G01 X-0.7887 Y1.1542  
G01 X-0.7862 Y1.1467  
G01 X-0.7850 Y1.1389  
G01 X-0.7850 Y1.1311  
G01 X-0.7862 Y1.1233  
G01 X-0.7887 Y1.1158  
G01 X-0.7922 Y1.1088  
G01 X-0.7969 Y1.1024  
G01 X-0.8024 Y1.0969  
G01 X-0.8072 Y1.0934  
G01 X-0.7628 Y1.0490  
G01 X-0.7497 Y1.0620  
G01 X-0.7463 Y1.0640  
G01 X-0.7425 Y1.0650  
G01 X-0.7288 Y1.0650  
G01 X-0.7288 Y1.1082  
G01 X-0.7277 Y1.1108  
G01 X-0.7258 Y1.1127  
G01 X-0.7232 Y1.1138  
G01 X-0.6368 Y1.1138  
G01 X-0.6342 Y1.1127  
G01 X-0.6323 Y1.1108  
G01 X-0.6312 Y1.1082  
G01 X-0.6312 Y1.0218  
G01 X-0.6323 Y1.0192  
G01 X-0.6342 Y1.0173  
G01 X-0.6368 Y1.0162  
G01 X-0.7232 Y1.0162  
G01 X-0.7258 Y1.0173  
G01 X-0.7277 Y1.0192  
G01 X-0.7288 Y1.0218  
G00 Z0.1000  
G00 X-0.5588 Y0.9318  
G01 Z-0.0070 F10    
G01 X-0.5588 Y1.0182  F20    
G01 X-0.5577 Y1.0208  
G01 X-0.5558 Y1.0227  
G01 X-0.5532 Y1.0238  
G01 X-0.4668 Y1.0238  
G01 X-0.4642 Y1.0227  
G01 X-0.4623 Y1.0208  
G01 X-0.4612 Y1.0182  
G01 X-0.4612 Y0.9318  
G01 X-0.4623 Y0.9292  
G01 X-0.4642 Y0.9273  
G01 X-0.4668 Y0.9262  
G01 X-0.4900 Y0.9262  
G01 X-0.4900 Y0.8862  
G01 X-0.4158 Y0.8120  
G01 X-0.4130 Y0.8092  
G01 X-0.4110 Y0.8058  
G01 X-0.4100 Y0.8020  
G01 X-0.4100 Y0.6180  
G01 X-0.4110 Y0.6142  
G01 X-0.4130 Y0.6108  
G01 X-0.4158 Y0.6080  
G01 X-0.4192 Y0.6060  
G01 X-0.4230 Y0.6050  
G01 X-0.6323 Y0.6050  
G01 X-0.6342 Y0.6050  
G01 X-0.6344 Y0.6050  
G01 X-0.6362 Y0.6055  
G01 X-0.6380 Y0.6059  
G01 X-0.6382 Y0.6060  
G01 X-0.6398 Y0.6070  
G01 X-0.6854 Y0.6325  
G01 X-0.6854 Y0.6052  
G01 X-0.6868 Y0.5979  
G01 X-0.6897 Y0.5909  
G01 X-0.6939 Y0.5847  
G01 X-0.6992 Y0.5794  
G01 X-0.7054 Y0.5753  
G01 X-0.7123 Y0.5724  
G01 X-0.7196 Y0.5709  
G01 X-0.7271 Y0.5709  
G01 X-0.7345 Y0.5724  
G01 X-0.7414 Y0.5753  
G01 X-0.7476 Y0.5794  
G01 X-0.7529 Y0.5847  
G01 X-0.7571 Y0.5909  
G01 X-0.7599 Y0.5979  
G01 X-0.7614 Y0.6052  
G01 X-0.7614 Y0.6747  
G01 X-0.7599 Y0.6820  
G01 X-0.7571 Y0.6889  
G01 X-0.7529 Y0.6952  
G01 X-0.7476 Y0.7005  
G01 X-0.7414 Y0.7046  
G01 X-0.7345 Y0.7075  
G01 X-0.7271 Y0.7089  
G01 X-0.7196 Y0.7089  
G01 X-0.7123 Y0.7075  
G01 X-0.7054 Y0.7046  
G01 X-0.6992 Y0.7005  
G01 X-0.6939 Y0.6952  
G01 X-0.6897 Y0.6889  
G01 X-0.6868 Y0.6820  
G01 X-0.6854 Y0.6747  
G01 X-0.6854 Y0.6669  
G01 X-0.6285 Y0.6350  
G01 X-0.4400 Y0.6350  
G01 X-0.4400 Y0.7938  
G01 X-0.5170 Y0.8708  
G01 X-0.5190 Y0.8742  
G01 X-0.5200 Y0.8780  
G01 X-0.5200 Y0.9262  
G01 X-0.5532 Y0.9262  
G01 X-0.5558 Y0.9273  
G01 X-0.5577 Y0.9292  
G01 X-0.5588 Y0.9318  
G00 Z0.1000  
G00 X-1.1438 Y0.2218  
G01 Z-0.0070 F10    
G01 X-1.1438 Y0.3082  F20    
G01 X-1.1427 Y0.3108  
G01 X-1.1408 Y0.3127  
G01 X-1.1382 Y0.3138  
G01 X-1.0518 Y0.3138  
G01 X-1.0492 Y0.3127  
G01 X-1.0473 Y0.3108  
G01 X-1.0462 Y0.3082  
G01 X-1.0462 Y0.2800  
G01 X-1.0012 Y0.2800  
G01 X-0.9920 Y0.2892  
G01 X-0.9892 Y0.2920  
G01 X-0.9858 Y0.2940  
G01 X-0.9820 Y0.2950  
G01 X-0.9809 Y0.2950  
G01 X-0.9797 Y0.2980  
G01 X-0.9755 Y0.3042  
G01 X-0.9702 Y0.3095  
G01 X-0.9640 Y0.3137  
G01 X-0.9571 Y0.3165  
G01 X-0.9497 Y0.3180  
G01 X-0.8803 Y0.3180  
G01 X-0.8729 Y0.3165  
G01 X-0.8660 Y0.3137  
G01 X-0.8598 Y0.3095  
G01 X-0.8545 Y0.3042  
G01 X-0.8503 Y0.2980  
G01 X-0.8475 Y0.2911  
G01 X-0.8460 Y0.2837  
G01 X-0.8460 Y0.2763  
G01 X-0.8475 Y0.2689  
G01 X-0.8503 Y0.2620  
G01 X-0.8545 Y0.2558  
G01 X-0.8598 Y0.2505  
G01 X-0.8660 Y0.2463  
G01 X-0.8729 Y0.2435  
G01 X-0.8803 Y0.2420  
G01 X-0.9497 Y0.2420  
G01 X-0.9571 Y0.2435  
G01 X-0.9640 Y0.2463  
G01 X-0.9702 Y0.2505  
G01 X-0.9755 Y0.2558  
G01 X-0.9785 Y0.2603  
G01 X-0.9858 Y0.2530  
G01 X-0.9892 Y0.2510  
G01 X-0.9930 Y0.2500  
G01 X-1.0462 Y0.2500  
G01 X-1.0462 Y0.2218  
G01 X-1.0473 Y0.2192  
G01 X-1.0492 Y0.2173  
G01 X-1.0518 Y0.2162  
G01 X-1.1382 Y0.2162  
G01 X-1.1408 Y0.2173  
G01 X-1.1427 Y0.2192  
G01 X-1.1438 Y0.2218  
G00 Z0.1000  
G00 X-0.7338 Y1.0216  
G01 Z-0.0070 F10    
G01 X-0.7338 Y1.0284  F20    
G01 X-0.7428 Y1.0195  
G01 X-0.7428 Y0.8891  
G01 X-0.7402 Y0.8878  
G01 X-0.7347 Y0.8839  
G01 X-0.7300 Y0.8791  
G01 X-0.7260 Y0.8736  
G01 X-0.7229 Y0.8676  
G01 X-0.7208 Y0.8611  
G01 X-0.7198 Y0.8544  
G01 X-0.7198 Y0.7857  
G01 X-0.7208 Y0.7790  
G01 X-0.7229 Y0.7725  
G01 X-0.7260 Y0.7665  
G01 X-0.7300 Y0.7610  
G01 X-0.7347 Y0.7563  
G01 X-0.7402 Y0.7523  
G01 X-0.7447 Y0.7500  
G01 X-0.7383 Y0.7500  
G01 X-0.7100 Y0.7783  
G01 X-0.7100 Y0.9126  
G01 X-0.7086 Y0.9177  
G01 X-0.7060 Y0.9223  
G01 X-0.6150 Y1.0133  
G01 X-0.6150 Y1.1267  
G01 X-0.7033 Y1.2150  
G01 X-0.7800 Y1.2150  
G01 X-0.7800 Y1.2122  
G01 X-0.8088 Y1.1834  
G01 X-0.8062 Y1.1820  
G01 X-0.7992 Y1.1770  
G01 X-0.7930 Y1.1708  
G01 X-0.7880 Y1.1638  
G01 X-0.7840 Y1.1561  
G01 X-0.7814 Y1.1479  
G01 X-0.7800 Y1.1393  
G01 X-0.7800 Y1.1307  
G01 X-0.7814 Y1.1221  
G01 X-0.7840 Y1.1139  
G01 X-0.7880 Y1.1062  
G01 X-0.7930 Y1.0992  
G01 X-0.7992 Y1.0930  
G01 X-0.7995 Y1.0928  
G01 X-0.7628 Y1.0560  
G01 X-0.7528 Y1.0660  
G01 X-0.7482 Y1.0686  
G01 X-0.7431 Y1.0700  
G01 X-0.7338 Y1.0700  
G01 X-0.7338 Y1.1084  
G01 X-0.7330 Y1.1114  
G01 X-0.7314 Y1.1142  
G01 X-0.7292 Y1.1164  
G01 X-0.7264 Y1.1180  
G01 X-0.7234 Y1.1188  
G01 X-0.6366 Y1.1188  
G01 X-0.6336 Y1.1180  
G01 X-0.6308 Y1.1164  
G01 X-0.6286 Y1.1142  
G01 X-0.6270 Y1.1114  
G01 X-0.6262 Y1.1084  
G01 X-0.6262 Y1.0216  
G01 X-0.6270 Y1.0186  
G01 X-0.6286 Y1.0158  
G01 X-0.6308 Y1.0136  
G01 X-0.6336 Y1.0120  
G01 X-0.6366 Y1.0112  
G01 X-0.7234 Y1.0112  
G01 X-0.7264 Y1.0120  
G01 X-0.7292 Y1.0136  
G01 X-0.7314 Y1.0158  
G01 X-0.7330 Y1.0186  
G01 X-0.7338 Y1.0216  
G00 Z0.1000  
G00 X-2.4220 Y0.8393  
G01 Z-0.0070 F10    
G01 X-2.4220 Y0.8907  F20    
G01 X-2.3857 Y0.9270  
G01 X-2.3343 Y0.9270  
G01 X-2.3303 Y0.9230  
G01 X-2.2083 Y1.0450  
G01 X-2.2586 Y1.0450  
G01 X-2.2598 Y1.0448  
G01 X-2.2612 Y1.0450  
G01 X-2.2626 Y1.0450  
G01 X-2.2638 Y1.0453  
G01 X-2.2650 Y1.0455  
G01 X-2.2663 Y1.0460  
G01 X-2.2677 Y1.0464  
G01 X-2.2688 Y1.0470  
G01 X-2.2699 Y1.0474  
G01 X-2.2710 Y1.0483  
G01 X-2.2723 Y1.0490  
G01 X-2.2731 Y1.0499  
G01 X-2.2913 Y1.0635  
G01 X-2.2928 Y1.0644  
G01 X-2.2934 Y1.0650  
G01 X-2.2941 Y1.0656  
G01 X-2.2952 Y1.0669  
G01 X-2.3316 Y1.1057  
G01 X-2.3343 Y1.1030  
G01 X-2.3857 Y1.1030  
G01 X-2.3897 Y1.1070  
G01 X-2.4300 Y1.0667  
G01 X-2.4300 Y0.1833  
G01 X-2.3867 Y0.1400  
G01 X-2.2830 Y0.1400  
G01 X-2.2830 Y0.1494  
G01 X-2.2819 Y0.1561  
G01 X-2.2798 Y0.1625  
G01 X-2.2768 Y0.1685  
G01 X-2.2728 Y0.1740  
G01 X-2.2680 Y0.1788  
G01 X-2.2625 Y0.1828  
G01 X-2.2565 Y0.1858  
G01 X-2.2501 Y0.1879  
G01 X-2.2434 Y0.1890  
G01 X-2.2366 Y0.1890  
G01 X-2.2299 Y0.1879  
G01 X-2.2235 Y0.1858  
G01 X-2.2175 Y0.1828  
G01 X-2.2120 Y0.1788  
G01 X-2.2072 Y0.1740  
G01 X-2.2032 Y0.1685  
G01 X-2.2002 Y0.1625  
G01 X-2.1981 Y0.1561  
G01 X-2.1970 Y0.1494  
G01 X-2.1970 Y0.1350  
G01 X-2.1830 Y0.1350  
G01 X-2.1830 Y0.1494  
G01 X-2.1819 Y0.1561  
G01 X-2.1798 Y0.1625  
G01 X-2.1768 Y0.1685  
G01 X-2.1728 Y0.1740  
G01 X-2.1680 Y0.1788  
G01 X-2.1625 Y0.1828  
G01 X-2.1565 Y0.1858  
G01 X-2.1501 Y0.1879  
G01 X-2.1434 Y0.1890  
G01 X-2.1366 Y0.1890  
G01 X-2.1299 Y0.1879  
G01 X-2.1235 Y0.1858  
G01 X-2.1175 Y0.1828  
G01 X-2.1120 Y0.1788  
G01 X-2.1072 Y0.1740  
G01 X-2.1032 Y0.1685  
G01 X-2.1002 Y0.1625  
G01 X-2.0981 Y0.1561  
G01 X-2.0970 Y0.1494  
G01 X-2.0970 Y0.1350  
G01 X-2.0830 Y0.1350  
G01 X-2.0830 Y0.1494  
G01 X-2.0819 Y0.1561  
G01 X-2.0798 Y0.1625  
G01 X-2.0768 Y0.1685  
G01 X-2.0728 Y0.1740  
G01 X-2.0680 Y0.1788  
G01 X-2.0625 Y0.1828  
G01 X-2.0565 Y0.1858  
G01 X-2.0501 Y0.1879  
G01 X-2.0434 Y0.1890  
G01 X-2.0366 Y0.1890  
G01 X-2.0299 Y0.1879  
G01 X-2.0235 Y0.1858  
G01 X-2.0175 Y0.1828  
G01 X-2.0120 Y0.1788  
G01 X-2.0072 Y0.1740  
G01 X-2.0032 Y0.1685  
G01 X-2.0002 Y0.1625  
G01 X-1.9981 Y0.1561  
G01 X-1.9970 Y0.1494  
G01 X-1.9970 Y0.1350  
G01 X-1.5933 Y0.1350  
G01 X-1.4573 Y0.2710  
G01 X-1.4527 Y0.2736  
G01 X-1.4476 Y0.2750  
G01 X-1.3174 Y0.2750  
G01 X-1.3123 Y0.2736  
G01 X-1.3077 Y0.2710  
G01 X-1.3040 Y0.2673  
G01 X-1.2580 Y0.2213  
G01 X-1.2561 Y0.2219  
G01 X-1.2494 Y0.2230  
G01 X-1.1806 Y0.2230  
G01 X-1.1739 Y0.2219  
G01 X-1.1675 Y0.2198  
G01 X-1.1615 Y0.2168  
G01 X-1.1560 Y0.2128  
G01 X-1.1512 Y0.2080  
G01 X-1.1472 Y0.2025  
G01 X-1.1442 Y0.1965  
G01 X-1.1421 Y0.1901  
G01 X-1.1410 Y0.1834  
G01 X-1.1410 Y0.1766  
G01 X-1.1421 Y0.1699  
G01 X-1.1442 Y0.1635  
G01 X-1.1472 Y0.1575  
G01 X-1.1512 Y0.1520  
G01 X-1.1560 Y0.1472  
G01 X-1.1615 Y0.1432  
G01 X-1.1675 Y0.1402  
G01 X-1.1739 Y0.1381  
G01 X-1.1806 Y0.1370  
G01 X-1.2494 Y0.1370  
G01 X-1.2561 Y0.1381  
G01 X-1.2625 Y0.1402  
G01 X-1.2685 Y0.1432  
G01 X-1.2740 Y0.1472  
G01 X-1.2788 Y0.1520  
G01 X-1.2828 Y0.1575  
G01 X-1.2858 Y0.1635  
G01 X-1.2879 Y0.1699  
G01 X-1.2890 Y0.1766  
G01 X-1.2890 Y0.1834  
G01 X-1.2879 Y0.1901  
G01 X-1.2868 Y0.1935  
G01 X-1.3283 Y0.2350  
G01 X-1.4317 Y0.2350  
G01 X-1.4329 Y0.2338  
G01 X-1.3466 Y0.2338  
G01 X-1.3436 Y0.2330  
G01 X-1.3408 Y0.2314  
G01 X-1.3386 Y0.2292  
G01 X-1.3370 Y0.2264  
G01 X-1.3362 Y0.2234  
G01 X-1.3362 Y0.1545  
G01 X-1.3167 Y0.1350  
G01 X-0.9433 Y0.1350  
G01 X-0.8173 Y0.2610  
G01 X-0.8127 Y0.2636  
G01 X-0.8076 Y0.2650  
G01 X-0.6324 Y0.2650  
G01 X-0.6273 Y0.2636  
G01 X-0.6227 Y0.2610  
G01 X-0.6190 Y0.2573  
G01 X-0.5638 Y0.2021  
G01 X-0.5638 Y0.2784  
G01 X-0.5630 Y0.2814  
G01 X-0.5614 Y0.2842  
G01 X-0.5592 Y0.2864  
G01 X-0.5564 Y0.2880  
G01 X-0.5534 Y0.2888  
G01 X-0.4666 Y0.2888  
G01 X-0.4636 Y0.2880  
G01 X-0.4608 Y0.2864  
G01 X-0.4586 Y0.2842  
G01 X-0.4570 Y0.2814  
G01 X-0.4562 Y0.2784  
G01 X-0.4562 Y0.2550  
G01 X-0.2036 Y0.2550  
G01 X-0.1100 Y0.3530  
G01 X-0.1100 Y0.3567  
G01 X-0.1890 Y0.2777  
G01 X-0.1927 Y0.2740  
G01 X-0.1973 Y0.2714  
G01 X-0.2024 Y0.2700  
G01 X-0.3926 Y0.2700  
G01 X-0.3977 Y0.2714  
G01 X-0.4023 Y0.2740  
G01 X-0.4433 Y0.3150  
G01 X-0.8590 Y0.3150  
G01 X-0.8560 Y0.3128  
G01 X-0.8512 Y0.3080  
G01 X-0.8472 Y0.3025  
G01 X-0.8442 Y0.2965  
G01 X-0.8421 Y0.2901  
G01 X-0.8410 Y0.2834  
G01 X-0.8410 Y0.2766  
G01 X-0.8421 Y0.2699  
G01 X-0.8442 Y0.2635  
G01 X-0.8472 Y0.2575  
G01 X-0.8512 Y0.2520  
G01 X-0.8560 Y0.2472  
G01 X-0.8615 Y0.2432  
G01 X-0.8675 Y0.2402  
G01 X-0.8739 Y0.2381  
G01 X-0.8806 Y0.2370  
G01 X-0.9494 Y0.2370  
G01 X-0.9561 Y0.2381  
G01 X-0.9625 Y0.2402  
G01 X-0.9685 Y0.2432  
G01 X-0.9740 Y0.2472  
G01 X-0.9788 Y0.2520  
G01 X-0.9792 Y0.2525  
G01 X-0.9827 Y0.2490  
G01 X-0.9873 Y0.2464  
G01 X-0.9924 Y0.2450  
G01 X-1.0412 Y0.2450  
G01 X-1.0412 Y0.2216  
G01 X-1.0420 Y0.2186  
G01 X-1.0436 Y0.2158  
G01 X-1.0458 Y0.2136  
G01 X-1.0486 Y0.2120  
G01 X-1.0516 Y0.2112  
G01 X-1.1384 Y0.2112  
G01 X-1.1414 Y0.2120  
G01 X-1.1442 Y0.2136  
G01 X-1.1464 Y0.2158  
G01 X-1.1480 Y0.2186  
G01 X-1.1488 Y0.2216  
G01 X-1.1488 Y0.3084  
G01 X-1.1480 Y0.3114  
G01 X-1.1464 Y0.3142  
G01 X-1.1456 Y0.3150  
G01 X-1.7726 Y0.3150  
G01 X-1.7777 Y0.3164  
G01 X-1.7823 Y0.3190  
G01 X-1.8462 Y0.3829  
G01 X-1.8462 Y0.2966  
G01 X-1.8470 Y0.2936  
G01 X-1.8486 Y0.2908  
G01 X-1.8508 Y0.2886  
G01 X-1.8536 Y0.2870  
G01 X-1.8566 Y0.2862  
G01 X-1.9434 Y0.2862  
G01 X-1.9464 Y0.2870  
G01 X-1.9492 Y0.2886  
G01 X-1.9514 Y0.2908  
G01 X-1.9530 Y0.2936  
G01 X-1.9538 Y0.2966  
G01 X-1.9538 Y0.3834  
G01 X-1.9530 Y0.3864  
G01 X-1.9514 Y0.3892  
G01 X-1.9492 Y0.3914  
G01 X-1.9464 Y0.3930  
G01 X-1.9434 Y0.3938  
G01 X-1.9200 Y0.3938  
G01 X-1.9200 Y0.7317  
G01 X-1.9305 Y0.7212  
G01 X-1.9305 Y0.6529  
G01 X-1.9313 Y0.6499  
G01 X-1.9329 Y0.6471  
G01 X-1.9352 Y0.6449  
G01 X-1.9379 Y0.6433  
G01 X-1.9409 Y0.6425  
G01 X-1.9592 Y0.6425  
G01 X-1.9990 Y0.6027  
G01 X-2.0027 Y0.5990  
G01 X-2.0073 Y0.5964  
G01 X-2.0124 Y0.5950  
G01 X-2.1817 Y0.5950  
G01 X-2.2200 Y0.5567  
G01 X-2.2200 Y0.4841  
G01 X-2.2175 Y0.4828  
G01 X-2.2120 Y0.4788  
G01 X-2.2072 Y0.4740  
G01 X-2.2032 Y0.4685  
G01 X-2.2002 Y0.4625  
G01 X-2.1981 Y0.4561  
G01 X-2.1970 Y0.4494  
G01 X-2.1970 Y0.3806  
G01 X-2.1981 Y0.3739  
G01 X-2.2002 Y0.3675  
G01 X-2.2032 Y0.3615  
G01 X-2.2072 Y0.3560  
G01 X-2.2120 Y0.3512  
G01 X-2.2175 Y0.3472  
G01 X-2.2235 Y0.3442  
G01 X-2.2299 Y0.3421  
G01 X-2.2366 Y0.3410  
G01 X-2.2434 Y0.3410  
G01 X-2.2501 Y0.3421  
G01 X-2.2565 Y0.3442  
G01 X-2.2625 Y0.3472  
G01 X-2.2680 Y0.3512  
G01 X-2.2728 Y0.3560  
G01 X-2.2768 Y0.3615  
G01 X-2.2798 Y0.3675  
G01 X-2.2819 Y0.3739  
G01 X-2.2830 Y0.3806  
G01 X-2.2830 Y0.4494  
G01 X-2.2819 Y0.4561  
G01 X-2.2798 Y0.4625  
G01 X-2.2768 Y0.4685  
G01 X-2.2728 Y0.4740  
G01 X-2.2680 Y0.4788  
G01 X-2.2625 Y0.4828  
G01 X-2.2600 Y0.4841  
G01 X-2.2600 Y0.5676  
G01 X-2.2586 Y0.5727  
G01 X-2.2560 Y0.5773  
G01 X-2.2523 Y0.5810  
G01 X-2.2023 Y0.6310  
G01 X-2.1977 Y0.6336  
G01 X-2.1926 Y0.6350  
G01 X-2.0233 Y0.6350  
G01 X-2.0131 Y0.6452  
G01 X-2.0151 Y0.6471  
G01 X-2.0167 Y0.6499  
G01 X-2.0175 Y0.6529  
G01 X-2.0175 Y0.7271  
G01 X-2.0167 Y0.7301  
G01 X-2.0151 Y0.7329  
G01 X-2.0130 Y0.7350  
G01 X-2.0470 Y0.7350  
G01 X-2.0449 Y0.7329  
G01 X-2.0433 Y0.7301  
G01 X-2.0425 Y0.7271  
G01 X-2.0425 Y0.6529  
G01 X-2.0433 Y0.6499  
G01 X-2.0449 Y0.6471  
G01 X-2.0471 Y0.6449  
G01 X-2.0499 Y0.6433  
G01 X-2.0529 Y0.6425  
G01 X-2.1191 Y0.6425  
G01 X-2.1221 Y0.6433  
G01 X-2.1248 Y0.6449  
G01 X-2.1271 Y0.6471  
G01 X-2.1287 Y0.6499  
G01 X-2.1295 Y0.6529  
G01 X-2.1295 Y0.6700  
G01 X-2.1512 Y0.6700  
G01 X-2.1512 Y0.6466  
G01 X-2.1520 Y0.6436  
G01 X-2.1536 Y0.6408  
G01 X-2.1558 Y0.6386  
G01 X-2.1586 Y0.6370  
G01 X-2.1616 Y0.6362  
G01 X-2.2484 Y0.6362  
G01 X-2.2514 Y0.6370  
G01 X-2.2542 Y0.6386  
G01 X-2.2564 Y0.6408  
G01 X-2.2580 Y0.6436  
G01 X-2.2588 Y0.6466  
G01 X-2.2588 Y0.7179  
G01 X-2.3100 Y0.6667  
G01 X-2.3100 Y0.3665  
G01 X-2.2646 Y0.3400  
G01 X-2.1633 Y0.3400  
G01 X-2.1600 Y0.3433  
G01 X-2.1600 Y0.3459  
G01 X-2.1625 Y0.3472  
G01 X-2.1680 Y0.3512  
G01 X-2.1728 Y0.3560  
G01 X-2.1768 Y0.3615  
G01 X-2.1798 Y0.3675  
G01 X-2.1819 Y0.3739  
G01 X-2.1830 Y0.3806  
G01 X-2.1830 Y0.4494  
G01 X-2.1819 Y0.4561  
G01 X-2.1798 Y0.4625  
G01 X-2.1768 Y0.4685  
G01 X-2.1728 Y0.4740  
G01 X-2.1680 Y0.4788  
G01 X-2.1625 Y0.4828  
G01 X-2.1565 Y0.4858  
G01 X-2.1501 Y0.4879  
G01 X-2.1434 Y0.4890  
G01 X-2.1366 Y0.4890  
G01 X-2.1299 Y0.4879  
G01 X-2.1235 Y0.4858  
G01 X-2.1175 Y0.4828  
G01 X-2.1120 Y0.4788  
G01 X-2.1072 Y0.4740  
G01 X-2.1032 Y0.4685  
G01 X-2.1002 Y0.4625  
G01 X-2.0981 Y0.4561  
G01 X-2.0970 Y0.4494  
G01 X-2.0970 Y0.3806  
G01 X-2.0981 Y0.3739  
G01 X-2.1002 Y0.3675  
G01 X-2.1032 Y0.3615  
G01 X-2.1072 Y0.3560  
G01 X-2.1120 Y0.3512  
G01 X-2.1175 Y0.3472  
G01 X-2.1200 Y0.3459  
G01 X-2.1200 Y0.3324  
G01 X-2.1214 Y0.3273  
G01 X-2.1240 Y0.3227  
G01 X-2.1277 Y0.3190  
G01 X-2.1427 Y0.3040  
G01 X-2.1473 Y0.3014  
G01 X-2.1524 Y0.3000  
G01 X-2.2674 Y0.3000  
G01 X-2.0733 Y0.3000  
G01 X-2.0600 Y0.3133  
G01 X-2.0600 Y0.3459  
G01 X-2.0625 Y0.3472  
G01 X-2.0680 Y0.3512  
G01 X-2.0728 Y0.3560  
G01 X-2.0768 Y0.3615  
G01 X-2.0798 Y0.3675  
G01 X-2.0819 Y0.3739  
G01 X-2.0830 Y0.3806  
G01 X-2.0830 Y0.4494  
G01 X-2.0819 Y0.4561  
G01 X-2.0798 Y0.4625  
G01 X-2.0768 Y0.4685  
G01 X-2.0728 Y0.4740  
G01 X-2.0680 Y0.4788  
G01 X-2.0625 Y0.4828  
G01 X-2.0565 Y0.4858  
G01 X-2.0501 Y0.4879  
G01 X-2.0434 Y0.4890  
G01 X-2.0366 Y0.4890  
G01 X-2.0299 Y0.4879  
G01 X-2.0235 Y0.4858  
G01 X-2.0175 Y0.4828  
G01 X-2.0120 Y0.4788  
G01 X-2.0072 Y0.4740  
G01 X-2.0032 Y0.4685  
G01 X-2.0002 Y0.4625  
G01 X-1.9981 Y0.4561  
G01 X-1.9970 Y0.4494  
G01 X-1.9970 Y0.3806  
G01 X-1.9981 Y0.3739  
G01 X-2.0002 Y0.3675  
G01 X-2.0032 Y0.3615  
G01 X-2.0072 Y0.3560  
G01 X-2.0120 Y0.3512  
G01 X-2.0175 Y0.3472  
G01 X-2.0200 Y0.3459  
G01 X-2.0200 Y0.3024  
G01 X-2.0214 Y0.2973  
G01 X-2.0240 Y0.2927  
G01 X-2.0277 Y0.2890  
G01 X-2.0527 Y0.2640  
G01 X-2.0573 Y0.2614  
G01 X-2.0624 Y0.2600  
G01 X-2.3326 Y0.2600  
G01 X-2.3377 Y0.2614  
G01 X-2.3423 Y0.2640  
G01 X-2.3460 Y0.2677  
G01 X-2.4110 Y0.3327  
G01 X-2.4136 Y0.3373  
G01 X-2.4150 Y0.3424  
G01 X-2.4150 Y0.6776  
G01 X-2.4136 Y0.6827  
G01 X-2.4110 Y0.6873  
G01 X-2.4073 Y0.6910  
G01 X-2.2250 Y0.8733  
G01 X-2.2250 Y0.9576  
G01 X-2.2236 Y0.9627  
G01 X-2.2210 Y0.9673  
G01 X-2.2173 Y0.9710  
G01 X-2.1733 Y1.0150  
G01 X-2.1817 Y1.0150  
G01 X-2.3020 Y0.8947  
G01 X-2.2980 Y0.8907  
G01 X-2.2980 Y0.8393  
G01 X-2.3343 Y0.8030  
G01 X-2.3857 Y0.8030  
G01 X-2.4220 Y0.8393  
G00 Z0.1000  
G00 X-1.9708 Y0.7375  
G01 Z-0.0070 F10    
G01 X-1.9357 Y0.7726  F20    
G01 X-1.9359 Y0.7725  
G01 X-1.9442 Y0.7725  
G01 X-1.9740 Y0.7427  
G01 X-1.9777 Y0.7390  
G01 X-1.9803 Y0.7375  
G01 X-1.9708 Y0.7375  
G00 Z0.1000  
G00 X-2.0586 Y0.9842  
G01 Z-0.0070 F10    
G01 X-2.0576 Y0.9825  F20    
G01 X-1.9929 Y0.9825  
G01 X-1.9899 Y0.9817  
G01 X-1.9871 Y0.9801  
G01 X-1.9849 Y0.9779  
G01 X-1.9833 Y0.9751  
G01 X-1.9825 Y0.9721  
G01 X-1.9825 Y0.8979  
G01 X-1.9833 Y0.8949  
G01 X-1.9849 Y0.8921  
G01 X-1.9871 Y0.8899  
G01 X-1.9899 Y0.8883  
G01 X-1.9929 Y0.8875  
G01 X-2.0452 Y0.8875  
G01 X-2.0610 Y0.8717  
G01 X-2.0610 Y0.8675  
G01 X-2.0479 Y0.8675  
G01 X-2.0449 Y0.8667  
G01 X-2.0421 Y0.8651  
G01 X-2.0399 Y0.8629  
G01 X-2.0383 Y0.8601  
G01 X-2.0375 Y0.8571  
G01 X-2.0375 Y0.7829  
G01 X-2.0383 Y0.7799  
G01 X-2.0399 Y0.7771  
G01 X-2.0420 Y0.7750  
G01 X-2.0080 Y0.7750  
G01 X-2.0101 Y0.7771  
G01 X-2.0117 Y0.7799  
G01 X-2.0125 Y0.7829  
G01 X-2.0125 Y0.8571  
G01 X-2.0117 Y0.8601  
G01 X-2.0101 Y0.8629  
G01 X-2.0079 Y0.8651  
G01 X-2.0051 Y0.8667  
G01 X-2.0021 Y0.8675  
G01 X-1.9359 Y0.8675  
G01 X-1.9329 Y0.8667  
G01 X-1.9302 Y0.8651  
G01 X-1.9283 Y0.8632  
G01 X-1.8783 Y0.8882  
G01 X-1.8809 Y0.8875  
G01 X-1.9471 Y0.8875  
G01 X-1.9501 Y0.8883  
G01 X-1.9529 Y0.8899  
G01 X-1.9551 Y0.8921  
G01 X-1.9567 Y0.8949  
G01 X-1.9575 Y0.8979  
G01 X-1.9575 Y0.9721  
G01 X-1.9567 Y0.9751  
G01 X-1.9551 Y0.9779  
G01 X-1.9529 Y0.9801  
G01 X-1.9501 Y0.9817  
G01 X-1.9500 Y0.9817  
G01 X-1.9533 Y0.9850  
G01 X-2.0594 Y0.9850  
G01 X-2.0586 Y0.9842  
G00 Z0.1000  
G00 X-2.2700 Y0.3000  
G01 Z-0.0070 F10    
G01 X-2.2726 Y0.3000  F20    
G01 X-2.2752 Y0.3007  
G01 X-2.2777 Y0.3014  
G01 X-2.2800 Y0.3027  
G01 X-2.2823 Y0.3040  
G01 X-2.3400 Y0.3377  
G01 X-2.3423 Y0.3390  
G01 X-2.3442 Y0.3409  
G01 X-2.3460 Y0.3427  
G01 X-2.3473 Y0.3450  
G01 X-2.3486 Y0.3473  
G01 X-2.3493 Y0.3499  
G01 X-2.3500 Y0.3524  
G01 X-2.3500 Y0.3550  
G01 X-2.3500 Y0.6776  
G01 X-2.3486 Y0.6827  
G01 X-2.3460 Y0.6873  
G01 X-2.3423 Y0.6910  
G01 X-2.2623 Y0.7710  
G01 X-2.2577 Y0.7736  
G01 X-2.2526 Y0.7750  
G01 X-2.1199 Y0.7750  
G01 X-2.1221 Y0.7771  
G01 X-2.1237 Y0.7799  
G01 X-2.1245 Y0.7829  
G01 X-2.1245 Y0.8571  
G01 X-2.1237 Y0.8601  
G01 X-2.1221 Y0.8629  
G01 X-2.1198 Y0.8651  
G01 X-2.1171 Y0.8667  
G01 X-2.1141 Y0.8675  
G01 X-2.1010 Y0.8675  
G01 X-2.1010 Y0.8812  
G01 X-2.1534 Y0.8812  
G01 X-2.1564 Y0.8820  
G01 X-2.1592 Y0.8836  
G01 X-2.1614 Y0.8858  
G01 X-2.1630 Y0.8886  
G01 X-2.1638 Y0.8916  
G01 X-2.1638 Y0.9679  
G01 X-2.1850 Y0.9467  
G01 X-2.1850 Y0.8624  
G01 X-2.1864 Y0.8573  
G01 X-2.1890 Y0.8527  
G01 X-2.3750 Y0.6667  
G01 X-2.3750 Y0.3533  
G01 X-2.3217 Y0.3000  
G01 X-2.2700 Y0.3000  
G00 Z0.1000  
G00 X-1.8942 Y0.9825  
G01 Z-0.0070 F10    
G01 X-1.8809 Y0.9825  F20    
G01 X-1.8779 Y0.9817  
G01 X-1.8752 Y0.9801  
G01 X-1.8729 Y0.9779  
G01 X-1.8713 Y0.9751  
G01 X-1.8705 Y0.9721  
G01 X-1.8705 Y0.9450  
G01 X-1.8032 Y0.9450  
G01 X-1.8018 Y0.9464  
G01 X-1.7990 Y0.9480  
G01 X-1.7960 Y0.9488  
G01 X-1.7062 Y0.9488  
G01 X-1.7032 Y0.9480  
G01 X-1.7004 Y0.9464  
G01 X-1.6982 Y0.9442  
G01 X-1.6966 Y0.9414  
G01 X-1.6958 Y0.9384  
G01 X-1.6958 Y0.9116  
G01 X-1.6966 Y0.9086  
G01 X-1.6982 Y0.9058  
G01 X-1.7004 Y0.9036  
G01 X-1.7032 Y0.9020  
G01 X-1.7062 Y0.9012  
G01 X-1.7960 Y0.9012  
G01 X-1.7990 Y0.9020  
G01 X-1.8018 Y0.9036  
G01 X-1.8032 Y0.9050  
G01 X-1.8705 Y0.9050  
G01 X-1.8705 Y0.8979  
G01 X-1.8713 Y0.8949  
G01 X-1.8729 Y0.8921  
G01 X-1.8752 Y0.8899  
G01 X-1.8767 Y0.8890  
G01 X-1.8695 Y0.8926  
G01 X-1.8677 Y0.8936  
G01 X-1.8671 Y0.8938  
G01 X-1.8666 Y0.8941  
G01 X-1.8646 Y0.8945  
G01 X-1.8626 Y0.8950  
G01 X-1.8620 Y0.8950  
G01 X-1.8614 Y0.8951  
G01 X-1.8594 Y0.8950  
G01 X-1.8032 Y0.8950  
G01 X-1.8018 Y0.8964  
G01 X-1.7990 Y0.8980  
G01 X-1.7960 Y0.8988  
G01 X-1.7062 Y0.8988  
G01 X-1.7032 Y0.8980  
G01 X-1.7004 Y0.8964  
G01 X-1.6982 Y0.8942  
G01 X-1.6966 Y0.8914  
G01 X-1.6958 Y0.8884  
G01 X-1.6958 Y0.8616  
G01 X-1.6966 Y0.8586  
G01 X-1.6982 Y0.8558  
G01 X-1.7004 Y0.8536  
G01 X-1.7032 Y0.8520  
G01 X-1.7062 Y0.8512  
G01 X-1.7960 Y0.8512  
G01 X-1.7990 Y0.8520  
G01 X-1.8018 Y0.8536  
G01 X-1.8032 Y0.8550  
G01 X-1.8553 Y0.8550  
G01 X-1.9255 Y0.8199  
G01 X-1.9255 Y0.8089  
G01 X-1.9254 Y0.8087  
G01 X-1.9250 Y0.8075  
G01 X-1.9246 Y0.8063  
G01 X-1.9244 Y0.8049  
G01 X-1.9240 Y0.8036  
G01 X-1.9240 Y0.8023  
G01 X-1.9238 Y0.8011  
G01 X-1.9240 Y0.7997  
G01 X-1.9240 Y0.7984  
G01 X-1.9243 Y0.7971  
G01 X-1.9245 Y0.7958  
G01 X-1.9250 Y0.7946  
G01 X-1.9254 Y0.7933  
G01 X-1.9255 Y0.7930  
G01 X-1.9255 Y0.7829  
G01 X-1.9256 Y0.7827  
G01 X-1.8673 Y0.8410  
G01 X-1.8627 Y0.8436  
G01 X-1.8576 Y0.8450  
G01 X-1.8032 Y0.8450  
G01 X-1.8018 Y0.8464  
G01 X-1.7990 Y0.8480  
G01 X-1.7960 Y0.8488  
G01 X-1.7062 Y0.8488  
G01 X-1.7032 Y0.8480  
G01 X-1.7004 Y0.8464  
G01 X-1.6982 Y0.8442  
G01 X-1.6966 Y0.8414  
G01 X-1.6958 Y0.8384  
G01 X-1.6958 Y0.8116  
G01 X-1.6966 Y0.8086  
G01 X-1.6982 Y0.8058  
G01 X-1.7004 Y0.8036  
G01 X-1.7032 Y0.8020  
G01 X-1.7062 Y0.8012  
G01 X-1.7960 Y0.8012  
G01 X-1.7990 Y0.8020  
G01 X-1.8018 Y0.8036  
G01 X-1.8032 Y0.8050  
G01 X-1.8467 Y0.8050  
G01 X-1.8567 Y0.7950  
G01 X-1.8032 Y0.7950  
G01 X-1.8018 Y0.7964  
G01 X-1.7990 Y0.7980  
G01 X-1.7960 Y0.7988  
G01 X-1.7062 Y0.7988  
G01 X-1.7032 Y0.7980  
G01 X-1.7004 Y0.7964  
G01 X-1.6982 Y0.7942  
G01 X-1.6966 Y0.7914  
G01 X-1.6958 Y0.7884  
G01 X-1.6958 Y0.7616  
G01 X-1.6966 Y0.7586  
G01 X-1.6982 Y0.7558  
G01 X-1.7004 Y0.7536  
G01 X-1.7032 Y0.7520  
G01 X-1.7062 Y0.7512  
G01 X-1.7960 Y0.7512  
G01 X-1.7990 Y0.7520  
G01 X-1.8018 Y0.7536  
G01 X-1.8032 Y0.7550  
G01 X-1.8517 Y0.7550  
G01 X-1.8800 Y0.7267  
G01 X-1.8800 Y0.3938  
G01 X-1.8566 Y0.3938  
G01 X-1.8538 Y0.3931  
G01 X-1.8550 Y0.3974  
G01 X-1.8550 Y0.7276  
G01 X-1.8536 Y0.7327  
G01 X-1.8510 Y0.7373  
G01 X-1.8473 Y0.7410  
G01 X-1.8427 Y0.7436  
G01 X-1.8376 Y0.7450  
G01 X-1.8032 Y0.7450  
G01 X-1.8018 Y0.7464  
G01 X-1.7990 Y0.7480  
G01 X-1.7960 Y0.7488  
G01 X-1.7062 Y0.7488  
G01 X-1.7032 Y0.7480  
G01 X-1.7004 Y0.7464  
G01 X-1.6982 Y0.7442  
G01 X-1.6966 Y0.7414  
G01 X-1.6958 Y0.7384  
G01 X-1.6958 Y0.7116  
G01 X-1.6966 Y0.7086  
G01 X-1.6982 Y0.7058  
G01 X-1.7004 Y0.7036  
G01 X-1.7032 Y0.7020  
G01 X-1.7062 Y0.7012  
G01 X-1.7960 Y0.7012  
G01 X-1.7990 Y0.7020  
G01 X-1.8018 Y0.7036  
G01 X-1.8032 Y0.7050  
G01 X-1.8150 Y0.7050  
G01 X-1.8150 Y0.4083  
G01 X-1.7617 Y0.3550  
G01 X-1.6133 Y0.3550  
G01 X-1.6773 Y0.4190  
G01 X-1.6810 Y0.4227  
G01 X-1.6836 Y0.4273  
G01 X-1.6850 Y0.4324  
G01 X-1.6850 Y0.5917  
G01 X-1.6983 Y0.6050  
G01 X-1.6990 Y0.6050  
G01 X-1.7004 Y0.6036  
G01 X-1.7032 Y0.6020  
G01 X-1.7062 Y0.6012  
G01 X-1.7960 Y0.6012  
G01 X-1.7990 Y0.6020  
G01 X-1.8018 Y0.6036  
G01 X-1.8040 Y0.6058  
G01 X-1.8056 Y0.6086  
G01 X-1.8064 Y0.6116  
G01 X-1.8064 Y0.6384  
G01 X-1.8056 Y0.6414  
G01 X-1.8040 Y0.6442  
G01 X-1.8018 Y0.6464  
G01 X-1.7990 Y0.6480  
G01 X-1.7960 Y0.6488  
G01 X-1.7062 Y0.6488  
G01 X-1.7032 Y0.6480  
G01 X-1.7004 Y0.6464  
G01 X-1.6990 Y0.6450  
G01 X-1.6874 Y0.6450  
G01 X-1.6823 Y0.6436  
G01 X-1.6814 Y0.6431  
G01 X-1.6933 Y0.6550  
G01 X-1.6990 Y0.6550  
G01 X-1.7004 Y0.6536  
G01 X-1.7032 Y0.6520  
G01 X-1.7062 Y0.6512  
G01 X-1.7960 Y0.6512  
G01 X-1.7990 Y0.6520  
G01 X-1.8018 Y0.6536  
G01 X-1.8040 Y0.6558  
G01 X-1.8056 Y0.6586  
G01 X-1.8064 Y0.6616  
G01 X-1.8064 Y0.6884  
G01 X-1.8056 Y0.6914  
G01 X-1.8040 Y0.6942  
G01 X-1.8018 Y0.6964  
G01 X-1.7990 Y0.6980  
G01 X-1.7960 Y0.6988  
G01 X-1.7062 Y0.6988  
G01 X-1.7032 Y0.6980  
G01 X-1.7004 Y0.6964  
G01 X-1.6990 Y0.6950  
G01 X-1.6824 Y0.6950  
G01 X-1.6773 Y0.6936  
G01 X-1.6727 Y0.6910  
G01 X-1.6177 Y0.6360  
G01 X-1.6140 Y0.6323  
G01 X-1.6114 Y0.6277  
G01 X-1.6100 Y0.6226  
G01 X-1.6100 Y0.4683  
G01 X-1.5617 Y0.4200  
G01 X-1.0083 Y0.4200  
G01 X-1.0110 Y0.4227  
G01 X-1.1933 Y0.6050  
G01 X-1.3368 Y0.6050  
G01 X-1.3382 Y0.6036  
G01 X-1.3410 Y0.6020  
G01 X-1.3440 Y0.6012  
G01 X-1.4338 Y0.6012  
G01 X-1.4368 Y0.6020  
G01 X-1.4396 Y0.6036  
G01 X-1.4418 Y0.6058  
G01 X-1.4434 Y0.6086  
G01 X-1.4442 Y0.6116  
G01 X-1.4442 Y0.6384  
G01 X-1.4434 Y0.6414  
G01 X-1.4418 Y0.6442  
G01 X-1.4396 Y0.6464  
G01 X-1.4368 Y0.6480  
G01 X-1.4338 Y0.6488  
G01 X-1.3440 Y0.6488  
G01 X-1.3410 Y0.6480  
G01 X-1.3382 Y0.6464  
G01 X-1.3368 Y0.6450  
G01 X-1.1833 Y0.6450  
G01 X-1.1933 Y0.6550  
G01 X-1.3368 Y0.6550  
G01 X-1.3382 Y0.6536  
G01 X-1.3410 Y0.6520  
G01 X-1.3440 Y0.6512  
G01 X-1.4338 Y0.6512  
G01 X-1.4368 Y0.6520  
G01 X-1.4396 Y0.6536  
G01 X-1.4418 Y0.6558  
G01 X-1.4434 Y0.6586  
G01 X-1.4442 Y0.6616  
G01 X-1.4442 Y0.6884  
G01 X-1.4434 Y0.6914  
G01 X-1.4418 Y0.6942  
G01 X-1.4396 Y0.6964  
G01 X-1.4368 Y0.6980  
G01 X-1.4338 Y0.6988  
G01 X-1.3440 Y0.6988  
G01 X-1.3410 Y0.6980  
G01 X-1.3382 Y0.6964  
G01 X-1.3368 Y0.6950  
G01 X-1.1824 Y0.6950  
G01 X-1.1773 Y0.6936  
G01 X-1.1727 Y0.6910  
G01 X-1.0267 Y0.5450  
G01 X-0.5738 Y0.5450  
G01 X-0.5738 Y0.5684  
G01 X-0.5730 Y0.5714  
G01 X-0.5714 Y0.5742  
G01 X-0.5692 Y0.5764  
G01 X-0.5664 Y0.5780  
G01 X-0.5634 Y0.5788  
G01 X-0.4766 Y0.5788  
G01 X-0.4736 Y0.5780  
G01 X-0.4708 Y0.5764  
G01 X-0.4686 Y0.5742  
G01 X-0.4682 Y0.5735  
G01 X-0.4660 Y0.5773  
G01 X-0.4623 Y0.5810  
G01 X-0.4577 Y0.5836  
G01 X-0.4526 Y0.5850  
G01 X-0.3900 Y0.5850  
G01 X-0.3900 Y0.7794  
G01 X-0.3901 Y0.7814  
G01 X-0.3900 Y0.7820  
G01 X-0.3900 Y0.7826  
G01 X-0.3895 Y0.7846  
G01 X-0.3891 Y0.7866  
G01 X-0.3888 Y0.7871  
G01 X-0.3886 Y0.7877  
G01 X-0.3876 Y0.7895  
G01 X-0.3788 Y0.8071  
G01 X-0.3786 Y0.8077  
G01 X-0.3776 Y0.8095  
G01 X-0.3767 Y0.8113  
G01 X-0.3763 Y0.8118  
G01 X-0.3760 Y0.8123  
G01 X-0.3746 Y0.8137  
G01 X-0.3732 Y0.8152  
G01 X-0.3727 Y0.8156  
G01 X-0.3723 Y0.8160  
G01 X-0.3705 Y0.8170  
G01 X-0.3688 Y0.8181  
G01 X-0.3682 Y0.8183  
G01 X-0.3677 Y0.8186  
G01 X-0.3658 Y0.8192  
G01 X-0.3638 Y0.8198  
G01 X-0.3632 Y0.8198  
G01 X-0.3626 Y0.8200  
G01 X-0.3606 Y0.8200  
G01 X-0.3586 Y0.8201  
G01 X-0.3580 Y0.8200  
G01 X-0.3365 Y0.8200  
G01 X-0.3095 Y0.8470  
G01 X-0.2705 Y0.8470  
G01 X-0.2430 Y0.8195  
G01 X-0.2430 Y0.7805  
G01 X-0.2705 Y0.7530  
G01 X-0.3095 Y0.7530  
G01 X-0.3365 Y0.7800  
G01 X-0.3476 Y0.7800  
G01 X-0.3500 Y0.7753  
G01 X-0.3500 Y0.5624  
G01 X-0.3514 Y0.5573  
G01 X-0.3534 Y0.5538  
G01 X-0.3466 Y0.5538  
G01 X-0.3436 Y0.5530  
G01 X-0.3408 Y0.5514  
G01 X-0.3386 Y0.5492  
G01 X-0.3370 Y0.5464  
G01 X-0.3362 Y0.5434  
G01 X-0.3362 Y0.5203  
G01 X-0.3095 Y0.5470  
G01 X-0.2705 Y0.5470  
G01 X-0.2430 Y0.5195  
G01 X-0.2430 Y0.4805  
G01 X-0.2705 Y0.4530  
G01 X-0.3095 Y0.4530  
G01 X-0.3362 Y0.4797  
G01 X-0.3362 Y0.4566  
G01 X-0.3370 Y0.4536  
G01 X-0.3386 Y0.4508  
G01 X-0.3408 Y0.4486  
G01 X-0.3436 Y0.4470  
G01 X-0.3466 Y0.4462  
G01 X-0.4300 Y0.4462  
G01 X-0.4300 Y0.4324  
G01 X-0.4314 Y0.4273  
G01 X-0.4340 Y0.4227  
G01 X-0.4367 Y0.4200  
G01 X-0.3365 Y0.4200  
G01 X-0.3095 Y0.4470  
G01 X-0.2705 Y0.4470  
G01 X-0.2430 Y0.4195  
G01 X-0.2430 Y0.3805  
G01 X-0.2705 Y0.3530  
G01 X-0.3095 Y0.3530  
G01 X-0.3365 Y0.3800  
G01 X-0.3817 Y0.3800  
G01 X-0.3790 Y0.3773  
G01 X-0.3467 Y0.3450  
G01 X-0.2583 Y0.3450  
G01 X-0.2299 Y0.3734  
G01 X-0.2370 Y0.3805  
G01 X-0.2370 Y0.4195  
G01 X-0.2095 Y0.4470  
G01 X-0.1705 Y0.4470  
G01 X-0.1430 Y0.4195  
G01 X-0.1430 Y0.3805  
G01 X-0.1705 Y0.3530  
G01 X-0.1937 Y0.3530  
G01 X-0.2340 Y0.3127  
G01 X-0.2367 Y0.3100  
G01 X-0.2133 Y0.3100  
G01 X-0.1400 Y0.3833  
G01 X-0.1400 Y0.4617  
G01 X-0.1509 Y0.4726  
G01 X-0.1705 Y0.4530  
G01 X-0.2095 Y0.4530  
G01 X-0.2370 Y0.4805  
G01 X-0.2370 Y0.5195  
G01 X-0.2095 Y0.5470  
G01 X-0.1705 Y0.5470  
G01 X-0.1430 Y0.5195  
G01 X-0.1430 Y0.5188  
G01 X-0.1423 Y0.5186  
G01 X-0.1377 Y0.5160  
G01 X-0.1100 Y0.4883  
G01 X-0.1100 Y0.7430  
G01 X-0.1396 Y0.7800  
G01 X-0.1435 Y0.7800  
G01 X-0.1705 Y0.7530  
G01 X-0.2095 Y0.7530  
G01 X-0.2370 Y0.7805  
G01 X-0.2370 Y0.8195  
G01 X-0.2095 Y0.8470  
G01 X-0.1705 Y0.8470  
G01 X-0.1435 Y0.8200  
G01 X-0.1315 Y0.8200  
G01 X-0.1304 Y0.8202  
G01 X-0.1289 Y0.8200  
G01 X-0.1274 Y0.8200  
G01 X-0.1263 Y0.8197  
G01 X-0.1252 Y0.8196  
G01 X-0.1238 Y0.8190  
G01 X-0.1223 Y0.8186  
G01 X-0.1213 Y0.8181  
G01 X-0.1203 Y0.8177  
G01 X-0.1190 Y0.8168  
G01 X-0.1177 Y0.8160  
G01 X-0.1169 Y0.8152  
G01 X-0.1160 Y0.8145  
G01 X-0.1151 Y0.8134  
G01 X-0.1140 Y0.8123  
G01 X-0.1134 Y0.8113  
G01 X-0.0800 Y0.7695  
G01 X-0.0800 Y0.7970  
G01 X-0.1513 Y0.8723  
G01 X-0.1705 Y0.8530  
G01 X-0.2095 Y0.8530  
G01 X-0.2370 Y0.8805  
G01 X-0.2370 Y0.9195  
G01 X-0.2095 Y0.9470  
G01 X-0.1705 Y0.9470  
G01 X-0.1430 Y0.9195  
G01 X-0.1430 Y0.9188  
G01 X-0.1423 Y0.9186  
G01 X-0.1420 Y0.9185  
G01 X-0.1418 Y0.9184  
G01 X-0.1398 Y0.9172  
G01 X-0.1377 Y0.9160  
G01 X-0.1375 Y0.9158  
G01 X-0.1373 Y0.9157  
G01 X-0.1357 Y0.9140  
G01 X-0.1340 Y0.9123  
G01 X-0.1339 Y0.9120  
G01 X-0.0500 Y0.8235  
G01 X-0.0500 Y0.9615  
G01 X-0.3531 Y1.2550  
G01 X-0.4550 Y1.2550  
G01 X-0.4550 Y1.2434  
G01 X-0.4534 Y1.2438  
G01 X-0.3666 Y1.2438  
G01 X-0.3636 Y1.2430  
G01 X-0.3608 Y1.2414  
G01 X-0.3586 Y1.2392  
G01 X-0.3570 Y1.2364  
G01 X-0.3562 Y1.2334  
G01 X-0.3562 Y1.2100  
G01 X-0.3474 Y1.2100  
G01 X-0.3423 Y1.2086  
G01 X-0.3377 Y1.2060  
G01 X-0.3340 Y1.2023  
G01 X-0.1787 Y1.0470  
G01 X-0.1705 Y1.0470  
G01 X-0.1430 Y1.0195  
G01 X-0.1430 Y0.9805  
G01 X-0.1705 Y0.9530  
G01 X-0.2095 Y0.9530  
G01 X-0.2370 Y0.9805  
G01 X-0.2370 Y1.0195  
G01 X-0.2224 Y1.0341  
G01 X-0.3562 Y1.1679  
G01 X-0.3562 Y1.1466  
G01 X-0.3570 Y1.1436  
G01 X-0.3586 Y1.1408  
G01 X-0.3608 Y1.1386  
G01 X-0.3636 Y1.1370  
G01 X-0.3666 Y1.1362  
G01 X-0.4534 Y1.1362  
G01 X-0.4550 Y1.1366  
G01 X-0.4550 Y1.1350  
G01 X-0.3524 Y1.1350  
G01 X-0.3473 Y1.1336  
G01 X-0.3427 Y1.1310  
G01 X-0.3390 Y1.1273  
G01 X-0.2740 Y1.0623  
G01 X-0.2714 Y1.0577  
G01 X-0.2700 Y1.0526  
G01 X-0.2700 Y1.0465  
G01 X-0.2430 Y1.0195  
G01 X-0.2430 Y0.9805  
G01 X-0.2705 Y0.9530  
G01 X-0.3095 Y0.9530  
G01 X-0.3370 Y0.9805  
G01 X-0.3370 Y1.0195  
G01 X-0.3124 Y1.0441  
G01 X-0.3633 Y1.0950  
G01 X-0.4876 Y1.0950  
G01 X-0.4876 Y1.0818  
G01 X-0.4884 Y1.0788  
G01 X-0.4900 Y1.0760  
G01 X-0.4922 Y1.0738  
G01 X-0.4949 Y1.0722  
G01 X-0.4980 Y1.0714  
G01 X-0.5720 Y1.0714  
G01 X-0.5750 Y1.0722  
G01 X-0.5750 Y1.0024  
G01 X-0.5764 Y0.9973  
G01 X-0.5790 Y0.9927  
G01 X-0.5827 Y0.9890  
G01 X-0.6700 Y0.9017  
G01 X-0.6700 Y0.7674  
G01 X-0.6714 Y0.7623  
G01 X-0.6740 Y0.7577  
G01 X-0.6777 Y0.7540  
G01 X-0.7177 Y0.7140  
G01 X-0.7183 Y0.7137  
G01 X-0.7133 Y0.7129  
G01 X-0.7069 Y0.7108  
G01 X-0.7008 Y0.7077  
G01 X-0.6954 Y0.7037  
G01 X-0.6906 Y0.6990  
G01 X-0.6866 Y0.6935  
G01 X-0.6835 Y0.6875  
G01 X-0.6814 Y0.6810  
G01 X-0.6804 Y0.6743  
G01 X-0.6804 Y0.6698  
G01 X-0.6272 Y0.6400  
G01 X-0.4450 Y0.6400  
G01 X-0.4450 Y0.7917  
G01 X-0.5210 Y0.8677  
G01 X-0.5236 Y0.8723  
G01 X-0.5250 Y0.8774  
G01 X-0.5250 Y0.9212  
G01 X-0.5534 Y0.9212  
G01 X-0.5564 Y0.9220  
G01 X-0.5592 Y0.9236  
G01 X-0.5614 Y0.9258  
G01 X-0.5630 Y0.9286  
G01 X-0.5638 Y0.9316  
G01 X-0.5638 Y1.0184  
G01 X-0.5630 Y1.0214  
G01 X-0.5614 Y1.0242  
G01 X-0.5592 Y1.0264  
G01 X-0.5564 Y1.0280  
G01 X-0.5534 Y1.0288  
G01 X-0.4666 Y1.0288  
G01 X-0.4636 Y1.0280  
G01 X-0.4608 Y1.0264  
G01 X-0.4586 Y1.0242  
G01 X-0.4570 Y1.0214  
G01 X-0.4562 Y1.0184  
G01 X-0.4562 Y0.9316  
G01 X-0.4570 Y0.9286  
G01 X-0.4586 Y0.9258  
G01 X-0.4608 Y0.9236  
G01 X-0.4636 Y0.9220  
G01 X-0.4666 Y0.9212  
G01 X-0.4850 Y0.9212  
G01 X-0.4850 Y0.8883  
G01 X-0.4538 Y0.8571  
G01 X-0.4538 Y0.9434  
G01 X-0.4530 Y0.9464  
G01 X-0.4514 Y0.9492  
G01 X-0.4492 Y0.9514  
G01 X-0.4464 Y0.9530  
G01 X-0.4434 Y0.9538  
G01 X-0.3566 Y0.9538  
G01 X-0.3536 Y0.9530  
G01 X-0.3508 Y0.9514  
G01 X-0.3486 Y0.9492  
G01 X-0.3470 Y0.9464  
G01 X-0.3462 Y0.9434  
G01 X-0.3462 Y0.9200  
G01 X-0.3365 Y0.9200  
G01 X-0.3095 Y0.9470  
G01 X-0.2705 Y0.9470  
G01 X-0.2430 Y0.9195  
G01 X-0.2430 Y0.8805  
G01 X-0.2705 Y0.8530  
G01 X-0.3095 Y0.8530  
G01 X-0.3365 Y0.8800  
G01 X-0.3462 Y0.8800  
G01 X-0.3462 Y0.8566  
G01 X-0.3470 Y0.8536  
G01 X-0.3486 Y0.8508  
G01 X-0.3508 Y0.8486  
G01 X-0.3536 Y0.8470  
G01 X-0.3566 Y0.8462  
G01 X-0.4429 Y0.8462  
G01 X-0.4127 Y0.8160  
G01 X-0.4090 Y0.8123  
G01 X-0.4064 Y0.8077  
G01 X-0.4050 Y0.8026  
G01 X-0.4050 Y0.6174  
G01 X-0.4064 Y0.6123  
G01 X-0.4090 Y0.6077  
G01 X-0.4127 Y0.6040  
G01 X-0.4173 Y0.6014  
G01 X-0.4224 Y0.6000  
G01 X-0.6323 Y0.6000  
G01 X-0.6348 Y0.6000  
G01 X-0.6349 Y0.6000  
G01 X-0.6351 Y0.6000  
G01 X-0.6375 Y0.6006  
G01 X-0.6399 Y0.6013  
G01 X-0.6400 Y0.6013  
G01 X-0.6402 Y0.6014  
G01 X-0.6423 Y0.6026  
G01 X-0.6804 Y0.6239  
G01 X-0.6804 Y0.6056  
G01 X-0.6814 Y0.5989  
G01 X-0.6835 Y0.5924  
G01 X-0.6866 Y0.5864  
G01 X-0.6906 Y0.5809  
G01 X-0.6954 Y0.5761  
G01 X-0.7008 Y0.5722  
G01 X-0.7069 Y0.5691  
G01 X-0.7133 Y0.5670  
G01 X-0.7200 Y0.5659  
G01 X-0.7268 Y0.5659  
G01 X-0.7335 Y0.5670  
G01 X-0.7399 Y0.5691  
G01 X-0.7459 Y0.5722  
G01 X-0.7514 Y0.5761  
G01 X-0.7562 Y0.5809  
G01 X-0.7602 Y0.5864  
G01 X-0.7628 Y0.5915  
G01 X-0.7653 Y0.5864  
G01 X-0.7693 Y0.5809  
G01 X-0.7741 Y0.5761  
G01 X-0.7796 Y0.5722  
G01 X-0.7856 Y0.5691  
G01 X-0.7921 Y0.5670  
G01 X-0.7987 Y0.5659  
G01 X-0.8055 Y0.5659  
G01 X-0.8122 Y0.5670  
G01 X-0.8186 Y0.5691  
G01 X-0.8247 Y0.5722  
G01 X-0.8301 Y0.5761  
G01 X-0.8349 Y0.5809  
G01 X-0.8389 Y0.5864  
G01 X-0.8415 Y0.5915  
G01 X-0.8441 Y0.5864  
G01 X-0.8481 Y0.5809  
G01 X-0.8529 Y0.5761  
G01 X-0.8583 Y0.5722  
G01 X-0.8644 Y0.5691  
G01 X-0.8708 Y0.5670  
G01 X-0.8775 Y0.5659  
G01 X-0.8843 Y0.5659  
G01 X-0.8909 Y0.5670  
G01 X-0.8974 Y0.5691  
G01 X-0.9034 Y0.5722  
G01 X-0.9089 Y0.5761  
G01 X-0.9137 Y0.5809  
G01 X-0.9176 Y0.5864  
G01 X-0.9207 Y0.5924  
G01 X-0.9228 Y0.5989  
G01 X-0.9239 Y0.6056  
G01 X-0.9239 Y0.6509  
G01 X-1.1236 Y0.6509  
G01 X-1.1287 Y0.6523  
G01 X-1.1332 Y0.6549  
G01 X-1.2333 Y0.7550  
G01 X-1.3368 Y0.7550  
G01 X-1.3382 Y0.7536  
G01 X-1.3410 Y0.7520  
G01 X-1.3440 Y0.7512  
G01 X-1.4338 Y0.7512  
G01 X-1.4368 Y0.7520  
G01 X-1.4396 Y0.7536  
G01 X-1.4418 Y0.7558  
G01 X-1.4434 Y0.7586  
G01 X-1.4442 Y0.7616  
G01 X-1.4442 Y0.7884  
G01 X-1.4434 Y0.7914  
G01 X-1.4418 Y0.7942  
G01 X-1.4396 Y0.7964  
G01 X-1.4368 Y0.7980  
G01 X-1.4338 Y0.7988  
G01 X-1.3440 Y0.7988  
G01 X-1.3410 Y0.7980  
G01 X-1.3382 Y0.7964  
G01 X-1.3368 Y0.7950  
G01 X-1.2224 Y0.7950  
G01 X-1.2173 Y0.7936  
G01 X-1.2127 Y0.7910  
G01 X-1.2090 Y0.7873  
G01 X-1.1127 Y0.6909  
G01 X-0.9189 Y0.6909  
G01 X-0.9176 Y0.6935  
G01 X-0.9137 Y0.6990  
G01 X-0.9089 Y0.7037  
G01 X-0.9034 Y0.7077  
G01 X-0.8974 Y0.7108  
G01 X-0.8909 Y0.7129  
G01 X-0.8843 Y0.7139  
G01 X-0.8775 Y0.7139  
G01 X-0.8708 Y0.7129  
G01 X-0.8644 Y0.7108  
G01 X-0.8583 Y0.7077  
G01 X-0.8529 Y0.7037  
G01 X-0.8481 Y0.6990  
G01 X-0.8441 Y0.6935  
G01 X-0.8415 Y0.6884  
G01 X-0.8389 Y0.6935  
G01 X-0.8349 Y0.6990  
G01 X-0.8301 Y0.7037  
G01 X-0.8247 Y0.7077  
G01 X-0.8221 Y0.7090  
G01 X-0.8221 Y0.7155  
G01 X-0.8208 Y0.7206  
G01 X-0.8181 Y0.7252  
G01 X-0.8010 Y0.7423  
G01 X-0.7973 Y0.7460  
G01 X-0.7927 Y0.7486  
G01 X-0.7876 Y0.7500  
G01 X-0.7808 Y0.7500  
G01 X-0.7853 Y0.7523  
G01 X-0.7908 Y0.7563  
G01 X-0.7956 Y0.7610  
G01 X-0.7995 Y0.7665  
G01 X-0.8021 Y0.7716  
G01 X-0.8047 Y0.7665  
G01 X-0.8087 Y0.7610  
G01 X-0.8135 Y0.7563  
G01 X-0.8190 Y0.7523  
G01 X-0.8250 Y0.7492  
G01 X-0.8314 Y0.7471  
G01 X-0.8381 Y0.7461  
G01 X-0.8449 Y0.7461  
G01 X-0.8456 Y0.7462  
G01 X-0.8690 Y0.7227  
G01 X-0.8727 Y0.7190  
G01 X-0.8773 Y0.7164  
G01 X-0.8824 Y0.7150  
G01 X-1.0076 Y0.7150  
G01 X-1.0127 Y0.7164  
G01 X-1.0173 Y0.7190  
G01 X-1.1033 Y0.8050  
G01 X-1.3368 Y0.8050  
G01 X-1.3382 Y0.8036  
G01 X-1.3410 Y0.8020  
G01 X-1.3440 Y0.8012  
G01 X-1.4338 Y0.8012  
G01 X-1.4368 Y0.8020  
G01 X-1.4396 Y0.8036  
G01 X-1.4418 Y0.8058  
G01 X-1.4434 Y0.8086  
G01 X-1.4442 Y0.8116  
G01 X-1.4442 Y0.8384  
G01 X-1.4434 Y0.8414  
G01 X-1.4418 Y0.8442  
G01 X-1.4396 Y0.8464  
G01 X-1.4368 Y0.8480  
G01 X-1.4338 Y0.8488  
G01 X-1.3440 Y0.8488  
G01 X-1.3410 Y0.8480  
G01 X-1.3382 Y0.8464  
G01 X-1.3368 Y0.8450  
G01 X-1.1033 Y0.8450  
G01 X-1.1360 Y0.8777  
G01 X-1.1386 Y0.8823  
G01 X-1.1400 Y0.8874  
G01 X-1.1400 Y1.1077  
G01 X-1.1423 Y1.1064  
G01 X-1.1474 Y1.1050  
G01 X-1.2987 Y1.1050  
G01 X-1.2990 Y1.1039  
G01 X-1.3030 Y1.0962  
G01 X-1.3080 Y1.0892  
G01 X-1.3142 Y1.0830  
G01 X-1.3200 Y1.0788  
G01 X-1.2816 Y1.0788  
G01 X-1.2786 Y1.0780  
G01 X-1.2758 Y1.0764  
G01 X-1.2736 Y1.0742  
G01 X-1.2720 Y1.0714  
G01 X-1.2712 Y1.0684  
G01 X-1.2712 Y0.9816  
G01 X-1.2720 Y0.9786  
G01 X-1.2736 Y0.9758  
G01 X-1.2758 Y0.9736  
G01 X-1.2786 Y0.9720  
G01 X-1.2816 Y0.9712  
G01 X-1.3684 Y0.9712  
G01 X-1.3689 Y0.9713  
G01 X-1.3689 Y0.9488  
G01 X-1.3440 Y0.9488  
G01 X-1.3410 Y0.9480  
G01 X-1.3382 Y0.9464  
G01 X-1.3360 Y0.9442  
G01 X-1.3344 Y0.9414  
G01 X-1.3336 Y0.9384  
G01 X-1.3336 Y0.9116  
G01 X-1.3344 Y0.9086  
G01 X-1.3360 Y0.9058  
G01 X-1.3382 Y0.9036  
G01 X-1.3410 Y0.9020  
G01 X-1.3440 Y0.9012  
G01 X-1.4338 Y0.9012  
G01 X-1.4368 Y0.9020  
G01 X-1.4396 Y0.9036  
G01 X-1.4418 Y0.9058  
G01 X-1.4434 Y0.9086  
G01 X-1.4442 Y0.9116  
G01 X-1.4442 Y0.9384  
G01 X-1.4434 Y0.9414  
G01 X-1.4418 Y0.9442  
G01 X-1.4396 Y0.9464  
G01 X-1.4368 Y0.9480  
G01 X-1.4338 Y0.9488  
G01 X-1.4089 Y0.9488  
G01 X-1.4089 Y0.9756  
G01 X-1.4175 Y0.9842  
G01 X-1.4690 Y0.9327  
G01 X-1.4727 Y0.9290  
G01 X-1.4773 Y0.9264  
G01 X-1.4824 Y0.9250  
G01 X-1.6026 Y0.9250  
G01 X-1.6077 Y0.9264  
G01 X-1.6123 Y0.9290  
G01 X-1.6373 Y0.9540  
G01 X-1.6410 Y0.9577  
G01 X-1.6436 Y0.9623  
G01 X-1.6450 Y0.9674  
G01 X-1.6450 Y0.9876  
G01 X-1.6582 Y0.9876  
G01 X-1.6612 Y0.9884  
G01 X-1.6640 Y0.9900  
G01 X-1.6662 Y0.9922  
G01 X-1.6678 Y0.9949  
G01 X-1.6686 Y0.9980  
G01 X-1.6686 Y1.0150  
G01 X-1.6983 Y1.0150  
G01 X-1.6992 Y1.0148  
G01 X-1.7009 Y1.0150  
G01 X-1.7026 Y1.0150  
G01 X-1.7035 Y1.0152  
G01 X-1.7044 Y1.0153  
G01 X-1.7061 Y1.0159  
G01 X-1.7077 Y1.0164  
G01 X-1.7085 Y1.0168  
G01 X-1.6540 Y0.9623  
G01 X-1.6514 Y0.9577  
G01 X-1.6500 Y0.9526  
G01 X-1.6500 Y0.8383  
G01 X-1.5567 Y0.7450  
G01 X-1.4410 Y0.7450  
G01 X-1.4396 Y0.7464  
G01 X-1.4368 Y0.7480  
G01 X-1.4338 Y0.7488  
G01 X-1.3440 Y0.7488  
G01 X-1.3410 Y0.7480  
G01 X-1.3382 Y0.7464  
G01 X-1.3360 Y0.7442  
G01 X-1.3344 Y0.7414  
G01 X-1.3336 Y0.7384  
G01 X-1.3336 Y0.7116  
G01 X-1.3344 Y0.7086  
G01 X-1.3360 Y0.7058  
G01 X-1.3382 Y0.7036  
G01 X-1.3410 Y0.7020  
G01 X-1.3440 Y0.7012  
G01 X-1.4338 Y0.7012  
G01 X-1.4368 Y0.7020  
G01 X-1.4396 Y0.7036  
G01 X-1.4410 Y0.7050  
G01 X-1.5676 Y0.7050  
G01 X-1.5727 Y0.7064  
G01 X-1.5773 Y0.7090  
G01 X-1.6823 Y0.8140  
G01 X-1.6860 Y0.8177  
G01 X-1.6886 Y0.8223  
G01 X-1.6900 Y0.8274  
G01 X-1.6900 Y0.9417  
G01 X-1.7633 Y1.0150  
G01 X-1.9267 Y1.0150  
G01 X-1.8942 Y0.9825  
G00 Z0.1000  
G00 X-1.7062 Y0.5512  
G01 Z-0.0070 F10    
G01 X-1.7311 Y0.5512  F20    
G01 X-1.7311 Y0.5488  
G01 X-1.7066 Y0.5488  
G01 X-1.7036 Y0.5480  
G01 X-1.7008 Y0.5464  
G01 X-1.6986 Y0.5442  
G01 X-1.6970 Y0.5414  
G01 X-1.6962 Y0.5384  
G01 X-1.6962 Y0.4516  
G01 X-1.6970 Y0.4486  
G01 X-1.6986 Y0.4458  
G01 X-1.7008 Y0.4436  
G01 X-1.7036 Y0.4420  
G01 X-1.7066 Y0.4412  
G01 X-1.7934 Y0.4412  
G01 X-1.7964 Y0.4420  
G01 X-1.7992 Y0.4436  
G01 X-1.8014 Y0.4458  
G01 X-1.8030 Y0.4486  
G01 X-1.8038 Y0.4516  
G01 X-1.8038 Y0.5384  
G01 X-1.8030 Y0.5414  
G01 X-1.8014 Y0.5442  
G01 X-1.7992 Y0.5464  
G01 X-1.7964 Y0.5480  
G01 X-1.7934 Y0.5488  
G01 X-1.7711 Y0.5488  
G01 X-1.7711 Y0.5512  
G01 X-1.7960 Y0.5512  
G01 X-1.7990 Y0.5520  
G01 X-1.8018 Y0.5536  
G01 X-1.8040 Y0.5558  
G01 X-1.8056 Y0.5586  
G01 X-1.8064 Y0.5616  
G01 X-1.8064 Y0.5884  
G01 X-1.8056 Y0.5914  
G01 X-1.8040 Y0.5942  
G01 X-1.8018 Y0.5964  
G01 X-1.7990 Y0.5980  
G01 X-1.7960 Y0.5988  
G01 X-1.7062 Y0.5988  
G01 X-1.7032 Y0.5980  
G01 X-1.7004 Y0.5964  
G01 X-1.6982 Y0.5942  
G01 X-1.6966 Y0.5914  
G01 X-1.6958 Y0.5884  
G01 X-1.6958 Y0.5616  
G01 X-1.6966 Y0.5586  
G01 X-1.6982 Y0.5558  
G01 X-1.7004 Y0.5536  
G01 X-1.7032 Y0.5520  
G01 X-1.7062 Y0.5512  
G00 Z0.1000  
G00 X-1.3440 Y0.8512  
G01 Z-0.0070 F10    
G01 X-1.4338 Y0.8512  F20    
G01 X-1.4368 Y0.8520  
G01 X-1.4396 Y0.8536  
G01 X-1.4418 Y0.8558  
G01 X-1.4434 Y0.8586  
G01 X-1.4442 Y0.8616  
G01 X-1.4442 Y0.8884  
G01 X-1.4434 Y0.8914  
G01 X-1.4418 Y0.8942  
G01 X-1.4396 Y0.8964  
G01 X-1.4368 Y0.8980  
G01 X-1.4338 Y0.8988  
G01 X-1.3440 Y0.8988  
G01 X-1.3410 Y0.8980  
G01 X-1.3382 Y0.8964  
G01 X-1.3368 Y0.8950  
G01 X-1.3333 Y0.8950  
G01 X-1.2538 Y0.9745  
G01 X-1.2538 Y1.0434  
G01 X-1.2530 Y1.0464  
G01 X-1.2514 Y1.0492  
G01 X-1.2492 Y1.0514  
G01 X-1.2464 Y1.0530  
G01 X-1.2434 Y1.0538  
G01 X-1.1566 Y1.0538  
G01 X-1.1536 Y1.0530  
G01 X-1.1508 Y1.0514  
G01 X-1.1486 Y1.0492  
G01 X-1.1470 Y1.0464  
G01 X-1.1462 Y1.0434  
G01 X-1.1462 Y0.9566  
G01 X-1.1470 Y0.9536  
G01 X-1.1486 Y0.9508  
G01 X-1.1508 Y0.9486  
G01 X-1.1536 Y0.9470  
G01 X-1.1566 Y0.9462  
G01 X-1.2255 Y0.9462  
G01 X-1.3127 Y0.8590  
G01 X-1.3173 Y0.8564  
G01 X-1.3224 Y0.8550  
G01 X-1.3368 Y0.8550  
G01 X-1.3382 Y0.8536  
G01 X-1.3410 Y0.8520  
G01 X-1.3440 Y0.8512  
G00 Z0.1000  
G00 X-0.3370 Y0.6805  
G01 Z-0.0070 F10    
G01 X-0.3370 Y0.7195  F20    
G01 X-0.3095 Y0.7470  
G01 X-0.2705 Y0.7470  
G01 X-0.2430 Y0.7195  
G01 X-0.2430 Y0.6805  
G01 X-0.2705 Y0.6530  
G01 X-0.3095 Y0.6530  
G01 X-0.3370 Y0.6805  
G00 Z0.1000  
G00 X-0.3370 Y0.5805  
G01 Z-0.0070 F10    
G01 X-0.3370 Y0.6195  F20    
G01 X-0.3095 Y0.6470  
G01 X-0.2705 Y0.6470  
G01 X-0.2430 Y0.6195  
G01 X-0.2430 Y0.5805  
G01 X-0.2705 Y0.5530  
G01 X-0.3095 Y0.5530  
G01 X-0.3370 Y0.5805  
G00 Z0.1000  
G00 X-0.2370 Y0.6805  
G01 Z-0.0070 F10    
G01 X-0.2370 Y0.7195  F20    
G01 X-0.2095 Y0.7470  
G01 X-0.1705 Y0.7470  
G01 X-0.1430 Y0.7195  
G01 X-0.1430 Y0.6805  
G01 X-0.1705 Y0.6530  
G01 X-0.2095 Y0.6530  
G01 X-0.2370 Y0.6805  
G00 Z0.1000  
G00 X-0.2370 Y0.5805  
G01 Z-0.0070 F10    
G01 X-0.2370 Y0.6195  F20    
G01 X-0.2095 Y0.6470  
G01 X-0.1705 Y0.6470  
G01 X-0.1430 Y0.6195  
G01 X-0.1430 Y0.5805  
G01 X-0.1705 Y0.5530  
G01 X-0.2095 Y0.5530  
G01 X-0.2370 Y0.5805  
G00 Z0.1000  
G00 X-1.4438 Y0.4366  
G01 Z-0.0070 F10    
G01 X-1.4438 Y0.5234  F20    
G01 X-1.4430 Y0.5264  
G01 X-1.4414 Y0.5292  
G01 X-1.4392 Y0.5314  
G01 X-1.4364 Y0.5330  
G01 X-1.4334 Y0.5338  
G01 X-1.4100 Y0.5338  
G01 X-1.4100 Y0.5512  
G01 X-1.4338 Y0.5512  
G01 X-1.4368 Y0.5520  
G01 X-1.4396 Y0.5536  
G01 X-1.4418 Y0.5558  
G01 X-1.4434 Y0.5586  
G01 X-1.4442 Y0.5616  
G01 X-1.4442 Y0.5884  
G01 X-1.4434 Y0.5914  
G01 X-1.4418 Y0.5942  
G01 X-1.4396 Y0.5964  
G01 X-1.4368 Y0.5980  
G01 X-1.4338 Y0.5988  
G01 X-1.3440 Y0.5988  
G01 X-1.3410 Y0.5980  
G01 X-1.3382 Y0.5964  
G01 X-1.3360 Y0.5942  
G01 X-1.3344 Y0.5914  
G01 X-1.3336 Y0.5884  
G01 X-1.3336 Y0.5616  
G01 X-1.3344 Y0.5586  
G01 X-1.3360 Y0.5558  
G01 X-1.3382 Y0.5536  
G01 X-1.3410 Y0.5520  
G01 X-1.3440 Y0.5512  
G01 X-1.3700 Y0.5512  
G01 X-1.3700 Y0.5338  
G01 X-1.3466 Y0.5338  
G01 X-1.3436 Y0.5330  
G01 X-1.3408 Y0.5314  
G01 X-1.3386 Y0.5292  
G01 X-1.3370 Y0.5264  
G01 X-1.3362 Y0.5234  
G01 X-1.3362 Y0.4366  
G01 X-1.3370 Y0.4336  
G01 X-1.3386 Y0.4308  
G01 X-1.3408 Y0.4286  
G01 X-1.3436 Y0.4270  
G01 X-1.3466 Y0.4262  
G01 X-1.4334 Y0.4262  
G01 X-1.4364 Y0.4270  
G01 X-1.4392 Y0.4286  
G01 X-1.4414 Y0.4308  
G01 X-1.4430 Y0.4336  
G01 X-1.4438 Y0.4366  
G00 Z0.1000  
G00 X-0.9632 Y0.8544  
G01 Z-0.0070 F10    
G01 X-0.9622 Y0.8611  F20    
G01 X-0.9601 Y0.8676  
G01 X-0.9570 Y0.8736  
G01 X-0.9530 Y0.8791  
G01 X-0.9482 Y0.8839  
G01 X-0.9428 Y0.8878  
G01 X-0.9367 Y0.8909  
G01 X-0.9303 Y0.8930  
G01 X-0.9236 Y0.8941  
G01 X-0.9169 Y0.8941  
G01 X-0.9102 Y0.8930  
G01 X-0.9037 Y0.8909  
G01 X-0.8977 Y0.8878  
G01 X-0.8922 Y0.8839  
G01 X-0.8874 Y0.8791  
G01 X-0.8835 Y0.8736  
G01 X-0.8809 Y0.8685  
G01 X-0.8783 Y0.8736  
G01 X-0.8743 Y0.8791  
G01 X-0.8695 Y0.8839  
G01 X-0.8640 Y0.8878  
G01 X-0.8580 Y0.8909  
G01 X-0.8516 Y0.8930  
G01 X-0.8449 Y0.8941  
G01 X-0.8381 Y0.8941  
G01 X-0.8314 Y0.8930  
G01 X-0.8250 Y0.8909  
G01 X-0.8190 Y0.8878  
G01 X-0.8135 Y0.8839  
G01 X-0.8087 Y0.8791  
G01 X-0.8047 Y0.8736  
G01 X-0.8021 Y0.8685  
G01 X-0.7995 Y0.8736  
G01 X-0.7956 Y0.8791  
G01 X-0.7908 Y0.8839  
G01 X-0.7853 Y0.8878  
G01 X-0.7828 Y0.8891  
G01 X-0.7828 Y1.0195  
G01 X-0.8440 Y1.0807  
G01 X-0.8479 Y1.0814  
G01 X-0.8561 Y1.0840  
G01 X-0.8638 Y1.0880  
G01 X-0.8708 Y1.0930  
G01 X-0.8770 Y1.0992  
G01 X-0.8820 Y1.1062  
G01 X-0.8860 Y1.1139  
G01 X-0.8863 Y1.1150  
G01 X-0.9992 Y1.1150  
G01 X-1.0000 Y1.1142  
G01 X-1.0000 Y1.1138  
G01 X-0.9766 Y1.1138  
G01 X-0.9736 Y1.1130  
G01 X-0.9708 Y1.1114  
G01 X-0.9686 Y1.1092  
G01 X-0.9670 Y1.1064  
G01 X-0.9662 Y1.1034  
G01 X-0.9662 Y1.0166  
G01 X-0.9670 Y1.0136  
G01 X-0.9686 Y1.0108  
G01 X-0.9708 Y1.0086  
G01 X-0.9736 Y1.0070  
G01 X-0.9766 Y1.0062  
G01 X-1.0634 Y1.0062  
G01 X-1.0664 Y1.0070  
G01 X-1.0692 Y1.0086  
G01 X-1.0714 Y1.0108  
G01 X-1.0730 Y1.0136  
G01 X-1.0738 Y1.0166  
G01 X-1.0738 Y1.1034  
G01 X-1.0730 Y1.1064  
G01 X-1.0714 Y1.1092  
G01 X-1.0692 Y1.1114  
G01 X-1.0664 Y1.1130  
G01 X-1.0634 Y1.1138  
G01 X-1.0400 Y1.1138  
G01 X-1.0400 Y1.1142  
G01 X-1.0630 Y1.1372  
G01 X-1.0630 Y1.1728  
G01 X-1.0378 Y1.1980  
G01 X-1.0022 Y1.1980  
G01 X-0.9770 Y1.1728  
G01 X-0.9770 Y1.1550  
G01 X-0.8863 Y1.1550  
G01 X-0.8860 Y1.1561  
G01 X-0.8820 Y1.1638  
G01 X-0.8770 Y1.1708  
G01 X-0.8708 Y1.1770  
G01 X-0.8638 Y1.1820  
G01 X-0.8612 Y1.1834  
G01 X-0.8900 Y1.2122  
G01 X-0.8900 Y1.2150  
G01 X-1.0270 Y1.2150  
G01 X-1.0270 Y1.2122  
G01 X-1.0522 Y1.1870  
G01 X-1.0878 Y1.1870  
G01 X-1.1108 Y1.2100  
G01 X-1.2950 Y1.2100  
G01 X-1.2950 Y1.2022  
G01 X-1.3238 Y1.1734  
G01 X-1.3212 Y1.1720  
G01 X-1.3142 Y1.1670  
G01 X-1.3080 Y1.1608  
G01 X-1.3030 Y1.1538  
G01 X-1.2990 Y1.1461  
G01 X-1.2987 Y1.1450  
G01 X-1.1630 Y1.1450  
G01 X-1.1630 Y1.1728  
G01 X-1.1378 Y1.1980  
G01 X-1.1022 Y1.1980  
G01 X-1.0770 Y1.1728  
G01 X-1.0770 Y1.1372  
G01 X-1.1000 Y1.1142  
G01 X-1.1000 Y0.8983  
G01 X-1.0067 Y0.8050  
G01 X-0.9632 Y0.8050  
G01 X-0.9632 Y0.8544  
G00 Z0.1000  
G00 X-0.9967 Y0.7550  
G01 Z-0.0070 F10    
G01 X-0.9465 Y0.7550  F20    
G01 X-0.9482 Y0.7563  
G01 X-0.9530 Y0.7610  
G01 X-0.9559 Y0.7650  
G01 X-1.0067 Y0.7650  
G01 X-0.9967 Y0.7550  
G00 Z0.1000  
G00 X-1.7344 Y1.0450  
G01 Z-0.0070 F10    
G01 X-1.7367 Y1.0450  F20    
G01 X-1.7226 Y1.0309  
G01 X-1.7344 Y1.0450  
G00 Z0.1000  
G00 X-0.7800 Y1.2578  
G01 Z-0.0070 F10    
G01 X-0.7800 Y1.2550  F20    
G01 X-0.6924 Y1.2550  
G01 X-0.6873 Y1.2536  
G01 X-0.6827 Y1.2510  
G01 X-0.6790 Y1.2473  
G01 X-0.5827 Y1.1510  
G01 X-0.5818 Y1.1501  
G01 X-0.5816 Y1.1510  
G01 X-0.5800 Y1.1537  
G01 X-0.5778 Y1.1560  
G01 X-0.5751 Y1.1576  
G01 X-0.5720 Y1.1584  
G01 X-0.4980 Y1.1584  
G01 X-0.4950 Y1.1576  
G01 X-0.4950 Y1.1824  
G01 X-0.4980 Y1.1816  
G01 X-0.5720 Y1.1816  
G01 X-0.5751 Y1.1824  
G01 X-0.5778 Y1.1840  
G01 X-0.5800 Y1.1863  
G01 X-0.5816 Y1.1890  
G01 X-0.5824 Y1.1920  
G01 X-0.5824 Y1.2582  
G01 X-0.5816 Y1.2612  
G01 X-0.5800 Y1.2640  
G01 X-0.5787 Y1.2654  
G01 X-0.5883 Y1.2750  
G01 X-0.7972 Y1.2750  
G01 X-0.7800 Y1.2578  
G00 Z0.1000  
G00 X-1.2972 Y1.2500  
G01 Z-0.0070 F10    
G01 X-1.1108 Y1.2500  F20    
G01 X-1.0878 Y1.2730  
G01 X-1.0522 Y1.2730  
G01 X-1.0342 Y1.2550  
G01 X-0.8900 Y1.2550  
G01 X-0.8900 Y1.2578  
