(.../src/pcbgcode.repo/pcb-gcode.ulp)
(Copyright 2005 - 2012 by John Johnson)
(See readme.txt for licensing terms.)
(This file generated from the board:)
(.../docs/examples/04151_lcdi2c.brd)
(Current profile is .../pcbgcode-work/profiles/mach.pp  )
(This file generated 2/6/14 10:02 AM)
(Settings from pcb-machine.h)
(spindle on time = 3.0000)
(tool change at 0.0000  0.0000  1.0000  )
(feed rate xy = F0     )
(feed rate z  = F0     )
(Z Axis Settings)
(  High     Up        Down     Drill)
(0.5000  	0.1000  	-0.0070 	-0.0320 )
(Settings from pcb-defaults.h)
(isolate min = 0.0010)
(isolate max = 0.0200)
(isolate step = 0.0050)
(Generated top outlines, top drill, top stencil, bottom outlines, bottom drill, bottom stencil)
(Unit of measure: inch)
(Inch Mode)
G20
(Absolute Coordinates)
G90
S24000
G00 Z0.5000  
G00 X0.0000  Y0.0000  
M03
G04 P3.000000
G00 Z0.1000  
G00 X-1.6536 Y1.0026  
G01 Z-0.0070 F23    
G01 X-1.5966 Y1.0026  F22    
G01 X-1.5966 Y1.0674  
G01 X-1.6536 Y1.0674  
G01 X-1.6536 Y1.0026  
G01 X-1.5966 Y1.0026  
G00 Z0.1000  
G00 X-1.5434 Y1.0026  
G01 Z-0.0070 F23    
G01 X-1.4864 Y1.0026  F22    
G01 X-1.4864 Y1.0674  
G01 X-1.5434 Y1.0674  
G01 X-1.5434 Y1.0026  
G01 X-1.4864 Y1.0026  
G00 Z0.1000  
G00 X-0.5674 Y1.2536  
G01 Z-0.0070 F23    
G01 X-0.5674 Y1.1966  F22    
G01 X-0.5026 Y1.1966  
G01 X-0.5026 Y1.2536  
G01 X-0.5674 Y1.2536  
G01 X-0.5674 Y1.1966  
G00 Z0.1000  
G00 X-0.5674 Y1.1434  
G01 Z-0.0070 F23    
G01 X-0.5674 Y1.0864  F22    
G01 X-0.5026 Y1.0864  
G01 X-0.5026 Y1.1434  
G01 X-0.5674 Y1.1434  
G01 X-0.5674 Y1.0864  
G00 Z0.1000  
G00 X-1.7914 Y0.9338  
G01 Z-0.0070 F23    
G01 X-1.7914 Y0.9162  F22    
G01 X-1.7108 Y0.9162  
G01 X-1.7108 Y0.9338  
G01 X-1.7914 Y0.9338  
G01 X-1.7914 Y0.9162  
G00 Z0.1000  
G00 X-1.7914 Y0.8838  
G01 Z-0.0070 F23    
G01 X-1.7914 Y0.8662  F22    
G01 X-1.7108 Y0.8662  
G01 X-1.7108 Y0.8838  
G01 X-1.7914 Y0.8838  
G01 X-1.7914 Y0.8662  
G00 Z0.1000  
G00 X-1.7914 Y0.8338  
G01 Z-0.0070 F23    
G01 X-1.7914 Y0.8162  F22    
G01 X-1.7108 Y0.8162  
G01 X-1.7108 Y0.8338  
G01 X-1.7914 Y0.8338  
G01 X-1.7914 Y0.8162  
G00 Z0.1000  
G00 X-1.7914 Y0.7838  
G01 Z-0.0070 F23    
G01 X-1.7914 Y0.7662  F22    
G01 X-1.7108 Y0.7662  
G01 X-1.7108 Y0.7838  
G01 X-1.7914 Y0.7838  
G01 X-1.7914 Y0.7662  
G00 Z0.1000  
G00 X-1.7914 Y0.7338  
G01 Z-0.0070 F23    
G01 X-1.7914 Y0.7162  F22    
G01 X-1.7108 Y0.7162  
G01 X-1.7108 Y0.7338  
G01 X-1.7914 Y0.7338  
G01 X-1.7914 Y0.7162  
G00 Z0.1000  
G00 X-1.7914 Y0.6838  
G01 Z-0.0070 F23    
G01 X-1.7914 Y0.6662  F22    
G01 X-1.7108 Y0.6662  
G01 X-1.7108 Y0.6838  
G01 X-1.7914 Y0.6838  
G01 X-1.7914 Y0.6662  
G00 Z0.1000  
G00 X-1.7914 Y0.6338  
G01 Z-0.0070 F23    
G01 X-1.7914 Y0.6162  F22    
G01 X-1.7108 Y0.6162  
G01 X-1.7108 Y0.6338  
G01 X-1.7914 Y0.6338  
G01 X-1.7914 Y0.6162  
G00 Z0.1000  
G00 X-1.7914 Y0.5838  
G01 Z-0.0070 F23    
G01 X-1.7914 Y0.5662  F22    
G01 X-1.7108 Y0.5662  
G01 X-1.7108 Y0.5838  
G01 X-1.7914 Y0.5838  
G01 X-1.7914 Y0.5662  
G00 Z0.1000  
G00 X-1.4292 Y0.5838  
G01 Z-0.0070 F23    
G01 X-1.4292 Y0.5662  F22    
G01 X-1.3486 Y0.5662  
G01 X-1.3486 Y0.5838  
G01 X-1.4292 Y0.5838  
G01 X-1.4292 Y0.5662  
G00 Z0.1000  
G00 X-1.4292 Y0.6338  
G01 Z-0.0070 F23    
G01 X-1.4292 Y0.6162  F22    
G01 X-1.3486 Y0.6162  
G01 X-1.3486 Y0.6338  
G01 X-1.4292 Y0.6338  
G01 X-1.4292 Y0.6162  
G00 Z0.1000  
G00 X-1.4292 Y0.6838  
G01 Z-0.0070 F23    
G01 X-1.4292 Y0.6662  F22    
G01 X-1.3486 Y0.6662  
G01 X-1.3486 Y0.6838  
G01 X-1.4292 Y0.6838  
G01 X-1.4292 Y0.6662  
G00 Z0.1000  
G00 X-1.4292 Y0.7338  
G01 Z-0.0070 F23    
G01 X-1.4292 Y0.7162  F22    
G01 X-1.3486 Y0.7162  
G01 X-1.3486 Y0.7338  
G01 X-1.4292 Y0.7338  
G01 X-1.4292 Y0.7162  
G00 Z0.1000  
G00 X-1.4292 Y0.7838  
G01 Z-0.0070 F23    
G01 X-1.4292 Y0.7662  F22    
G01 X-1.3486 Y0.7662  
G01 X-1.3486 Y0.7838  
G01 X-1.4292 Y0.7838  
G01 X-1.4292 Y0.7662  
G00 Z0.1000  
G00 X-1.4292 Y0.8338  
G01 Z-0.0070 F23    
G01 X-1.4292 Y0.8162  F22    
G01 X-1.3486 Y0.8162  
G01 X-1.3486 Y0.8338  
G01 X-1.4292 Y0.8338  
G01 X-1.4292 Y0.8162  
G00 Z0.1000  
G00 X-1.4292 Y0.8838  
G01 Z-0.0070 F23    
G01 X-1.4292 Y0.8662  F22    
G01 X-1.3486 Y0.8662  
G01 X-1.3486 Y0.8838  
G01 X-1.4292 Y0.8838  
G01 X-1.4292 Y0.8662  
G00 Z0.1000  
G00 X-1.4292 Y0.9338  
G01 Z-0.0070 F23    
G01 X-1.4292 Y0.9162  F22    
G01 X-1.3486 Y0.9162  
G01 X-1.3486 Y0.9338  
G01 X-1.4292 Y0.9338  
G01 X-1.4292 Y0.9162  
G00 Z0.1000  
G00 X-2.1145 Y0.6575  
G01 Z-0.0070 F23    
G01 X-2.0575 Y0.6575  F22    
G01 X-2.0575 Y0.7225  
G01 X-2.1145 Y0.7225  
G01 X-2.1145 Y0.6575  
G01 X-2.0575 Y0.6575  
G00 Z0.1000  
G00 X-2.0025 Y0.6575  
G01 Z-0.0070 F23    
G01 X-1.9455 Y0.6575  F22    
G01 X-1.9455 Y0.7225  
G01 X-2.0025 Y0.7225  
G01 X-2.0025 Y0.6575  
G01 X-1.9455 Y0.6575  
G00 Z0.1000  
G00 X-2.1095 Y0.7875  
G01 Z-0.0070 F23    
G01 X-2.0525 Y0.7875  F22    
G01 X-2.0525 Y0.8525  
G01 X-2.1095 Y0.8525  
G01 X-2.1095 Y0.7875  
G01 X-2.0525 Y0.7875  
G00 Z0.1000  
G00 X-1.9975 Y0.7875  
G01 Z-0.0070 F23    
G01 X-1.9405 Y0.7875  F22    
G01 X-1.9405 Y0.8525  
G01 X-1.9975 Y0.8525  
G01 X-1.9975 Y0.7875  
G01 X-1.9405 Y0.7875  
G00 Z0.1000  
G00 X-2.0545 Y0.9025  
G01 Z-0.0070 F23    
G01 X-1.9975 Y0.9025  F22    
G01 X-1.9975 Y0.9675  
G01 X-2.0545 Y0.9675  
G01 X-2.0545 Y0.9025  
G01 X-1.9975 Y0.9025  
G00 Z0.1000  
G00 X-1.9425 Y0.9025  
G01 Z-0.0070 F23    
G01 X-1.8855 Y0.9025  F22    
G01 X-1.8855 Y0.9675  
G01 X-1.9425 Y0.9675  
G01 X-1.9425 Y0.9025  
G01 X-1.8855 Y0.9025  
G00 Z0.1000  
G00 Z0.5000  
M05
M02
