(.../john/src/pcbgcode/pcb-gcode.ulp)
(Copyright 2005 - 2012 by John Johnson)
(See readme.txt for licensing terms.)
(This file generated from the board:)
(.../docs/examples/04151_lcdi2c.brd)
(Current profile is .../pcb-gcode-3.6.2.4/profiles/generic.pp  )
(This file generated 9/2/22 9:24 AM)
(Settings from pcb-machine.h)
(spindle on time = 3.0000)
(spindle speed = 20000.0000)
(tool change at 0.0000 0.0000 1.0000 )
(feed rate xy = F0.00  )
(feed rate z  = F20.00 )
(Z Axis Settings)
(  High     Up        Down     Drill)
(0.5000 	0.1000 	-0.0070 	-0.0700 )
(Settings from pcb-defaults.h)
(isolate min = 0.0010)
(isolate max = 0.0200)
(isolate step = 0.0050)
(Generated top outlines, top drill, bottom outlines, bottom drill, )
(Unit of measure: inch)
(Beginning of every file)
(Beginning of every bottom file)
(Beginning of All Drill files)
(Bottom Drill Begin)
(Rack file: .../docs/examples/04151_lcdi2c.drl)
(Min Sub is the minimum hole size this tool was subbed for.)
(Max Sub is the maximum hole size this tool was subbed for.)
( Tool|       Size           |  Min Sub |  Max Sub |   Count )
( T01     0.813mm   0.0320in   0.0236in   0.0400in       57     )
( T02     0.813mm   0.0320in   0.0860in   0.1250in        4    THIS IS AN ENDMILL )
(Inch Mode)
G20
(Absolute Coordinates)
G90
(Set XY plane for z interpolation)
G17
S20000
G00 Z0.5000 
G00 X0.0000 Y0.0000 
M03
G04 P3.000000
(Tool Change Begin)
(Bottom Tool Change Begin)
M05
G00 Z1.0000 
M06 T01  ; 0.0320 
(Bottom Tool changed)
(Tool changed)
(Tool zero begin)
(Bottom Tool zero begin)
G01 Z0.0000 F20.00 
M06 
(Bottom Tool zero end)
(Tool zero end)
G00 Z0.1000 
M03
G04 P3.000000
(Bottom Tool Change End)
(Tool Change End)
G00 Z0.100000
G00 X-0.1900 Y0.4000 
G01 Z-0.0700 F20.00 
G01 Z0.100000
(R0.1000  P1.000000)
G00 X-0.1900 Y0.5000 
G01 Z-0.0700 
G01 Z0.100000
G00 X-0.1900 Y0.6000 
G01 Z-0.0700 
G01 Z0.100000
G00 X-0.1900 Y0.7000 
G01 Z-0.0700 
G01 Z0.100000
G00 X-0.2900 Y0.7000 
G01 Z-0.0700 
G01 Z0.100000
G00 X-0.2900 Y0.6000 
G01 Z-0.0700 
G01 Z0.100000
G00 X-0.2900 Y0.5000 
G01 Z-0.0700 
G01 Z0.100000
G00 X-0.2900 Y0.4000 
G01 Z-0.0700 
G01 Z0.100000
G00 X-0.3900 Y0.5000 
G01 Z-0.0700 
G01 Z0.100000
G00 X-0.5200 Y0.5250 
G01 Z-0.0700 
G01 Z0.100000
G00 X-0.7234 Y0.6709 
G01 Z-0.0700 
G01 Z0.100000
G00 X-0.8021 Y0.6709 
G01 Z-0.0700 
G01 Z0.100000
G00 X-0.8809 Y0.6709 
G01 Z-0.0700 
G01 Z0.100000
G00 X-0.9202 Y0.7891 
G01 Z-0.0700 
G01 Z0.100000
G00 X-0.8415 Y0.7891 
G01 Z-0.0700 
G01 Z0.100000
G00 X-0.7628 Y0.7891 
G01 Z-0.0700 
G01 Z0.100000
G00 X-0.6800 Y1.0650 
G01 Z-0.0700 
G01 Z0.100000
G00 X-0.8350 Y1.1350 
G01 Z-0.0700 
G01 Z0.100000
G00 X-0.8350 Y1.2350 
G01 Z-0.0700 
G01 Z0.100000
G00 X-1.0200 Y1.1550 
G01 Z-0.0700 
G01 Z0.100000
G00 X-1.0700 Y1.2300 
G01 Z-0.0700 
G01 Z0.100000
G00 X-1.1200 Y1.1550 
G01 Z-0.0700 
G01 Z0.100000
G00 X-1.0200 Y1.0600 
G01 Z-0.0700 
G01 Z0.100000
G00 X-1.2000 Y1.0000 
G01 Z-0.0700 
G01 Z0.100000
G00 X-1.3250 Y1.0250 
G01 Z-0.0700 
G01 Z0.100000
G00 X-1.3500 Y1.1250 
G01 Z-0.0700 
G01 Z0.100000
G00 X-1.3500 Y1.2250 
G01 Z-0.0700 
G01 Z0.100000
G00 X-1.5150 Y1.2300 
G01 Z-0.0700 
G01 Z0.100000
G00 X-1.7450 Y1.2300 
G01 Z-0.0700 
G01 Z0.100000
G00 X-2.1100 Y0.9350 
G01 Z-0.0700 
G01 Z0.100000
G00 X-2.3600 Y0.8650 
G01 Z-0.0700 
G01 Z0.100000
G00 X-2.2050 Y0.6900 
G01 Z-0.0700 
G01 Z0.100000
G00 X-2.2400 Y0.4150 
G01 Z-0.0700 
G01 Z0.100000
G00 X-2.1400 Y0.4150 
G01 Z-0.0700 
G01 Z0.100000
G00 X-2.0400 Y0.4150 
G01 Z-0.0700 
G01 Z0.100000
G00 X-1.9000 Y0.3400 
G01 Z-0.0700 
G01 Z0.100000
G00 X-1.7500 Y0.4950 
G01 Z-0.0700 
G01 Z0.100000
G00 X-1.3900 Y0.4800 
G01 Z-0.0700 
G01 Z0.100000
G00 X-1.3900 Y0.1800 
G01 Z-0.0700 
G01 Z0.100000
G00 X-1.2150 Y0.1800 
G01 Z-0.0700 
G01 Z0.100000
G00 X-1.0950 Y0.2650 
G01 Z-0.0700 
G01 Z0.100000
G00 X-0.9150 Y0.2800 
G01 Z-0.0700 
G01 Z0.100000
G00 X-0.7150 Y0.1800 
G01 Z-0.0700 
G01 Z0.100000
G00 X-0.5100 Y0.2350 
G01 Z-0.0700 
G01 Z0.100000
G00 X-0.2900 Y0.8000 
G01 Z-0.0700 
G01 Z0.100000
G00 X-0.2900 Y0.9000 
G01 Z-0.0700 
G01 Z0.100000
G00 X-0.2900 Y1.0000 
G01 Z-0.0700 
G01 Z0.100000
G00 X-0.1900 Y1.0000 
G01 Z-0.0700 
G01 Z0.100000
G00 X-0.1900 Y0.9000 
G01 Z-0.0700 
G01 Z0.100000
G00 X-0.1900 Y0.8000 
G01 Z-0.0700 
G01 Z0.100000
G00 X-0.4000 Y0.9000 
G01 Z-0.0700 
G01 Z0.100000
G00 X-0.5100 Y0.9750 
G01 Z-0.0700 
G01 Z0.100000
G00 X-0.4100 Y1.1900 
G01 Z-0.0700 
G01 Z0.100000
G00 X-2.3600 Y1.1650 
G01 Z-0.0700 
G01 Z0.100000
G00 X-2.2400 Y0.1150 
G01 Z-0.0700 
G01 Z0.100000
G00 X-2.1400 Y0.1150 
G01 Z-0.0700 
G01 Z0.100000
G00 X-2.0400 Y0.1150 
G01 Z-0.0700 
G01 Z0.100000
(Tool Change Begin)
(Bottom Tool Change Begin)
M05
G00 Z1.0000 
G00 X0.0000 Y0.0000 
M06 T02  ; 0.0320 
(Bottom Tool changed)
(Tool changed)
(Tool zero begin)
(Bottom Tool zero begin)
G01 Z0.0000 F20.00 
M06 
(Bottom Tool zero end)
(Tool zero end)
G00 Z0.1000 
M03
G04 P3.000000
(Bottom Tool Change End)
(Tool Change End)
(Start milling a hole)
(X-0.1500 Y0.1300, depth=-0.0700, tool_size=0.0320, hole_size=0.1250, step_size=0.0100)
(helical selected)
G00 X-0.1035 Y0.1300 
G01 Z0.0000 F10.00 
G02 X-0.1965 Y0.1300 Z-0.0035 I-0.0465 J0.0000 F20.00 
G02 X-0.1035 Y0.1300 Z-0.0070 I0.0465 J0.0000 F20.00 
G02 X-0.1965 Y0.1300 Z-0.0070 I-0.0465 J0.0000 F20.00 
G02 X-0.1035 Y0.1300 Z-0.0140 I0.0465 J0.0000 F20.00 
G02 X-0.1965 Y0.1300 Z-0.0105 I-0.0465 J0.0000 F20.00 
G02 X-0.1035 Y0.1300 Z-0.0210 I0.0465 J0.0000 F20.00 
G02 X-0.1965 Y0.1300 Z-0.0140 I-0.0465 J0.0000 F20.00 
G02 X-0.1035 Y0.1300 Z-0.0280 I0.0465 J0.0000 F20.00 
G02 X-0.1965 Y0.1300 Z-0.0175 I-0.0465 J0.0000 F20.00 
G02 X-0.1035 Y0.1300 Z-0.0350 I0.0465 J0.0000 F20.00 
G02 X-0.1965 Y0.1300 Z-0.0210 I-0.0465 J0.0000 F20.00 
G02 X-0.1035 Y0.1300 Z-0.0420 I0.0465 J0.0000 F20.00 
G02 X-0.1965 Y0.1300 Z-0.0245 I-0.0465 J0.0000 F20.00 
G02 X-0.1035 Y0.1300 Z-0.0490 I0.0465 J0.0000 F20.00 
G02 X-0.1965 Y0.1300 Z-0.0280 I-0.0465 J0.0000 F20.00 
G02 X-0.1035 Y0.1300 Z-0.0560 I0.0465 J0.0000 F20.00 
G02 X-0.1965 Y0.1300 Z-0.0315 I-0.0465 J0.0000 F20.00 
G02 X-0.1035 Y0.1300 Z-0.0630 I0.0465 J0.0000 F20.00 
G02 X-0.1965 Y0.1300 Z-0.0665 I-0.0465 J0.0000 F20.00 
G02 X-0.1035 Y0.1300 Z-0.0700 I0.0465 J0.0000 F20.00 
(last pass)
G01 Z-0.0700 F10.00 
G02 X-0.1965 Y0.1300 I-0.0465 J0.0000 F20.00 
G02 X-0.1035 Y0.1300 I0.0465 J0.0000 F20.00 
G01 Z0.1000 
(Start milling a hole)
(X-0.5029 Y0.7576, depth=-0.0700, tool_size=0.0320, hole_size=0.0860, step_size=0.0100)
(helical selected)
G00 X-0.4759 Y0.7576 
G01 Z0.0000 F10.00 
G02 X-0.5299 Y0.7576 Z-0.0035 I-0.0270 J0.0000 F20.00 
G02 X-0.4759 Y0.7576 Z-0.0070 I0.0270 J0.0000 F20.00 
G02 X-0.5299 Y0.7576 Z-0.0070 I-0.0270 J0.0000 F20.00 
G02 X-0.4759 Y0.7576 Z-0.0140 I0.0270 J0.0000 F20.00 
G02 X-0.5299 Y0.7576 Z-0.0105 I-0.0270 J0.0000 F20.00 
G02 X-0.4759 Y0.7576 Z-0.0210 I0.0270 J0.0000 F20.00 
G02 X-0.5299 Y0.7576 Z-0.0140 I-0.0270 J0.0000 F20.00 
G02 X-0.4759 Y0.7576 Z-0.0280 I0.0270 J0.0000 F20.00 
G02 X-0.5299 Y0.7576 Z-0.0175 I-0.0270 J0.0000 F20.00 
G02 X-0.4759 Y0.7576 Z-0.0350 I0.0270 J0.0000 F20.00 
G02 X-0.5299 Y0.7576 Z-0.0210 I-0.0270 J0.0000 F20.00 
G02 X-0.4759 Y0.7576 Z-0.0420 I0.0270 J0.0000 F20.00 
G02 X-0.5299 Y0.7576 Z-0.0245 I-0.0270 J0.0000 F20.00 
G02 X-0.4759 Y0.7576 Z-0.0490 I0.0270 J0.0000 F20.00 
G02 X-0.5299 Y0.7576 Z-0.0280 I-0.0270 J0.0000 F20.00 
G02 X-0.4759 Y0.7576 Z-0.0560 I0.0270 J0.0000 F20.00 
G02 X-0.5299 Y0.7576 Z-0.0315 I-0.0270 J0.0000 F20.00 
G02 X-0.4759 Y0.7576 Z-0.0630 I0.0270 J0.0000 F20.00 
G02 X-0.5299 Y0.7576 Z-0.0665 I-0.0270 J0.0000 F20.00 
G02 X-0.4759 Y0.7576 Z-0.0700 I0.0270 J0.0000 F20.00 
(last pass)
G01 Z-0.0700 F10.00 
G02 X-0.5299 Y0.7576 I-0.0270 J0.0000 F20.00 
G02 X-0.4759 Y0.7576 I0.0270 J0.0000 F20.00 
G01 Z0.1000 
(Start milling a hole)
(X-0.1500 Y1.1900, depth=-0.0700, tool_size=0.0320, hole_size=0.1250, step_size=0.0100)
(helical selected)
G00 X-0.1035 Y1.1900 
G01 Z0.0000 F10.00 
G02 X-0.1965 Y1.1900 Z-0.0035 I-0.0465 J0.0000 F20.00 
G02 X-0.1035 Y1.1900 Z-0.0070 I0.0465 J0.0000 F20.00 
G02 X-0.1965 Y1.1900 Z-0.0070 I-0.0465 J0.0000 F20.00 
G02 X-0.1035 Y1.1900 Z-0.0140 I0.0465 J0.0000 F20.00 
G02 X-0.1965 Y1.1900 Z-0.0105 I-0.0465 J0.0000 F20.00 
G02 X-0.1035 Y1.1900 Z-0.0210 I0.0465 J0.0000 F20.00 
G02 X-0.1965 Y1.1900 Z-0.0140 I-0.0465 J0.0000 F20.00 
G02 X-0.1035 Y1.1900 Z-0.0280 I0.0465 J0.0000 F20.00 
G02 X-0.1965 Y1.1900 Z-0.0175 I-0.0465 J0.0000 F20.00 
G02 X-0.1035 Y1.1900 Z-0.0350 I0.0465 J0.0000 F20.00 
G02 X-0.1965 Y1.1900 Z-0.0210 I-0.0465 J0.0000 F20.00 
G02 X-0.1035 Y1.1900 Z-0.0420 I0.0465 J0.0000 F20.00 
G02 X-0.1965 Y1.1900 Z-0.0245 I-0.0465 J0.0000 F20.00 
G02 X-0.1035 Y1.1900 Z-0.0490 I0.0465 J0.0000 F20.00 
G02 X-0.1965 Y1.1900 Z-0.0280 I-0.0465 J0.0000 F20.00 
G02 X-0.1035 Y1.1900 Z-0.0560 I0.0465 J0.0000 F20.00 
G02 X-0.1965 Y1.1900 Z-0.0315 I-0.0465 J0.0000 F20.00 
G02 X-0.1035 Y1.1900 Z-0.0630 I0.0465 J0.0000 F20.00 
G02 X-0.1965 Y1.1900 Z-0.0665 I-0.0465 J0.0000 F20.00 
G02 X-0.1035 Y1.1900 Z-0.0700 I0.0465 J0.0000 F20.00 
(last pass)
G01 Z-0.0700 F10.00 
G02 X-0.1965 Y1.1900 I-0.0465 J0.0000 F20.00 
G02 X-0.1035 Y1.1900 I0.0465 J0.0000 F20.00 
G01 Z0.1000 
(Start milling a hole)
(X-1.1171 Y0.7576, depth=-0.0700, tool_size=0.0320, hole_size=0.0860, step_size=0.0100)
(helical selected)
G00 X-1.0901 Y0.7576 
G01 Z0.0000 F10.00 
G02 X-1.1441 Y0.7576 Z-0.0035 I-0.0270 J0.0000 F20.00 
G02 X-1.0901 Y0.7576 Z-0.0070 I0.0270 J0.0000 F20.00 
G02 X-1.1441 Y0.7576 Z-0.0070 I-0.0270 J0.0000 F20.00 
G02 X-1.0901 Y0.7576 Z-0.0140 I0.0270 J0.0000 F20.00 
G02 X-1.1441 Y0.7576 Z-0.0105 I-0.0270 J0.0000 F20.00 
G02 X-1.0901 Y0.7576 Z-0.0210 I0.0270 J0.0000 F20.00 
G02 X-1.1441 Y0.7576 Z-0.0140 I-0.0270 J0.0000 F20.00 
G02 X-1.0901 Y0.7576 Z-0.0280 I0.0270 J0.0000 F20.00 
G02 X-1.1441 Y0.7576 Z-0.0175 I-0.0270 J0.0000 F20.00 
G02 X-1.0901 Y0.7576 Z-0.0350 I0.0270 J0.0000 F20.00 
G02 X-1.1441 Y0.7576 Z-0.0210 I-0.0270 J0.0000 F20.00 
G02 X-1.0901 Y0.7576 Z-0.0420 I0.0270 J0.0000 F20.00 
G02 X-1.1441 Y0.7576 Z-0.0245 I-0.0270 J0.0000 F20.00 
G02 X-1.0901 Y0.7576 Z-0.0490 I0.0270 J0.0000 F20.00 
G02 X-1.1441 Y0.7576 Z-0.0280 I-0.0270 J0.0000 F20.00 
G02 X-1.0901 Y0.7576 Z-0.0560 I0.0270 J0.0000 F20.00 
G02 X-1.1441 Y0.7576 Z-0.0315 I-0.0270 J0.0000 F20.00 
G02 X-1.0901 Y0.7576 Z-0.0630 I0.0270 J0.0000 F20.00 
G02 X-1.1441 Y0.7576 Z-0.0665 I-0.0270 J0.0000 F20.00 
G02 X-1.0901 Y0.7576 Z-0.0700 I0.0270 J0.0000 F20.00 
(last pass)
G01 Z-0.0700 F10.00 
G02 X-1.1441 Y0.7576 I-0.0270 J0.0000 F20.00 
G02 X-1.0901 Y0.7576 I0.0270 J0.0000 F20.00 
G01 Z0.1000 
(Bottom Drill End)
(End of all Drill Files)
(End of every bottom file)
(End of every file)
T01 
G00 Z0.5000 
M05
M02
