(.../john/src/pcbgcode/pcb-gcode.ulp)
(Copyright 2005 - 2012 by John Johnson)
(See readme.txt for licensing terms.)
(This file generated from the board:)
(.../docs/examples/04151_lcdi2c.brd)
(Current profile is .../pcb-gcode-3.6.2.4/profiles/generic.pp  )
(This file generated 8/12/22 1:47 PM)
(Settings from pcb-machine.h)
(spindle on time = 3.0000)
(spindle speed = 20000.0000)
(tool change at 0.0000 0.0000 1.0000 )
(feed rate xy = F0.00  )
(feed rate z  = F20.00 )
(Z Axis Settings)
(  High     Up        Down     Drill)
(0.5000 	0.1000 	-0.0070 	-0.0320 )
(Settings from pcb-defaults.h)
(isolate min = 0.0010)
(isolate max = 0.0200)
(isolate step = 0.0050)
(Generated top drill, bottom drill, )
(Unit of measure: inch)
(Beginning of every file)
(Beginning of every top file)
(Beginning of All Drill files)
(Top Drill Begin)
(Rack file: .../docs/examples/04151_lcdi2c.drl)
(Min Sub is the minimum hole size this tool was subbed for.)
(Max Sub is the maximum hole size this tool was subbed for.)
( Tool|       Size           |  Min Sub |  Max Sub |   Count )
( T01     0.813mm   0.0320in   0.0236in   0.1250in       61    THIS IS AN ENDMILL )
(Inch Mode)
G20
(Absolute Coordinates)
G90
S20000
G00 Z0.5000 
G00 X0.0000 Y0.0000 
M03
G04 P3.000000
(Tool Change Begin)
(Top Tool Change Begin)
M05
G00 Z1.0000 
M06 T01  ; 0.0320 
(Top Tool changed)
(Tool changed)
(Tool zero begin)
(Top Tool zero begin)
G01 Z0.0000 F20.00 
M06 
(Top Tool zero end)
(Tool zero end)
G00 Z0.1000 
M03
G04 P3.000000
(Top Tool Changed End)
(Tool Change End)
(Start milling a hole)
(X0.1500 Y0.1300, depth=-0.0320, tool_size=0.0320, hole_size=0.1250, step_size=0.0100)
G00 X0.1500 Y0.1300 
G01 Z0.0000 F10.00 
G01 Z-0.0070 F10.00 
G01 X0.1450 
G02 X0.1550 Y0.1300 I0.0050 J0.0000 F20.00 
G02 X0.1450 Y0.1300 I-0.0050 J0.0000 F20.00 
G01 X0.1400 
G02 X0.1600 Y0.1300 I0.0100 J0.0000 F20.00 
G02 X0.1400 Y0.1300 I-0.0100 J0.0000 F20.00 
G01 X0.1350 
G02 X0.1650 Y0.1300 I0.0150 J0.0000 F20.00 
G02 X0.1350 Y0.1300 I-0.0150 J0.0000 F20.00 
G01 X0.1300 
G02 X0.1700 Y0.1300 I0.0200 J0.0000 F20.00 
G02 X0.1300 Y0.1300 I-0.0200 J0.0000 F20.00 
G01 X0.1250 
G02 X0.1750 Y0.1300 I0.0250 J0.0000 F20.00 
G02 X0.1250 Y0.1300 I-0.0250 J0.0000 F20.00 
G01 X0.1200 
G02 X0.1800 Y0.1300 I0.0300 J0.0000 F20.00 
G02 X0.1200 Y0.1300 I-0.0300 J0.0000 F20.00 
G01 X0.1150 
G02 X0.1850 Y0.1300 I0.0350 J0.0000 F20.00 
G02 X0.1150 Y0.1300 I-0.0350 J0.0000 F20.00 
G01 X0.1100 
G02 X0.1900 Y0.1300 I0.0400 J0.0000 F20.00 
G02 X0.1100 Y0.1300 I-0.0400 J0.0000 F20.00 
G01 X0.1050 
G02 X0.1950 Y0.1300 I0.0450 J0.0000 F20.00 
G02 X0.1050 Y0.1300 I-0.0450 J0.0000 F20.00 
G01 X0.1035 
G02 X0.1965 Y0.1300 I0.0465 J0.0000 F20.00 
G02 X0.1035 Y0.1300 I-0.0465 J0.0000 F20.00 
G01 X0.1500 Y0.1300 
G01 Z-0.0140 F10.00 
G01 X0.1450 
G02 X0.1550 Y0.1300 I0.0050 J0.0000 F20.00 
G02 X0.1450 Y0.1300 I-0.0050 J0.0000 F20.00 
G01 X0.1400 
G02 X0.1600 Y0.1300 I0.0100 J0.0000 F20.00 
G02 X0.1400 Y0.1300 I-0.0100 J0.0000 F20.00 
G01 X0.1350 
G02 X0.1650 Y0.1300 I0.0150 J0.0000 F20.00 
G02 X0.1350 Y0.1300 I-0.0150 J0.0000 F20.00 
G01 X0.1300 
G02 X0.1700 Y0.1300 I0.0200 J0.0000 F20.00 
G02 X0.1300 Y0.1300 I-0.0200 J0.0000 F20.00 
G01 X0.1250 
G02 X0.1750 Y0.1300 I0.0250 J0.0000 F20.00 
G02 X0.1250 Y0.1300 I-0.0250 J0.0000 F20.00 
G01 X0.1200 
G02 X0.1800 Y0.1300 I0.0300 J0.0000 F20.00 
G02 X0.1200 Y0.1300 I-0.0300 J0.0000 F20.00 
G01 X0.1150 
G02 X0.1850 Y0.1300 I0.0350 J0.0000 F20.00 
G02 X0.1150 Y0.1300 I-0.0350 J0.0000 F20.00 
G01 X0.1100 
G02 X0.1900 Y0.1300 I0.0400 J0.0000 F20.00 
G02 X0.1100 Y0.1300 I-0.0400 J0.0000 F20.00 
G01 X0.1050 
G02 X0.1950 Y0.1300 I0.0450 J0.0000 F20.00 
G02 X0.1050 Y0.1300 I-0.0450 J0.0000 F20.00 
G01 X0.1035 
G02 X0.1965 Y0.1300 I0.0465 J0.0000 F20.00 
G02 X0.1035 Y0.1300 I-0.0465 J0.0000 F20.00 
G01 X0.1500 Y0.1300 
G01 Z-0.0210 F10.00 
G01 X0.1450 
G02 X0.1550 Y0.1300 I0.0050 J0.0000 F20.00 
G02 X0.1450 Y0.1300 I-0.0050 J0.0000 F20.00 
G01 X0.1400 
G02 X0.1600 Y0.1300 I0.0100 J0.0000 F20.00 
G02 X0.1400 Y0.1300 I-0.0100 J0.0000 F20.00 
G01 X0.1350 
G02 X0.1650 Y0.1300 I0.0150 J0.0000 F20.00 
G02 X0.1350 Y0.1300 I-0.0150 J0.0000 F20.00 
G01 X0.1300 
G02 X0.1700 Y0.1300 I0.0200 J0.0000 F20.00 
G02 X0.1300 Y0.1300 I-0.0200 J0.0000 F20.00 
G01 X0.1250 
G02 X0.1750 Y0.1300 I0.0250 J0.0000 F20.00 
G02 X0.1250 Y0.1300 I-0.0250 J0.0000 F20.00 
G01 X0.1200 
G02 X0.1800 Y0.1300 I0.0300 J0.0000 F20.00 
G02 X0.1200 Y0.1300 I-0.0300 J0.0000 F20.00 
G01 X0.1150 
G02 X0.1850 Y0.1300 I0.0350 J0.0000 F20.00 
G02 X0.1150 Y0.1300 I-0.0350 J0.0000 F20.00 
G01 X0.1100 
G02 X0.1900 Y0.1300 I0.0400 J0.0000 F20.00 
G02 X0.1100 Y0.1300 I-0.0400 J0.0000 F20.00 
G01 X0.1050 
G02 X0.1950 Y0.1300 I0.0450 J0.0000 F20.00 
G02 X0.1050 Y0.1300 I-0.0450 J0.0000 F20.00 
G01 X0.1035 
G02 X0.1965 Y0.1300 I0.0465 J0.0000 F20.00 
G02 X0.1035 Y0.1300 I-0.0465 J0.0000 F20.00 
G01 X0.1500 Y0.1300 
G01 Z-0.0280 F10.00 
G01 X0.1450 
G02 X0.1550 Y0.1300 I0.0050 J0.0000 F20.00 
G02 X0.1450 Y0.1300 I-0.0050 J0.0000 F20.00 
G01 X0.1400 
G02 X0.1600 Y0.1300 I0.0100 J0.0000 F20.00 
G02 X0.1400 Y0.1300 I-0.0100 J0.0000 F20.00 
G01 X0.1350 
G02 X0.1650 Y0.1300 I0.0150 J0.0000 F20.00 
G02 X0.1350 Y0.1300 I-0.0150 J0.0000 F20.00 
G01 X0.1300 
G02 X0.1700 Y0.1300 I0.0200 J0.0000 F20.00 
G02 X0.1300 Y0.1300 I-0.0200 J0.0000 F20.00 
G01 X0.1250 
G02 X0.1750 Y0.1300 I0.0250 J0.0000 F20.00 
G02 X0.1250 Y0.1300 I-0.0250 J0.0000 F20.00 
G01 X0.1200 
G02 X0.1800 Y0.1300 I0.0300 J0.0000 F20.00 
G02 X0.1200 Y0.1300 I-0.0300 J0.0000 F20.00 
G01 X0.1150 
G02 X0.1850 Y0.1300 I0.0350 J0.0000 F20.00 
G02 X0.1150 Y0.1300 I-0.0350 J0.0000 F20.00 
G01 X0.1100 
G02 X0.1900 Y0.1300 I0.0400 J0.0000 F20.00 
G02 X0.1100 Y0.1300 I-0.0400 J0.0000 F20.00 
G01 X0.1050 
G02 X0.1950 Y0.1300 I0.0450 J0.0000 F20.00 
G02 X0.1050 Y0.1300 I-0.0450 J0.0000 F20.00 
G01 X0.1035 
G02 X0.1965 Y0.1300 I0.0465 J0.0000 F20.00 
G02 X0.1035 Y0.1300 I-0.0465 J0.0000 F20.00 
G01 X0.1500 Y0.1300 
G01 Z-0.0320 F10.00 
G01 X0.1450 
G02 X0.1550 Y0.1300 I0.0050 J0.0000 F20.00 
G02 X0.1450 Y0.1300 I-0.0050 J0.0000 F20.00 
G01 X0.1400 
G02 X0.1600 Y0.1300 I0.0100 J0.0000 F20.00 
G02 X0.1400 Y0.1300 I-0.0100 J0.0000 F20.00 
G01 X0.1350 
G02 X0.1650 Y0.1300 I0.0150 J0.0000 F20.00 
G02 X0.1350 Y0.1300 I-0.0150 J0.0000 F20.00 
G01 X0.1300 
G02 X0.1700 Y0.1300 I0.0200 J0.0000 F20.00 
G02 X0.1300 Y0.1300 I-0.0200 J0.0000 F20.00 
G01 X0.1250 
G02 X0.1750 Y0.1300 I0.0250 J0.0000 F20.00 
G02 X0.1250 Y0.1300 I-0.0250 J0.0000 F20.00 
G01 X0.1200 
G02 X0.1800 Y0.1300 I0.0300 J0.0000 F20.00 
G02 X0.1200 Y0.1300 I-0.0300 J0.0000 F20.00 
G01 X0.1150 
G02 X0.1850 Y0.1300 I0.0350 J0.0000 F20.00 
G02 X0.1150 Y0.1300 I-0.0350 J0.0000 F20.00 
G01 X0.1100 
G02 X0.1900 Y0.1300 I0.0400 J0.0000 F20.00 
G02 X0.1100 Y0.1300 I-0.0400 J0.0000 F20.00 
G01 X0.1050 
G02 X0.1950 Y0.1300 I0.0450 J0.0000 F20.00 
G02 X0.1050 Y0.1300 I-0.0450 J0.0000 F20.00 
G01 X0.1035 
G02 X0.1965 Y0.1300 I0.0465 J0.0000 F20.00 
G02 X0.1035 Y0.1300 I-0.0465 J0.0000 F20.00 
G01 X0.1500 Y0.1300 
G01 Z0.1000 
(Start milling a hole)
(X0.1900 Y0.4000, depth=-0.0320, tool_size=0.0320, hole_size=0.0400, step_size=0.0100)
G00 X0.1900 Y0.4000 
G01 Z0.0000 F10.00 
G01 Z-0.0070 F10.00 
G01 X0.1860 
G02 X0.1940 Y0.4000 I0.0040 J0.0000 F20.00 
G02 X0.1860 Y0.4000 I-0.0040 J0.0000 F20.00 
G01 X0.1900 Y0.4000 
G01 Z-0.0140 F10.00 
G01 X0.1860 
G02 X0.1940 Y0.4000 I0.0040 J0.0000 F20.00 
G02 X0.1860 Y0.4000 I-0.0040 J0.0000 F20.00 
G01 X0.1900 Y0.4000 
G01 Z-0.0210 F10.00 
G01 X0.1860 
G02 X0.1940 Y0.4000 I0.0040 J0.0000 F20.00 
G02 X0.1860 Y0.4000 I-0.0040 J0.0000 F20.00 
G01 X0.1900 Y0.4000 
G01 Z-0.0280 F10.00 
G01 X0.1860 
G02 X0.1940 Y0.4000 I0.0040 J0.0000 F20.00 
G02 X0.1860 Y0.4000 I-0.0040 J0.0000 F20.00 
G01 X0.1900 Y0.4000 
G01 Z-0.0320 F10.00 
G01 X0.1860 
G02 X0.1940 Y0.4000 I0.0040 J0.0000 F20.00 
G02 X0.1860 Y0.4000 I-0.0040 J0.0000 F20.00 
G01 X0.1900 Y0.4000 
G01 Z0.1000 
(Start milling a hole)
(X0.1900 Y0.5000, depth=-0.0320, tool_size=0.0320, hole_size=0.0400, step_size=0.0100)
G00 X0.1900 Y0.5000 
G01 Z0.0000 F10.00 
G01 Z-0.0070 F10.00 
G01 X0.1860 
G02 X0.1940 Y0.5000 I0.0040 J0.0000 F20.00 
G02 X0.1860 Y0.5000 I-0.0040 J0.0000 F20.00 
G01 X0.1900 Y0.5000 
G01 Z-0.0140 F10.00 
G01 X0.1860 
G02 X0.1940 Y0.5000 I0.0040 J0.0000 F20.00 
G02 X0.1860 Y0.5000 I-0.0040 J0.0000 F20.00 
G01 X0.1900 Y0.5000 
G01 Z-0.0210 F10.00 
G01 X0.1860 
G02 X0.1940 Y0.5000 I0.0040 J0.0000 F20.00 
G02 X0.1860 Y0.5000 I-0.0040 J0.0000 F20.00 
G01 X0.1900 Y0.5000 
G01 Z-0.0280 F10.00 
G01 X0.1860 
G02 X0.1940 Y0.5000 I0.0040 J0.0000 F20.00 
G02 X0.1860 Y0.5000 I-0.0040 J0.0000 F20.00 
G01 X0.1900 Y0.5000 
G01 Z-0.0320 F10.00 
G01 X0.1860 
G02 X0.1940 Y0.5000 I0.0040 J0.0000 F20.00 
G02 X0.1860 Y0.5000 I-0.0040 J0.0000 F20.00 
G01 X0.1900 Y0.5000 
G01 Z0.1000 
(Start milling a hole)
(X0.1900 Y0.6000, depth=-0.0320, tool_size=0.0320, hole_size=0.0400, step_size=0.0100)
G00 X0.1900 Y0.6000 
G01 Z0.0000 F10.00 
G01 Z-0.0070 F10.00 
G01 X0.1860 
G02 X0.1940 Y0.6000 I0.0040 J0.0000 F20.00 
G02 X0.1860 Y0.6000 I-0.0040 J0.0000 F20.00 
G01 X0.1900 Y0.6000 
G01 Z-0.0140 F10.00 
G01 X0.1860 
G02 X0.1940 Y0.6000 I0.0040 J0.0000 F20.00 
G02 X0.1860 Y0.6000 I-0.0040 J0.0000 F20.00 
G01 X0.1900 Y0.6000 
G01 Z-0.0210 F10.00 
G01 X0.1860 
G02 X0.1940 Y0.6000 I0.0040 J0.0000 F20.00 
G02 X0.1860 Y0.6000 I-0.0040 J0.0000 F20.00 
G01 X0.1900 Y0.6000 
G01 Z-0.0280 F10.00 
G01 X0.1860 
G02 X0.1940 Y0.6000 I0.0040 J0.0000 F20.00 
G02 X0.1860 Y0.6000 I-0.0040 J0.0000 F20.00 
G01 X0.1900 Y0.6000 
G01 Z-0.0320 F10.00 
G01 X0.1860 
G02 X0.1940 Y0.6000 I0.0040 J0.0000 F20.00 
G02 X0.1860 Y0.6000 I-0.0040 J0.0000 F20.00 
G01 X0.1900 Y0.6000 
G01 Z0.1000 
(Start milling a hole)
(X0.1900 Y0.7000, depth=-0.0320, tool_size=0.0320, hole_size=0.0400, step_size=0.0100)
G00 X0.1900 Y0.7000 
G01 Z0.0000 F10.00 
G01 Z-0.0070 F10.00 
G01 X0.1860 
G02 X0.1940 Y0.7000 I0.0040 J0.0000 F20.00 
G02 X0.1860 Y0.7000 I-0.0040 J0.0000 F20.00 
G01 X0.1900 Y0.7000 
G01 Z-0.0140 F10.00 
G01 X0.1860 
G02 X0.1940 Y0.7000 I0.0040 J0.0000 F20.00 
G02 X0.1860 Y0.7000 I-0.0040 J0.0000 F20.00 
G01 X0.1900 Y0.7000 
G01 Z-0.0210 F10.00 
G01 X0.1860 
G02 X0.1940 Y0.7000 I0.0040 J0.0000 F20.00 
G02 X0.1860 Y0.7000 I-0.0040 J0.0000 F20.00 
G01 X0.1900 Y0.7000 
G01 Z-0.0280 F10.00 
G01 X0.1860 
G02 X0.1940 Y0.7000 I0.0040 J0.0000 F20.00 
G02 X0.1860 Y0.7000 I-0.0040 J0.0000 F20.00 
G01 X0.1900 Y0.7000 
G01 Z-0.0320 F10.00 
G01 X0.1860 
G02 X0.1940 Y0.7000 I0.0040 J0.0000 F20.00 
G02 X0.1860 Y0.7000 I-0.0040 J0.0000 F20.00 
G01 X0.1900 Y0.7000 
G01 Z0.1000 
(Start milling a hole)
(X0.2900 Y0.7000, depth=-0.0320, tool_size=0.0320, hole_size=0.0400, step_size=0.0100)
G00 X0.2900 Y0.7000 
G01 Z0.0000 F10.00 
G01 Z-0.0070 F10.00 
G01 X0.2860 
G02 X0.2940 Y0.7000 I0.0040 J0.0000 F20.00 
G02 X0.2860 Y0.7000 I-0.0040 J0.0000 F20.00 
G01 X0.2900 Y0.7000 
G01 Z-0.0140 F10.00 
G01 X0.2860 
G02 X0.2940 Y0.7000 I0.0040 J0.0000 F20.00 
G02 X0.2860 Y0.7000 I-0.0040 J0.0000 F20.00 
G01 X0.2900 Y0.7000 
G01 Z-0.0210 F10.00 
G01 X0.2860 
G02 X0.2940 Y0.7000 I0.0040 J0.0000 F20.00 
G02 X0.2860 Y0.7000 I-0.0040 J0.0000 F20.00 
G01 X0.2900 Y0.7000 
G01 Z-0.0280 F10.00 
G01 X0.2860 
G02 X0.2940 Y0.7000 I0.0040 J0.0000 F20.00 
G02 X0.2860 Y0.7000 I-0.0040 J0.0000 F20.00 
G01 X0.2900 Y0.7000 
G01 Z-0.0320 F10.00 
G01 X0.2860 
G02 X0.2940 Y0.7000 I0.0040 J0.0000 F20.00 
G02 X0.2860 Y0.7000 I-0.0040 J0.0000 F20.00 
G01 X0.2900 Y0.7000 
G01 Z0.1000 
(Start milling a hole)
(X0.2900 Y0.6000, depth=-0.0320, tool_size=0.0320, hole_size=0.0400, step_size=0.0100)
G00 X0.2900 Y0.6000 
G01 Z0.0000 F10.00 
G01 Z-0.0070 F10.00 
G01 X0.2860 
G02 X0.2940 Y0.6000 I0.0040 J0.0000 F20.00 
G02 X0.2860 Y0.6000 I-0.0040 J0.0000 F20.00 
G01 X0.2900 Y0.6000 
G01 Z-0.0140 F10.00 
G01 X0.2860 
G02 X0.2940 Y0.6000 I0.0040 J0.0000 F20.00 
G02 X0.2860 Y0.6000 I-0.0040 J0.0000 F20.00 
G01 X0.2900 Y0.6000 
G01 Z-0.0210 F10.00 
G01 X0.2860 
G02 X0.2940 Y0.6000 I0.0040 J0.0000 F20.00 
G02 X0.2860 Y0.6000 I-0.0040 J0.0000 F20.00 
G01 X0.2900 Y0.6000 
G01 Z-0.0280 F10.00 
G01 X0.2860 
G02 X0.2940 Y0.6000 I0.0040 J0.0000 F20.00 
G02 X0.2860 Y0.6000 I-0.0040 J0.0000 F20.00 
G01 X0.2900 Y0.6000 
G01 Z-0.0320 F10.00 
G01 X0.2860 
G02 X0.2940 Y0.6000 I0.0040 J0.0000 F20.00 
G02 X0.2860 Y0.6000 I-0.0040 J0.0000 F20.00 
G01 X0.2900 Y0.6000 
G01 Z0.1000 
(Start milling a hole)
(X0.2900 Y0.5000, depth=-0.0320, tool_size=0.0320, hole_size=0.0400, step_size=0.0100)
G00 X0.2900 Y0.5000 
G01 Z0.0000 F10.00 
G01 Z-0.0070 F10.00 
G01 X0.2860 
G02 X0.2940 Y0.5000 I0.0040 J0.0000 F20.00 
G02 X0.2860 Y0.5000 I-0.0040 J0.0000 F20.00 
G01 X0.2900 Y0.5000 
G01 Z-0.0140 F10.00 
G01 X0.2860 
G02 X0.2940 Y0.5000 I0.0040 J0.0000 F20.00 
G02 X0.2860 Y0.5000 I-0.0040 J0.0000 F20.00 
G01 X0.2900 Y0.5000 
G01 Z-0.0210 F10.00 
G01 X0.2860 
G02 X0.2940 Y0.5000 I0.0040 J0.0000 F20.00 
G02 X0.2860 Y0.5000 I-0.0040 J0.0000 F20.00 
G01 X0.2900 Y0.5000 
G01 Z-0.0280 F10.00 
G01 X0.2860 
G02 X0.2940 Y0.5000 I0.0040 J0.0000 F20.00 
G02 X0.2860 Y0.5000 I-0.0040 J0.0000 F20.00 
G01 X0.2900 Y0.5000 
G01 Z-0.0320 F10.00 
G01 X0.2860 
G02 X0.2940 Y0.5000 I0.0040 J0.0000 F20.00 
G02 X0.2860 Y0.5000 I-0.0040 J0.0000 F20.00 
G01 X0.2900 Y0.5000 
G01 Z0.1000 
(Start milling a hole)
(X0.2900 Y0.4000, depth=-0.0320, tool_size=0.0320, hole_size=0.0400, step_size=0.0100)
G00 X0.2900 Y0.4000 
G01 Z0.0000 F10.00 
G01 Z-0.0070 F10.00 
G01 X0.2860 
G02 X0.2940 Y0.4000 I0.0040 J0.0000 F20.00 
G02 X0.2860 Y0.4000 I-0.0040 J0.0000 F20.00 
G01 X0.2900 Y0.4000 
G01 Z-0.0140 F10.00 
G01 X0.2860 
G02 X0.2940 Y0.4000 I0.0040 J0.0000 F20.00 
G02 X0.2860 Y0.4000 I-0.0040 J0.0000 F20.00 
G01 X0.2900 Y0.4000 
G01 Z-0.0210 F10.00 
G01 X0.2860 
G02 X0.2940 Y0.4000 I0.0040 J0.0000 F20.00 
G02 X0.2860 Y0.4000 I-0.0040 J0.0000 F20.00 
G01 X0.2900 Y0.4000 
G01 Z-0.0280 F10.00 
G01 X0.2860 
G02 X0.2940 Y0.4000 I0.0040 J0.0000 F20.00 
G02 X0.2860 Y0.4000 I-0.0040 J0.0000 F20.00 
G01 X0.2900 Y0.4000 
G01 Z-0.0320 F10.00 
G01 X0.2860 
G02 X0.2940 Y0.4000 I0.0040 J0.0000 F20.00 
G02 X0.2860 Y0.4000 I-0.0040 J0.0000 F20.00 
G01 X0.2900 Y0.4000 
G01 Z0.1000 
(Start milling a hole)
(X0.3900 Y0.5000, depth=-0.0320, tool_size=0.0320, hole_size=0.0236, step_size=0.0100)
G00 X0.3900 Y0.5000 
G01 Z0.0000 F10.00 
G01 Z-0.0070 F10.00 
G01 Z-0.0140 F10.00 
G01 Z-0.0210 F10.00 
G01 Z-0.0280 F10.00 
G01 Z-0.0320 F10.00 
G01 Z0.1000 
(Start milling a hole)
(X0.5200 Y0.5250, depth=-0.0320, tool_size=0.0320, hole_size=0.0236, step_size=0.0100)
G00 X0.5200 Y0.5250 
G01 Z0.0000 F10.00 
G01 Z-0.0070 F10.00 
G01 Z-0.0140 F10.00 
G01 Z-0.0210 F10.00 
G01 Z-0.0280 F10.00 
G01 Z-0.0320 F10.00 
G01 Z0.1000 
(Start milling a hole)
(X0.5029 Y0.7576, depth=-0.0320, tool_size=0.0320, hole_size=0.0860, step_size=0.0100)
G00 X0.5029 Y0.7576 
G01 Z0.0000 F10.00 
G01 Z-0.0070 F10.00 
G01 X0.4979 
G02 X0.5079 Y0.7576 I0.0050 J0.0000 F20.00 
G02 X0.4979 Y0.7576 I-0.0050 J0.0000 F20.00 
G01 X0.4929 
G02 X0.5129 Y0.7576 I0.0100 J0.0000 F20.00 
G02 X0.4929 Y0.7576 I-0.0100 J0.0000 F20.00 
G01 X0.4879 
G02 X0.5179 Y0.7576 I0.0150 J0.0000 F20.00 
G02 X0.4879 Y0.7576 I-0.0150 J0.0000 F20.00 
G01 X0.4829 
G02 X0.5229 Y0.7576 I0.0200 J0.0000 F20.00 
G02 X0.4829 Y0.7576 I-0.0200 J0.0000 F20.00 
G01 X0.4779 
G02 X0.5279 Y0.7576 I0.0250 J0.0000 F20.00 
G02 X0.4779 Y0.7576 I-0.0250 J0.0000 F20.00 
G01 X0.4759 
G02 X0.5299 Y0.7576 I0.0270 J0.0000 F20.00 
G02 X0.4759 Y0.7576 I-0.0270 J0.0000 F20.00 
G01 X0.5029 Y0.7576 
G01 Z-0.0140 F10.00 
G01 X0.4979 
G02 X0.5079 Y0.7576 I0.0050 J0.0000 F20.00 
G02 X0.4979 Y0.7576 I-0.0050 J0.0000 F20.00 
G01 X0.4929 
G02 X0.5129 Y0.7576 I0.0100 J0.0000 F20.00 
G02 X0.4929 Y0.7576 I-0.0100 J0.0000 F20.00 
G01 X0.4879 
G02 X0.5179 Y0.7576 I0.0150 J0.0000 F20.00 
G02 X0.4879 Y0.7576 I-0.0150 J0.0000 F20.00 
G01 X0.4829 
G02 X0.5229 Y0.7576 I0.0200 J0.0000 F20.00 
G02 X0.4829 Y0.7576 I-0.0200 J0.0000 F20.00 
G01 X0.4779 
G02 X0.5279 Y0.7576 I0.0250 J0.0000 F20.00 
G02 X0.4779 Y0.7576 I-0.0250 J0.0000 F20.00 
G01 X0.4759 
G02 X0.5299 Y0.7576 I0.0270 J0.0000 F20.00 
G02 X0.4759 Y0.7576 I-0.0270 J0.0000 F20.00 
G01 X0.5029 Y0.7576 
G01 Z-0.0210 F10.00 
G01 X0.4979 
G02 X0.5079 Y0.7576 I0.0050 J0.0000 F20.00 
G02 X0.4979 Y0.7576 I-0.0050 J0.0000 F20.00 
G01 X0.4929 
G02 X0.5129 Y0.7576 I0.0100 J0.0000 F20.00 
G02 X0.4929 Y0.7576 I-0.0100 J0.0000 F20.00 
G01 X0.4879 
G02 X0.5179 Y0.7576 I0.0150 J0.0000 F20.00 
G02 X0.4879 Y0.7576 I-0.0150 J0.0000 F20.00 
G01 X0.4829 
G02 X0.5229 Y0.7576 I0.0200 J0.0000 F20.00 
G02 X0.4829 Y0.7576 I-0.0200 J0.0000 F20.00 
G01 X0.4779 
G02 X0.5279 Y0.7576 I0.0250 J0.0000 F20.00 
G02 X0.4779 Y0.7576 I-0.0250 J0.0000 F20.00 
G01 X0.4759 
G02 X0.5299 Y0.7576 I0.0270 J0.0000 F20.00 
G02 X0.4759 Y0.7576 I-0.0270 J0.0000 F20.00 
G01 X0.5029 Y0.7576 
G01 Z-0.0280 F10.00 
G01 X0.4979 
G02 X0.5079 Y0.7576 I0.0050 J0.0000 F20.00 
G02 X0.4979 Y0.7576 I-0.0050 J0.0000 F20.00 
G01 X0.4929 
G02 X0.5129 Y0.7576 I0.0100 J0.0000 F20.00 
G02 X0.4929 Y0.7576 I-0.0100 J0.0000 F20.00 
G01 X0.4879 
G02 X0.5179 Y0.7576 I0.0150 J0.0000 F20.00 
G02 X0.4879 Y0.7576 I-0.0150 J0.0000 F20.00 
G01 X0.4829 
G02 X0.5229 Y0.7576 I0.0200 J0.0000 F20.00 
G02 X0.4829 Y0.7576 I-0.0200 J0.0000 F20.00 
G01 X0.4779 
G02 X0.5279 Y0.7576 I0.0250 J0.0000 F20.00 
G02 X0.4779 Y0.7576 I-0.0250 J0.0000 F20.00 
G01 X0.4759 
G02 X0.5299 Y0.7576 I0.0270 J0.0000 F20.00 
G02 X0.4759 Y0.7576 I-0.0270 J0.0000 F20.00 
G01 X0.5029 Y0.7576 
G01 Z-0.0320 F10.00 
G01 X0.4979 
G02 X0.5079 Y0.7576 I0.0050 J0.0000 F20.00 
G02 X0.4979 Y0.7576 I-0.0050 J0.0000 F20.00 
G01 X0.4929 
G02 X0.5129 Y0.7576 I0.0100 J0.0000 F20.00 
G02 X0.4929 Y0.7576 I-0.0100 J0.0000 F20.00 
G01 X0.4879 
G02 X0.5179 Y0.7576 I0.0150 J0.0000 F20.00 
G02 X0.4879 Y0.7576 I-0.0150 J0.0000 F20.00 
G01 X0.4829 
G02 X0.5229 Y0.7576 I0.0200 J0.0000 F20.00 
G02 X0.4829 Y0.7576 I-0.0200 J0.0000 F20.00 
G01 X0.4779 
G02 X0.5279 Y0.7576 I0.0250 J0.0000 F20.00 
G02 X0.4779 Y0.7576 I-0.0250 J0.0000 F20.00 
G01 X0.4759 
G02 X0.5299 Y0.7576 I0.0270 J0.0000 F20.00 
G02 X0.4759 Y0.7576 I-0.0270 J0.0000 F20.00 
G01 X0.5029 Y0.7576 
G01 Z0.1000 
(Start milling a hole)
(X0.4000 Y0.9000, depth=-0.0320, tool_size=0.0320, hole_size=0.0236, step_size=0.0100)
G00 X0.4000 Y0.9000 
G01 Z0.0000 F10.00 
G01 Z-0.0070 F10.00 
G01 Z-0.0140 F10.00 
G01 Z-0.0210 F10.00 
G01 Z-0.0280 F10.00 
G01 Z-0.0320 F10.00 
G01 Z0.1000 
(Start milling a hole)
(X0.2900 Y0.9000, depth=-0.0320, tool_size=0.0320, hole_size=0.0400, step_size=0.0100)
G00 X0.2900 Y0.9000 
G01 Z0.0000 F10.00 
G01 Z-0.0070 F10.00 
G01 X0.2860 
G02 X0.2940 Y0.9000 I0.0040 J0.0000 F20.00 
G02 X0.2860 Y0.9000 I-0.0040 J0.0000 F20.00 
G01 X0.2900 Y0.9000 
G01 Z-0.0140 F10.00 
G01 X0.2860 
G02 X0.2940 Y0.9000 I0.0040 J0.0000 F20.00 
G02 X0.2860 Y0.9000 I-0.0040 J0.0000 F20.00 
G01 X0.2900 Y0.9000 
G01 Z-0.0210 F10.00 
G01 X0.2860 
G02 X0.2940 Y0.9000 I0.0040 J0.0000 F20.00 
G02 X0.2860 Y0.9000 I-0.0040 J0.0000 F20.00 
G01 X0.2900 Y0.9000 
G01 Z-0.0280 F10.00 
G01 X0.2860 
G02 X0.2940 Y0.9000 I0.0040 J0.0000 F20.00 
G02 X0.2860 Y0.9000 I-0.0040 J0.0000 F20.00 
G01 X0.2900 Y0.9000 
G01 Z-0.0320 F10.00 
G01 X0.2860 
G02 X0.2940 Y0.9000 I0.0040 J0.0000 F20.00 
G02 X0.2860 Y0.9000 I-0.0040 J0.0000 F20.00 
G01 X0.2900 Y0.9000 
G01 Z0.1000 
(Start milling a hole)
(X0.1900 Y0.9000, depth=-0.0320, tool_size=0.0320, hole_size=0.0400, step_size=0.0100)
G00 X0.1900 Y0.9000 
G01 Z0.0000 F10.00 
G01 Z-0.0070 F10.00 
G01 X0.1860 
G02 X0.1940 Y0.9000 I0.0040 J0.0000 F20.00 
G02 X0.1860 Y0.9000 I-0.0040 J0.0000 F20.00 
G01 X0.1900 Y0.9000 
G01 Z-0.0140 F10.00 
G01 X0.1860 
G02 X0.1940 Y0.9000 I0.0040 J0.0000 F20.00 
G02 X0.1860 Y0.9000 I-0.0040 J0.0000 F20.00 
G01 X0.1900 Y0.9000 
G01 Z-0.0210 F10.00 
G01 X0.1860 
G02 X0.1940 Y0.9000 I0.0040 J0.0000 F20.00 
G02 X0.1860 Y0.9000 I-0.0040 J0.0000 F20.00 
G01 X0.1900 Y0.9000 
G01 Z-0.0280 F10.00 
G01 X0.1860 
G02 X0.1940 Y0.9000 I0.0040 J0.0000 F20.00 
G02 X0.1860 Y0.9000 I-0.0040 J0.0000 F20.00 
G01 X0.1900 Y0.9000 
G01 Z-0.0320 F10.00 
G01 X0.1860 
G02 X0.1940 Y0.9000 I0.0040 J0.0000 F20.00 
G02 X0.1860 Y0.9000 I-0.0040 J0.0000 F20.00 
G01 X0.1900 Y0.9000 
G01 Z0.1000 
(Start milling a hole)
(X0.1900 Y1.0000, depth=-0.0320, tool_size=0.0320, hole_size=0.0400, step_size=0.0100)
G00 X0.1900 Y1.0000 
G01 Z0.0000 F10.00 
G01 Z-0.0070 F10.00 
G01 X0.1860 
G02 X0.1940 Y1.0000 I0.0040 J0.0000 F20.00 
G02 X0.1860 Y1.0000 I-0.0040 J0.0000 F20.00 
G01 X0.1900 Y1.0000 
G01 Z-0.0140 F10.00 
G01 X0.1860 
G02 X0.1940 Y1.0000 I0.0040 J0.0000 F20.00 
G02 X0.1860 Y1.0000 I-0.0040 J0.0000 F20.00 
G01 X0.1900 Y1.0000 
G01 Z-0.0210 F10.00 
G01 X0.1860 
G02 X0.1940 Y1.0000 I0.0040 J0.0000 F20.00 
G02 X0.1860 Y1.0000 I-0.0040 J0.0000 F20.00 
G01 X0.1900 Y1.0000 
G01 Z-0.0280 F10.00 
G01 X0.1860 
G02 X0.1940 Y1.0000 I0.0040 J0.0000 F20.00 
G02 X0.1860 Y1.0000 I-0.0040 J0.0000 F20.00 
G01 X0.1900 Y1.0000 
G01 Z-0.0320 F10.00 
G01 X0.1860 
G02 X0.1940 Y1.0000 I0.0040 J0.0000 F20.00 
G02 X0.1860 Y1.0000 I-0.0040 J0.0000 F20.00 
G01 X0.1900 Y1.0000 
G01 Z0.1000 
(Start milling a hole)
(X0.2900 Y1.0000, depth=-0.0320, tool_size=0.0320, hole_size=0.0400, step_size=0.0100)
G00 X0.2900 Y1.0000 
G01 Z0.0000 F10.00 
G01 Z-0.0070 F10.00 
G01 X0.2860 
G02 X0.2940 Y1.0000 I0.0040 J0.0000 F20.00 
G02 X0.2860 Y1.0000 I-0.0040 J0.0000 F20.00 
G01 X0.2900 Y1.0000 
G01 Z-0.0140 F10.00 
G01 X0.2860 
G02 X0.2940 Y1.0000 I0.0040 J0.0000 F20.00 
G02 X0.2860 Y1.0000 I-0.0040 J0.0000 F20.00 
G01 X0.2900 Y1.0000 
G01 Z-0.0210 F10.00 
G01 X0.2860 
G02 X0.2940 Y1.0000 I0.0040 J0.0000 F20.00 
G02 X0.2860 Y1.0000 I-0.0040 J0.0000 F20.00 
G01 X0.2900 Y1.0000 
G01 Z-0.0280 F10.00 
G01 X0.2860 
G02 X0.2940 Y1.0000 I0.0040 J0.0000 F20.00 
G02 X0.2860 Y1.0000 I-0.0040 J0.0000 F20.00 
G01 X0.2900 Y1.0000 
G01 Z-0.0320 F10.00 
G01 X0.2860 
G02 X0.2940 Y1.0000 I0.0040 J0.0000 F20.00 
G02 X0.2860 Y1.0000 I-0.0040 J0.0000 F20.00 
G01 X0.2900 Y1.0000 
G01 Z0.1000 
(Start milling a hole)
(X0.2900 Y0.8000, depth=-0.0320, tool_size=0.0320, hole_size=0.0400, step_size=0.0100)
G00 X0.2900 Y0.8000 
G01 Z0.0000 F10.00 
G01 Z-0.0070 F10.00 
G01 X0.2860 
G02 X0.2940 Y0.8000 I0.0040 J0.0000 F20.00 
G02 X0.2860 Y0.8000 I-0.0040 J0.0000 F20.00 
G01 X0.2900 Y0.8000 
G01 Z-0.0140 F10.00 
G01 X0.2860 
G02 X0.2940 Y0.8000 I0.0040 J0.0000 F20.00 
G02 X0.2860 Y0.8000 I-0.0040 J0.0000 F20.00 
G01 X0.2900 Y0.8000 
G01 Z-0.0210 F10.00 
G01 X0.2860 
G02 X0.2940 Y0.8000 I0.0040 J0.0000 F20.00 
G02 X0.2860 Y0.8000 I-0.0040 J0.0000 F20.00 
G01 X0.2900 Y0.8000 
G01 Z-0.0280 F10.00 
G01 X0.2860 
G02 X0.2940 Y0.8000 I0.0040 J0.0000 F20.00 
G02 X0.2860 Y0.8000 I-0.0040 J0.0000 F20.00 
G01 X0.2900 Y0.8000 
G01 Z-0.0320 F10.00 
G01 X0.2860 
G02 X0.2940 Y0.8000 I0.0040 J0.0000 F20.00 
G02 X0.2860 Y0.8000 I-0.0040 J0.0000 F20.00 
G01 X0.2900 Y0.8000 
G01 Z0.1000 
(Start milling a hole)
(X0.1900 Y0.8000, depth=-0.0320, tool_size=0.0320, hole_size=0.0400, step_size=0.0100)
G00 X0.1900 Y0.8000 
G01 Z0.0000 F10.00 
G01 Z-0.0070 F10.00 
G01 X0.1860 
G02 X0.1940 Y0.8000 I0.0040 J0.0000 F20.00 
G02 X0.1860 Y0.8000 I-0.0040 J0.0000 F20.00 
G01 X0.1900 Y0.8000 
G01 Z-0.0140 F10.00 
G01 X0.1860 
G02 X0.1940 Y0.8000 I0.0040 J0.0000 F20.00 
G02 X0.1860 Y0.8000 I-0.0040 J0.0000 F20.00 
G01 X0.1900 Y0.8000 
G01 Z-0.0210 F10.00 
G01 X0.1860 
G02 X0.1940 Y0.8000 I0.0040 J0.0000 F20.00 
G02 X0.1860 Y0.8000 I-0.0040 J0.0000 F20.00 
G01 X0.1900 Y0.8000 
G01 Z-0.0280 F10.00 
G01 X0.1860 
G02 X0.1940 Y0.8000 I0.0040 J0.0000 F20.00 
G02 X0.1860 Y0.8000 I-0.0040 J0.0000 F20.00 
G01 X0.1900 Y0.8000 
G01 Z-0.0320 F10.00 
G01 X0.1860 
G02 X0.1940 Y0.8000 I0.0040 J0.0000 F20.00 
G02 X0.1860 Y0.8000 I-0.0040 J0.0000 F20.00 
G01 X0.1900 Y0.8000 
G01 Z0.1000 
(Start milling a hole)
(X0.5100 Y0.9750, depth=-0.0320, tool_size=0.0320, hole_size=0.0236, step_size=0.0100)
G00 X0.5100 Y0.9750 
G01 Z0.0000 F10.00 
G01 Z-0.0070 F10.00 
G01 Z-0.0140 F10.00 
G01 Z-0.0210 F10.00 
G01 Z-0.0280 F10.00 
G01 Z-0.0320 F10.00 
G01 Z0.1000 
(Start milling a hole)
(X0.6800 Y1.0650, depth=-0.0320, tool_size=0.0320, hole_size=0.0236, step_size=0.0100)
G00 X0.6800 Y1.0650 
G01 Z0.0000 F10.00 
G01 Z-0.0070 F10.00 
G01 Z-0.0140 F10.00 
G01 Z-0.0210 F10.00 
G01 Z-0.0280 F10.00 
G01 Z-0.0320 F10.00 
G01 Z0.1000 
(Start milling a hole)
(X0.8350 Y1.1350, depth=-0.0320, tool_size=0.0320, hole_size=0.0320, step_size=0.0100)
G00 X0.8350 Y1.1350 
G01 Z0.0000 F10.00 
G01 Z-0.0070 F10.00 
G01 Z-0.0140 F10.00 
G01 Z-0.0210 F10.00 
G01 Z-0.0280 F10.00 
G01 Z-0.0320 F10.00 
G01 Z0.1000 
(Start milling a hole)
(X0.8350 Y1.2350, depth=-0.0320, tool_size=0.0320, hole_size=0.0320, step_size=0.0100)
G00 X0.8350 Y1.2350 
G01 Z0.0000 F10.00 
G01 Z-0.0070 F10.00 
G01 Z-0.0140 F10.00 
G01 Z-0.0210 F10.00 
G01 Z-0.0280 F10.00 
G01 Z-0.0320 F10.00 
G01 Z0.1000 
(Start milling a hole)
(X1.0200 Y1.1550, depth=-0.0320, tool_size=0.0320, hole_size=0.0320, step_size=0.0100)
G00 X1.0200 Y1.1550 
G01 Z0.0000 F10.00 
G01 Z-0.0070 F10.00 
G01 Z-0.0140 F10.00 
G01 Z-0.0210 F10.00 
G01 Z-0.0280 F10.00 
G01 Z-0.0320 F10.00 
G01 Z0.1000 
(Start milling a hole)
(X1.0700 Y1.2300, depth=-0.0320, tool_size=0.0320, hole_size=0.0320, step_size=0.0100)
G00 X1.0700 Y1.2300 
G01 Z0.0000 F10.00 
G01 Z-0.0070 F10.00 
G01 Z-0.0140 F10.00 
G01 Z-0.0210 F10.00 
G01 Z-0.0280 F10.00 
G01 Z-0.0320 F10.00 
G01 Z0.1000 
(Start milling a hole)
(X1.1200 Y1.1550, depth=-0.0320, tool_size=0.0320, hole_size=0.0320, step_size=0.0100)
G00 X1.1200 Y1.1550 
G01 Z0.0000 F10.00 
G01 Z-0.0070 F10.00 
G01 Z-0.0140 F10.00 
G01 Z-0.0210 F10.00 
G01 Z-0.0280 F10.00 
G01 Z-0.0320 F10.00 
G01 Z0.1000 
(Start milling a hole)
(X1.0200 Y1.0600, depth=-0.0320, tool_size=0.0320, hole_size=0.0236, step_size=0.0100)
G00 X1.0200 Y1.0600 
G01 Z0.0000 F10.00 
G01 Z-0.0070 F10.00 
G01 Z-0.0140 F10.00 
G01 Z-0.0210 F10.00 
G01 Z-0.0280 F10.00 
G01 Z-0.0320 F10.00 
G01 Z0.1000 
(Start milling a hole)
(X1.2000 Y1.0000, depth=-0.0320, tool_size=0.0320, hole_size=0.0236, step_size=0.0100)
G00 X1.2000 Y1.0000 
G01 Z0.0000 F10.00 
G01 Z-0.0070 F10.00 
G01 Z-0.0140 F10.00 
G01 Z-0.0210 F10.00 
G01 Z-0.0280 F10.00 
G01 Z-0.0320 F10.00 
G01 Z0.1000 
(Start milling a hole)
(X1.3250 Y1.0250, depth=-0.0320, tool_size=0.0320, hole_size=0.0236, step_size=0.0100)
G00 X1.3250 Y1.0250 
G01 Z0.0000 F10.00 
G01 Z-0.0070 F10.00 
G01 Z-0.0140 F10.00 
G01 Z-0.0210 F10.00 
G01 Z-0.0280 F10.00 
G01 Z-0.0320 F10.00 
G01 Z0.1000 
(Start milling a hole)
(X1.3500 Y1.1250, depth=-0.0320, tool_size=0.0320, hole_size=0.0320, step_size=0.0100)
G00 X1.3500 Y1.1250 
G01 Z0.0000 F10.00 
G01 Z-0.0070 F10.00 
G01 Z-0.0140 F10.00 
G01 Z-0.0210 F10.00 
G01 Z-0.0280 F10.00 
G01 Z-0.0320 F10.00 
G01 Z0.1000 
(Start milling a hole)
(X1.3500 Y1.2250, depth=-0.0320, tool_size=0.0320, hole_size=0.0320, step_size=0.0100)
G00 X1.3500 Y1.2250 
G01 Z0.0000 F10.00 
G01 Z-0.0070 F10.00 
G01 Z-0.0140 F10.00 
G01 Z-0.0210 F10.00 
G01 Z-0.0280 F10.00 
G01 Z-0.0320 F10.00 
G01 Z0.1000 
(Start milling a hole)
(X1.5150 Y1.2300, depth=-0.0320, tool_size=0.0320, hole_size=0.0236, step_size=0.0100)
G00 X1.5150 Y1.2300 
G01 Z0.0000 F10.00 
G01 Z-0.0070 F10.00 
G01 Z-0.0140 F10.00 
G01 Z-0.0210 F10.00 
G01 Z-0.0280 F10.00 
G01 Z-0.0320 F10.00 
G01 Z0.1000 
(Start milling a hole)
(X1.7450 Y1.2300, depth=-0.0320, tool_size=0.0320, hole_size=0.0236, step_size=0.0100)
G00 X1.7450 Y1.2300 
G01 Z0.0000 F10.00 
G01 Z-0.0070 F10.00 
G01 Z-0.0140 F10.00 
G01 Z-0.0210 F10.00 
G01 Z-0.0280 F10.00 
G01 Z-0.0320 F10.00 
G01 Z0.1000 
(Start milling a hole)
(X2.1100 Y0.9350, depth=-0.0320, tool_size=0.0320, hole_size=0.0236, step_size=0.0100)
G00 X2.1100 Y0.9350 
G01 Z0.0000 F10.00 
G01 Z-0.0070 F10.00 
G01 Z-0.0140 F10.00 
G01 Z-0.0210 F10.00 
G01 Z-0.0280 F10.00 
G01 Z-0.0320 F10.00 
G01 Z0.1000 
(Start milling a hole)
(X2.3600 Y0.8650, depth=-0.0320, tool_size=0.0320, hole_size=0.0400, step_size=0.0100)
G00 X2.3600 Y0.8650 
G01 Z0.0000 F10.00 
G01 Z-0.0070 F10.00 
G01 X2.3560 
G02 X2.3640 Y0.8650 I0.0040 J0.0000 F20.00 
G02 X2.3560 Y0.8650 I-0.0040 J0.0000 F20.00 
G01 X2.3600 Y0.8650 
G01 Z-0.0140 F10.00 
G01 X2.3560 
G02 X2.3640 Y0.8650 I0.0040 J0.0000 F20.00 
G02 X2.3560 Y0.8650 I-0.0040 J0.0000 F20.00 
G01 X2.3600 Y0.8650 
G01 Z-0.0210 F10.00 
G01 X2.3560 
G02 X2.3640 Y0.8650 I0.0040 J0.0000 F20.00 
G02 X2.3560 Y0.8650 I-0.0040 J0.0000 F20.00 
G01 X2.3600 Y0.8650 
G01 Z-0.0280 F10.00 
G01 X2.3560 
G02 X2.3640 Y0.8650 I0.0040 J0.0000 F20.00 
G02 X2.3560 Y0.8650 I-0.0040 J0.0000 F20.00 
G01 X2.3600 Y0.8650 
G01 Z-0.0320 F10.00 
G01 X2.3560 
G02 X2.3640 Y0.8650 I0.0040 J0.0000 F20.00 
G02 X2.3560 Y0.8650 I-0.0040 J0.0000 F20.00 
G01 X2.3600 Y0.8650 
G01 Z0.1000 
(Start milling a hole)
(X2.2050 Y0.6900, depth=-0.0320, tool_size=0.0320, hole_size=0.0236, step_size=0.0100)
G00 X2.2050 Y0.6900 
G01 Z0.0000 F10.00 
G01 Z-0.0070 F10.00 
G01 Z-0.0140 F10.00 
G01 Z-0.0210 F10.00 
G01 Z-0.0280 F10.00 
G01 Z-0.0320 F10.00 
G01 Z0.1000 
(Start milling a hole)
(X2.2400 Y0.4150, depth=-0.0320, tool_size=0.0320, hole_size=0.0320, step_size=0.0100)
G00 X2.2400 Y0.4150 
G01 Z0.0000 F10.00 
G01 Z-0.0070 F10.00 
G01 Z-0.0140 F10.00 
G01 Z-0.0210 F10.00 
G01 Z-0.0280 F10.00 
G01 Z-0.0320 F10.00 
G01 Z0.1000 
(Start milling a hole)
(X2.1400 Y0.4150, depth=-0.0320, tool_size=0.0320, hole_size=0.0320, step_size=0.0100)
G00 X2.1400 Y0.4150 
G01 Z0.0000 F10.00 
G01 Z-0.0070 F10.00 
G01 Z-0.0140 F10.00 
G01 Z-0.0210 F10.00 
G01 Z-0.0280 F10.00 
G01 Z-0.0320 F10.00 
G01 Z0.1000 
(Start milling a hole)
(X2.0400 Y0.4150, depth=-0.0320, tool_size=0.0320, hole_size=0.0320, step_size=0.0100)
G00 X2.0400 Y0.4150 
G01 Z0.0000 F10.00 
G01 Z-0.0070 F10.00 
G01 Z-0.0140 F10.00 
G01 Z-0.0210 F10.00 
G01 Z-0.0280 F10.00 
G01 Z-0.0320 F10.00 
G01 Z0.1000 
(Start milling a hole)
(X1.9000 Y0.3400, depth=-0.0320, tool_size=0.0320, hole_size=0.0236, step_size=0.0100)
G00 X1.9000 Y0.3400 
G01 Z0.0000 F10.00 
G01 Z-0.0070 F10.00 
G01 Z-0.0140 F10.00 
G01 Z-0.0210 F10.00 
G01 Z-0.0280 F10.00 
G01 Z-0.0320 F10.00 
G01 Z0.1000 
(Start milling a hole)
(X1.7500 Y0.4950, depth=-0.0320, tool_size=0.0320, hole_size=0.0236, step_size=0.0100)
G00 X1.7500 Y0.4950 
G01 Z0.0000 F10.00 
G01 Z-0.0070 F10.00 
G01 Z-0.0140 F10.00 
G01 Z-0.0210 F10.00 
G01 Z-0.0280 F10.00 
G01 Z-0.0320 F10.00 
G01 Z0.1000 
(Start milling a hole)
(X1.3900 Y0.4800, depth=-0.0320, tool_size=0.0320, hole_size=0.0236, step_size=0.0100)
G00 X1.3900 Y0.4800 
G01 Z0.0000 F10.00 
G01 Z-0.0070 F10.00 
G01 Z-0.0140 F10.00 
G01 Z-0.0210 F10.00 
G01 Z-0.0280 F10.00 
G01 Z-0.0320 F10.00 
G01 Z0.1000 
(Start milling a hole)
(X1.3900 Y0.1800, depth=-0.0320, tool_size=0.0320, hole_size=0.0236, step_size=0.0100)
G00 X1.3900 Y0.1800 
G01 Z0.0000 F10.00 
G01 Z-0.0070 F10.00 
G01 Z-0.0140 F10.00 
G01 Z-0.0210 F10.00 
G01 Z-0.0280 F10.00 
G01 Z-0.0320 F10.00 
G01 Z0.1000 
(Start milling a hole)
(X1.2150 Y0.1800, depth=-0.0320, tool_size=0.0320, hole_size=0.0320, step_size=0.0100)
G00 X1.2150 Y0.1800 
G01 Z0.0000 F10.00 
G01 Z-0.0070 F10.00 
G01 Z-0.0140 F10.00 
G01 Z-0.0210 F10.00 
G01 Z-0.0280 F10.00 
G01 Z-0.0320 F10.00 
G01 Z0.1000 
(Start milling a hole)
(X1.0950 Y0.2650, depth=-0.0320, tool_size=0.0320, hole_size=0.0236, step_size=0.0100)
G00 X1.0950 Y0.2650 
G01 Z0.0000 F10.00 
G01 Z-0.0070 F10.00 
G01 Z-0.0140 F10.00 
G01 Z-0.0210 F10.00 
G01 Z-0.0280 F10.00 
G01 Z-0.0320 F10.00 
G01 Z0.1000 
(Start milling a hole)
(X0.9150 Y0.2800, depth=-0.0320, tool_size=0.0320, hole_size=0.0320, step_size=0.0100)
G00 X0.9150 Y0.2800 
G01 Z0.0000 F10.00 
G01 Z-0.0070 F10.00 
G01 Z-0.0140 F10.00 
G01 Z-0.0210 F10.00 
G01 Z-0.0280 F10.00 
G01 Z-0.0320 F10.00 
G01 Z0.1000 
(Start milling a hole)
(X0.7150 Y0.1800, depth=-0.0320, tool_size=0.0320, hole_size=0.0320, step_size=0.0100)
G00 X0.7150 Y0.1800 
G01 Z0.0000 F10.00 
G01 Z-0.0070 F10.00 
G01 Z-0.0140 F10.00 
G01 Z-0.0210 F10.00 
G01 Z-0.0280 F10.00 
G01 Z-0.0320 F10.00 
G01 Z0.1000 
(Start milling a hole)
(X0.5100 Y0.2350, depth=-0.0320, tool_size=0.0320, hole_size=0.0236, step_size=0.0100)
G00 X0.5100 Y0.2350 
G01 Z0.0000 F10.00 
G01 Z-0.0070 F10.00 
G01 Z-0.0140 F10.00 
G01 Z-0.0210 F10.00 
G01 Z-0.0280 F10.00 
G01 Z-0.0320 F10.00 
G01 Z0.1000 
(Start milling a hole)
(X0.7234 Y0.6709, depth=-0.0320, tool_size=0.0320, hole_size=0.0320, step_size=0.0100)
G00 X0.7234 Y0.6709 
G01 Z0.0000 F10.00 
G01 Z-0.0070 F10.00 
G01 Z-0.0140 F10.00 
G01 Z-0.0210 F10.00 
G01 Z-0.0280 F10.00 
G01 Z-0.0320 F10.00 
G01 Z0.1000 
(Start milling a hole)
(X0.8021 Y0.6709, depth=-0.0320, tool_size=0.0320, hole_size=0.0320, step_size=0.0100)
G00 X0.8021 Y0.6709 
G01 Z0.0000 F10.00 
G01 Z-0.0070 F10.00 
G01 Z-0.0140 F10.00 
G01 Z-0.0210 F10.00 
G01 Z-0.0280 F10.00 
G01 Z-0.0320 F10.00 
G01 Z0.1000 
(Start milling a hole)
(X0.8809 Y0.6709, depth=-0.0320, tool_size=0.0320, hole_size=0.0320, step_size=0.0100)
G00 X0.8809 Y0.6709 
G01 Z0.0000 F10.00 
G01 Z-0.0070 F10.00 
G01 Z-0.0140 F10.00 
G01 Z-0.0210 F10.00 
G01 Z-0.0280 F10.00 
G01 Z-0.0320 F10.00 
G01 Z0.1000 
(Start milling a hole)
(X0.9202 Y0.7891, depth=-0.0320, tool_size=0.0320, hole_size=0.0320, step_size=0.0100)
G00 X0.9202 Y0.7891 
G01 Z0.0000 F10.00 
G01 Z-0.0070 F10.00 
G01 Z-0.0140 F10.00 
G01 Z-0.0210 F10.00 
G01 Z-0.0280 F10.00 
G01 Z-0.0320 F10.00 
G01 Z0.1000 
(Start milling a hole)
(X0.8415 Y0.7891, depth=-0.0320, tool_size=0.0320, hole_size=0.0320, step_size=0.0100)
G00 X0.8415 Y0.7891 
G01 Z0.0000 F10.00 
G01 Z-0.0070 F10.00 
G01 Z-0.0140 F10.00 
G01 Z-0.0210 F10.00 
G01 Z-0.0280 F10.00 
G01 Z-0.0320 F10.00 
G01 Z0.1000 
(Start milling a hole)
(X0.7628 Y0.7891, depth=-0.0320, tool_size=0.0320, hole_size=0.0320, step_size=0.0100)
G00 X0.7628 Y0.7891 
G01 Z0.0000 F10.00 
G01 Z-0.0070 F10.00 
G01 Z-0.0140 F10.00 
G01 Z-0.0210 F10.00 
G01 Z-0.0280 F10.00 
G01 Z-0.0320 F10.00 
G01 Z0.1000 
(Start milling a hole)
(X1.1171 Y0.7576, depth=-0.0320, tool_size=0.0320, hole_size=0.0860, step_size=0.0100)
G00 X1.1171 Y0.7576 
G01 Z0.0000 F10.00 
G01 Z-0.0070 F10.00 
G01 X1.1121 
G02 X1.1221 Y0.7576 I0.0050 J0.0000 F20.00 
G02 X1.1121 Y0.7576 I-0.0050 J0.0000 F20.00 
G01 X1.1071 
G02 X1.1271 Y0.7576 I0.0100 J0.0000 F20.00 
G02 X1.1071 Y0.7576 I-0.0100 J0.0000 F20.00 
G01 X1.1021 
G02 X1.1321 Y0.7576 I0.0150 J0.0000 F20.00 
G02 X1.1021 Y0.7576 I-0.0150 J0.0000 F20.00 
G01 X1.0971 
G02 X1.1371 Y0.7576 I0.0200 J0.0000 F20.00 
G02 X1.0971 Y0.7576 I-0.0200 J0.0000 F20.00 
G01 X1.0921 
G02 X1.1421 Y0.7576 I0.0250 J0.0000 F20.00 
G02 X1.0921 Y0.7576 I-0.0250 J0.0000 F20.00 
G01 X1.0901 
G02 X1.1441 Y0.7576 I0.0270 J0.0000 F20.00 
G02 X1.0901 Y0.7576 I-0.0270 J0.0000 F20.00 
G01 X1.1171 Y0.7576 
G01 Z-0.0140 F10.00 
G01 X1.1121 
G02 X1.1221 Y0.7576 I0.0050 J0.0000 F20.00 
G02 X1.1121 Y0.7576 I-0.0050 J0.0000 F20.00 
G01 X1.1071 
G02 X1.1271 Y0.7576 I0.0100 J0.0000 F20.00 
G02 X1.1071 Y0.7576 I-0.0100 J0.0000 F20.00 
G01 X1.1021 
G02 X1.1321 Y0.7576 I0.0150 J0.0000 F20.00 
G02 X1.1021 Y0.7576 I-0.0150 J0.0000 F20.00 
G01 X1.0971 
G02 X1.1371 Y0.7576 I0.0200 J0.0000 F20.00 
G02 X1.0971 Y0.7576 I-0.0200 J0.0000 F20.00 
G01 X1.0921 
G02 X1.1421 Y0.7576 I0.0250 J0.0000 F20.00 
G02 X1.0921 Y0.7576 I-0.0250 J0.0000 F20.00 
G01 X1.0901 
G02 X1.1441 Y0.7576 I0.0270 J0.0000 F20.00 
G02 X1.0901 Y0.7576 I-0.0270 J0.0000 F20.00 
G01 X1.1171 Y0.7576 
G01 Z-0.0210 F10.00 
G01 X1.1121 
G02 X1.1221 Y0.7576 I0.0050 J0.0000 F20.00 
G02 X1.1121 Y0.7576 I-0.0050 J0.0000 F20.00 
G01 X1.1071 
G02 X1.1271 Y0.7576 I0.0100 J0.0000 F20.00 
G02 X1.1071 Y0.7576 I-0.0100 J0.0000 F20.00 
G01 X1.1021 
G02 X1.1321 Y0.7576 I0.0150 J0.0000 F20.00 
G02 X1.1021 Y0.7576 I-0.0150 J0.0000 F20.00 
G01 X1.0971 
G02 X1.1371 Y0.7576 I0.0200 J0.0000 F20.00 
G02 X1.0971 Y0.7576 I-0.0200 J0.0000 F20.00 
G01 X1.0921 
G02 X1.1421 Y0.7576 I0.0250 J0.0000 F20.00 
G02 X1.0921 Y0.7576 I-0.0250 J0.0000 F20.00 
G01 X1.0901 
G02 X1.1441 Y0.7576 I0.0270 J0.0000 F20.00 
G02 X1.0901 Y0.7576 I-0.0270 J0.0000 F20.00 
G01 X1.1171 Y0.7576 
G01 Z-0.0280 F10.00 
G01 X1.1121 
G02 X1.1221 Y0.7576 I0.0050 J0.0000 F20.00 
G02 X1.1121 Y0.7576 I-0.0050 J0.0000 F20.00 
G01 X1.1071 
G02 X1.1271 Y0.7576 I0.0100 J0.0000 F20.00 
G02 X1.1071 Y0.7576 I-0.0100 J0.0000 F20.00 
G01 X1.1021 
G02 X1.1321 Y0.7576 I0.0150 J0.0000 F20.00 
G02 X1.1021 Y0.7576 I-0.0150 J0.0000 F20.00 
G01 X1.0971 
G02 X1.1371 Y0.7576 I0.0200 J0.0000 F20.00 
G02 X1.0971 Y0.7576 I-0.0200 J0.0000 F20.00 
G01 X1.0921 
G02 X1.1421 Y0.7576 I0.0250 J0.0000 F20.00 
G02 X1.0921 Y0.7576 I-0.0250 J0.0000 F20.00 
G01 X1.0901 
G02 X1.1441 Y0.7576 I0.0270 J0.0000 F20.00 
G02 X1.0901 Y0.7576 I-0.0270 J0.0000 F20.00 
G01 X1.1171 Y0.7576 
G01 Z-0.0320 F10.00 
G01 X1.1121 
G02 X1.1221 Y0.7576 I0.0050 J0.0000 F20.00 
G02 X1.1121 Y0.7576 I-0.0050 J0.0000 F20.00 
G01 X1.1071 
G02 X1.1271 Y0.7576 I0.0100 J0.0000 F20.00 
G02 X1.1071 Y0.7576 I-0.0100 J0.0000 F20.00 
G01 X1.1021 
G02 X1.1321 Y0.7576 I0.0150 J0.0000 F20.00 
G02 X1.1021 Y0.7576 I-0.0150 J0.0000 F20.00 
G01 X1.0971 
G02 X1.1371 Y0.7576 I0.0200 J0.0000 F20.00 
G02 X1.0971 Y0.7576 I-0.0200 J0.0000 F20.00 
G01 X1.0921 
G02 X1.1421 Y0.7576 I0.0250 J0.0000 F20.00 
G02 X1.0921 Y0.7576 I-0.0250 J0.0000 F20.00 
G01 X1.0901 
G02 X1.1441 Y0.7576 I0.0270 J0.0000 F20.00 
G02 X1.0901 Y0.7576 I-0.0270 J0.0000 F20.00 
G01 X1.1171 Y0.7576 
G01 Z0.1000 
(Start milling a hole)
(X0.4100 Y1.1900, depth=-0.0320, tool_size=0.0320, hole_size=0.0236, step_size=0.0100)
G00 X0.4100 Y1.1900 
G01 Z0.0000 F10.00 
G01 Z-0.0070 F10.00 
G01 Z-0.0140 F10.00 
G01 Z-0.0210 F10.00 
G01 Z-0.0280 F10.00 
G01 Z-0.0320 F10.00 
G01 Z0.1000 
(Start milling a hole)
(X0.1500 Y1.1900, depth=-0.0320, tool_size=0.0320, hole_size=0.1250, step_size=0.0100)
G00 X0.1500 Y1.1900 
G01 Z0.0000 F10.00 
G01 Z-0.0070 F10.00 
G01 X0.1450 
G02 X0.1550 Y1.1900 I0.0050 J0.0000 F20.00 
G02 X0.1450 Y1.1900 I-0.0050 J0.0000 F20.00 
G01 X0.1400 
G02 X0.1600 Y1.1900 I0.0100 J0.0000 F20.00 
G02 X0.1400 Y1.1900 I-0.0100 J0.0000 F20.00 
G01 X0.1350 
G02 X0.1650 Y1.1900 I0.0150 J0.0000 F20.00 
G02 X0.1350 Y1.1900 I-0.0150 J0.0000 F20.00 
G01 X0.1300 
G02 X0.1700 Y1.1900 I0.0200 J0.0000 F20.00 
G02 X0.1300 Y1.1900 I-0.0200 J0.0000 F20.00 
G01 X0.1250 
G02 X0.1750 Y1.1900 I0.0250 J0.0000 F20.00 
G02 X0.1250 Y1.1900 I-0.0250 J0.0000 F20.00 
G01 X0.1200 
G02 X0.1800 Y1.1900 I0.0300 J0.0000 F20.00 
G02 X0.1200 Y1.1900 I-0.0300 J0.0000 F20.00 
G01 X0.1150 
G02 X0.1850 Y1.1900 I0.0350 J0.0000 F20.00 
G02 X0.1150 Y1.1900 I-0.0350 J0.0000 F20.00 
G01 X0.1100 
G02 X0.1900 Y1.1900 I0.0400 J0.0000 F20.00 
G02 X0.1100 Y1.1900 I-0.0400 J0.0000 F20.00 
G01 X0.1050 
G02 X0.1950 Y1.1900 I0.0450 J0.0000 F20.00 
G02 X0.1050 Y1.1900 I-0.0450 J0.0000 F20.00 
G01 X0.1035 
G02 X0.1965 Y1.1900 I0.0465 J0.0000 F20.00 
G02 X0.1035 Y1.1900 I-0.0465 J0.0000 F20.00 
G01 X0.1500 Y1.1900 
G01 Z-0.0140 F10.00 
G01 X0.1450 
G02 X0.1550 Y1.1900 I0.0050 J0.0000 F20.00 
G02 X0.1450 Y1.1900 I-0.0050 J0.0000 F20.00 
G01 X0.1400 
G02 X0.1600 Y1.1900 I0.0100 J0.0000 F20.00 
G02 X0.1400 Y1.1900 I-0.0100 J0.0000 F20.00 
G01 X0.1350 
G02 X0.1650 Y1.1900 I0.0150 J0.0000 F20.00 
G02 X0.1350 Y1.1900 I-0.0150 J0.0000 F20.00 
G01 X0.1300 
G02 X0.1700 Y1.1900 I0.0200 J0.0000 F20.00 
G02 X0.1300 Y1.1900 I-0.0200 J0.0000 F20.00 
G01 X0.1250 
G02 X0.1750 Y1.1900 I0.0250 J0.0000 F20.00 
G02 X0.1250 Y1.1900 I-0.0250 J0.0000 F20.00 
G01 X0.1200 
G02 X0.1800 Y1.1900 I0.0300 J0.0000 F20.00 
G02 X0.1200 Y1.1900 I-0.0300 J0.0000 F20.00 
G01 X0.1150 
G02 X0.1850 Y1.1900 I0.0350 J0.0000 F20.00 
G02 X0.1150 Y1.1900 I-0.0350 J0.0000 F20.00 
G01 X0.1100 
G02 X0.1900 Y1.1900 I0.0400 J0.0000 F20.00 
G02 X0.1100 Y1.1900 I-0.0400 J0.0000 F20.00 
G01 X0.1050 
G02 X0.1950 Y1.1900 I0.0450 J0.0000 F20.00 
G02 X0.1050 Y1.1900 I-0.0450 J0.0000 F20.00 
G01 X0.1035 
G02 X0.1965 Y1.1900 I0.0465 J0.0000 F20.00 
G02 X0.1035 Y1.1900 I-0.0465 J0.0000 F20.00 
G01 X0.1500 Y1.1900 
G01 Z-0.0210 F10.00 
G01 X0.1450 
G02 X0.1550 Y1.1900 I0.0050 J0.0000 F20.00 
G02 X0.1450 Y1.1900 I-0.0050 J0.0000 F20.00 
G01 X0.1400 
G02 X0.1600 Y1.1900 I0.0100 J0.0000 F20.00 
G02 X0.1400 Y1.1900 I-0.0100 J0.0000 F20.00 
G01 X0.1350 
G02 X0.1650 Y1.1900 I0.0150 J0.0000 F20.00 
G02 X0.1350 Y1.1900 I-0.0150 J0.0000 F20.00 
G01 X0.1300 
G02 X0.1700 Y1.1900 I0.0200 J0.0000 F20.00 
G02 X0.1300 Y1.1900 I-0.0200 J0.0000 F20.00 
G01 X0.1250 
G02 X0.1750 Y1.1900 I0.0250 J0.0000 F20.00 
G02 X0.1250 Y1.1900 I-0.0250 J0.0000 F20.00 
G01 X0.1200 
G02 X0.1800 Y1.1900 I0.0300 J0.0000 F20.00 
G02 X0.1200 Y1.1900 I-0.0300 J0.0000 F20.00 
G01 X0.1150 
G02 X0.1850 Y1.1900 I0.0350 J0.0000 F20.00 
G02 X0.1150 Y1.1900 I-0.0350 J0.0000 F20.00 
G01 X0.1100 
G02 X0.1900 Y1.1900 I0.0400 J0.0000 F20.00 
G02 X0.1100 Y1.1900 I-0.0400 J0.0000 F20.00 
G01 X0.1050 
G02 X0.1950 Y1.1900 I0.0450 J0.0000 F20.00 
G02 X0.1050 Y1.1900 I-0.0450 J0.0000 F20.00 
G01 X0.1035 
G02 X0.1965 Y1.1900 I0.0465 J0.0000 F20.00 
G02 X0.1035 Y1.1900 I-0.0465 J0.0000 F20.00 
G01 X0.1500 Y1.1900 
G01 Z-0.0280 F10.00 
G01 X0.1450 
G02 X0.1550 Y1.1900 I0.0050 J0.0000 F20.00 
G02 X0.1450 Y1.1900 I-0.0050 J0.0000 F20.00 
G01 X0.1400 
G02 X0.1600 Y1.1900 I0.0100 J0.0000 F20.00 
G02 X0.1400 Y1.1900 I-0.0100 J0.0000 F20.00 
G01 X0.1350 
G02 X0.1650 Y1.1900 I0.0150 J0.0000 F20.00 
G02 X0.1350 Y1.1900 I-0.0150 J0.0000 F20.00 
G01 X0.1300 
G02 X0.1700 Y1.1900 I0.0200 J0.0000 F20.00 
G02 X0.1300 Y1.1900 I-0.0200 J0.0000 F20.00 
G01 X0.1250 
G02 X0.1750 Y1.1900 I0.0250 J0.0000 F20.00 
G02 X0.1250 Y1.1900 I-0.0250 J0.0000 F20.00 
G01 X0.1200 
G02 X0.1800 Y1.1900 I0.0300 J0.0000 F20.00 
G02 X0.1200 Y1.1900 I-0.0300 J0.0000 F20.00 
G01 X0.1150 
G02 X0.1850 Y1.1900 I0.0350 J0.0000 F20.00 
G02 X0.1150 Y1.1900 I-0.0350 J0.0000 F20.00 
G01 X0.1100 
G02 X0.1900 Y1.1900 I0.0400 J0.0000 F20.00 
G02 X0.1100 Y1.1900 I-0.0400 J0.0000 F20.00 
G01 X0.1050 
G02 X0.1950 Y1.1900 I0.0450 J0.0000 F20.00 
G02 X0.1050 Y1.1900 I-0.0450 J0.0000 F20.00 
G01 X0.1035 
G02 X0.1965 Y1.1900 I0.0465 J0.0000 F20.00 
G02 X0.1035 Y1.1900 I-0.0465 J0.0000 F20.00 
G01 X0.1500 Y1.1900 
G01 Z-0.0320 F10.00 
G01 X0.1450 
G02 X0.1550 Y1.1900 I0.0050 J0.0000 F20.00 
G02 X0.1450 Y1.1900 I-0.0050 J0.0000 F20.00 
G01 X0.1400 
G02 X0.1600 Y1.1900 I0.0100 J0.0000 F20.00 
G02 X0.1400 Y1.1900 I-0.0100 J0.0000 F20.00 
G01 X0.1350 
G02 X0.1650 Y1.1900 I0.0150 J0.0000 F20.00 
G02 X0.1350 Y1.1900 I-0.0150 J0.0000 F20.00 
G01 X0.1300 
G02 X0.1700 Y1.1900 I0.0200 J0.0000 F20.00 
G02 X0.1300 Y1.1900 I-0.0200 J0.0000 F20.00 
G01 X0.1250 
G02 X0.1750 Y1.1900 I0.0250 J0.0000 F20.00 
G02 X0.1250 Y1.1900 I-0.0250 J0.0000 F20.00 
G01 X0.1200 
G02 X0.1800 Y1.1900 I0.0300 J0.0000 F20.00 
G02 X0.1200 Y1.1900 I-0.0300 J0.0000 F20.00 
G01 X0.1150 
G02 X0.1850 Y1.1900 I0.0350 J0.0000 F20.00 
G02 X0.1150 Y1.1900 I-0.0350 J0.0000 F20.00 
G01 X0.1100 
G02 X0.1900 Y1.1900 I0.0400 J0.0000 F20.00 
G02 X0.1100 Y1.1900 I-0.0400 J0.0000 F20.00 
G01 X0.1050 
G02 X0.1950 Y1.1900 I0.0450 J0.0000 F20.00 
G02 X0.1050 Y1.1900 I-0.0450 J0.0000 F20.00 
G01 X0.1035 
G02 X0.1965 Y1.1900 I0.0465 J0.0000 F20.00 
G02 X0.1035 Y1.1900 I-0.0465 J0.0000 F20.00 
G01 X0.1500 Y1.1900 
G01 Z0.1000 
(Start milling a hole)
(X2.0400 Y0.1150, depth=-0.0320, tool_size=0.0320, hole_size=0.0320, step_size=0.0100)
G00 X2.0400 Y0.1150 
G01 Z0.0000 F10.00 
G01 Z-0.0070 F10.00 
G01 Z-0.0140 F10.00 
G01 Z-0.0210 F10.00 
G01 Z-0.0280 F10.00 
G01 Z-0.0320 F10.00 
G01 Z0.1000 
(Start milling a hole)
(X2.1400 Y0.1150, depth=-0.0320, tool_size=0.0320, hole_size=0.0320, step_size=0.0100)
G00 X2.1400 Y0.1150 
G01 Z0.0000 F10.00 
G01 Z-0.0070 F10.00 
G01 Z-0.0140 F10.00 
G01 Z-0.0210 F10.00 
G01 Z-0.0280 F10.00 
G01 Z-0.0320 F10.00 
G01 Z0.1000 
(Start milling a hole)
(X2.2400 Y0.1150, depth=-0.0320, tool_size=0.0320, hole_size=0.0320, step_size=0.0100)
G00 X2.2400 Y0.1150 
G01 Z0.0000 F10.00 
G01 Z-0.0070 F10.00 
G01 Z-0.0140 F10.00 
G01 Z-0.0210 F10.00 
G01 Z-0.0280 F10.00 
G01 Z-0.0320 F10.00 
G01 Z0.1000 
(Start milling a hole)
(X2.3600 Y1.1650, depth=-0.0320, tool_size=0.0320, hole_size=0.0400, step_size=0.0100)
G00 X2.3600 Y1.1650 
G01 Z0.0000 F10.00 
G01 Z-0.0070 F10.00 
G01 X2.3560 
G02 X2.3640 Y1.1650 I0.0040 J0.0000 F20.00 
G02 X2.3560 Y1.1650 I-0.0040 J0.0000 F20.00 
G01 X2.3600 Y1.1650 
G01 Z-0.0140 F10.00 
G01 X2.3560 
G02 X2.3640 Y1.1650 I0.0040 J0.0000 F20.00 
G02 X2.3560 Y1.1650 I-0.0040 J0.0000 F20.00 
G01 X2.3600 Y1.1650 
G01 Z-0.0210 F10.00 
G01 X2.3560 
G02 X2.3640 Y1.1650 I0.0040 J0.0000 F20.00 
G02 X2.3560 Y1.1650 I-0.0040 J0.0000 F20.00 
G01 X2.3600 Y1.1650 
G01 Z-0.0280 F10.00 
G01 X2.3560 
G02 X2.3640 Y1.1650 I0.0040 J0.0000 F20.00 
G02 X2.3560 Y1.1650 I-0.0040 J0.0000 F20.00 
G01 X2.3600 Y1.1650 
G01 Z-0.0320 F10.00 
G01 X2.3560 
G02 X2.3640 Y1.1650 I0.0040 J0.0000 F20.00 
G02 X2.3560 Y1.1650 I-0.0040 J0.0000 F20.00 
G01 X2.3600 Y1.1650 
G01 Z0.1000 
(Top Drill End)
(End of all Drill Files)
(End of every top file)
(End of every file)
T01 
G00 Z0.5000 
M05
M02
