(.../john/src/pcbgcode/pcb-gcode.ulp)
(Copyright 2005 - 2012 by John Johnson)
(See readme.txt for licensing terms.)
(This file generated from the board:)
(.../docs/examples/04151_lcdi2c.brd)
(Current profile is .../pcb-gcode-3.6.2.4/profiles/generic.pp  )
(This file generated 9/2/22 12:51 PM)
(Settings from pcb-machine.h)
(spindle on time = 3.0000)
(spindle speed = 20000.0000)
(tool change at 0.0000 0.0000 1.0000 )
(feed rate xy = F0.00  )
(feed rate z  = F20.00 )
(Z Axis Settings)
(  High     Up        Down     Drill)
(0.5000 	0.1000 	-0.0070 	-0.0320 )
(Settings from pcb-defaults.h)
(isolate min = 0.0010)
(isolate max = 0.0200)
(isolate step = 0.0050)
(Generated top outlines, top drill, bottom outlines, bottom drill, )
(Unit of measure: inch)
(Beginning of every file)
(Beginning of every top file)
(Beginning of All Drill files)
(Top Drill Begin)
( Tool|       Size       |  Min Sub |  Max Sub |   Count )
( T01  0.500mm 0.0197in 0.0197in 0.0236in )
( T02  0.813mm 0.0320in 0.0320in 0.0320in )
( T03  1.016mm 0.0400in 0.0400in 0.0400in )
( T06  2.159mm 0.0850in 0.0850in 0.1250in )
(Inch Mode)
G20
(Absolute Coordinates)
G90
S20000
G00 Z0.5000 
G00 X0.0000 Y0.0000 
M03
G04 P3.000000
(Tool Change Begin)
(Top Tool Change Begin)
M05
G00 Z1.0000 
M06 T01  ; 0.0197 
(Top Tool changed)
(Tool changed)
(Tool zero begin)
(Top Tool zero begin)
G01 Z0.0000 F20.00 
M06 
(Top Tool zero end)
(Tool zero end)
G00 Z0.1000 
M03
G04 P3.000000
(Top Tool Changed End)
(Tool Change End)
G00 Z0.100000
G00 X0.3900 Y0.5000 
G01 Z-0.0320 F20.00 
G01 Z0.100000
(R0.1000  P1.000000)
G00 X0.5200 Y0.5250 
G01 Z-0.0320 
G01 Z0.100000
G00 X0.5100 Y0.2350 
G01 Z-0.0320 
G01 Z0.100000
G00 X1.0950 Y0.2650 
G01 Z-0.0320 
G01 Z0.100000
G00 X1.3900 Y0.1800 
G01 Z-0.0320 
G01 Z0.100000
G00 X1.3900 Y0.4800 
G01 Z-0.0320 
G01 Z0.100000
G00 X1.7500 Y0.4950 
G01 Z-0.0320 
G01 Z0.100000
G00 X1.9000 Y0.3400 
G01 Z-0.0320 
G01 Z0.100000
G00 X2.2050 Y0.6900 
G01 Z-0.0320 
G01 Z0.100000
G00 X2.1100 Y0.9350 
G01 Z-0.0320 
G01 Z0.100000
G00 X1.7450 Y1.2300 
G01 Z-0.0320 
G01 Z0.100000
G00 X1.5150 Y1.2300 
G01 Z-0.0320 
G01 Z0.100000
G00 X1.3250 Y1.0250 
G01 Z-0.0320 
G01 Z0.100000
G00 X1.2000 Y1.0000 
G01 Z-0.0320 
G01 Z0.100000
G00 X1.0200 Y1.0600 
G01 Z-0.0320 
G01 Z0.100000
G00 X0.6800 Y1.0650 
G01 Z-0.0320 
G01 Z0.100000
G00 X0.5100 Y0.9750 
G01 Z-0.0320 
G01 Z0.100000
G00 X0.4000 Y0.9000 
G01 Z-0.0320 
G01 Z0.100000
G00 X0.4100 Y1.1900 
G01 Z-0.0320 
G01 Z0.100000
(Tool Change Begin)
(Top Tool Change Begin)
M05
G00 Z1.0000 
G00 X0.0000 Y0.0000 
M06 T02  ; 0.0320 
(Top Tool changed)
(Tool changed)
(Tool zero begin)
(Top Tool zero begin)
G01 Z0.0000 F20.00 
M06 
(Top Tool zero end)
(Tool zero end)
G00 Z0.1000 
M03
G04 P3.000000
(Top Tool Changed End)
(Tool Change End)
G00 Z0.100000
G00 X0.7150 Y0.1800 
G01 Z-0.0320 F20.00 
G01 Z0.100000
(R0.1000  P1.000000)
G00 X0.9150 Y0.2800 
G01 Z-0.0320 
G01 Z0.100000
G00 X1.2150 Y0.1800 
G01 Z-0.0320 
G01 Z0.100000
G00 X0.8809 Y0.6709 
G01 Z-0.0320 
G01 Z0.100000
G00 X0.8021 Y0.6709 
G01 Z-0.0320 
G01 Z0.100000
G00 X0.7234 Y0.6709 
G01 Z-0.0320 
G01 Z0.100000
G00 X0.7628 Y0.7891 
G01 Z-0.0320 
G01 Z0.100000
G00 X0.8415 Y0.7891 
G01 Z-0.0320 
G01 Z0.100000
G00 X0.9202 Y0.7891 
G01 Z-0.0320 
G01 Z0.100000
G00 X0.8350 Y1.1350 
G01 Z-0.0320 
G01 Z0.100000
G00 X0.8350 Y1.2350 
G01 Z-0.0320 
G01 Z0.100000
G00 X1.0200 Y1.1550 
G01 Z-0.0320 
G01 Z0.100000
G00 X1.0700 Y1.2300 
G01 Z-0.0320 
G01 Z0.100000
G00 X1.1200 Y1.1550 
G01 Z-0.0320 
G01 Z0.100000
G00 X1.3500 Y1.1250 
G01 Z-0.0320 
G01 Z0.100000
G00 X1.3500 Y1.2250 
G01 Z-0.0320 
G01 Z0.100000
G00 X2.0400 Y0.4150 
G01 Z-0.0320 
G01 Z0.100000
G00 X2.1400 Y0.4150 
G01 Z-0.0320 
G01 Z0.100000
G00 X2.2400 Y0.4150 
G01 Z-0.0320 
G01 Z0.100000
G00 X2.2400 Y0.1150 
G01 Z-0.0320 
G01 Z0.100000
G00 X2.1400 Y0.1150 
G01 Z-0.0320 
G01 Z0.100000
G00 X2.0400 Y0.1150 
G01 Z-0.0320 
G01 Z0.100000
(Tool Change Begin)
(Top Tool Change Begin)
M05
G00 Z1.0000 
G00 X0.0000 Y0.0000 
M06 T03  ; 0.0400 
(Top Tool changed)
(Tool changed)
(Tool zero begin)
(Top Tool zero begin)
G01 Z0.0000 F20.00 
M06 
(Top Tool zero end)
(Tool zero end)
G00 Z0.1000 
M03
G04 P3.000000
(Top Tool Changed End)
(Tool Change End)
G00 Z0.100000
G00 X0.1900 Y0.4000 
G01 Z-0.0320 F20.00 
G01 Z0.100000
(R0.1000  P1.000000)
G00 X0.1900 Y0.5000 
G01 Z-0.0320 
G01 Z0.100000
G00 X0.1900 Y0.6000 
G01 Z-0.0320 
G01 Z0.100000
G00 X0.1900 Y0.7000 
G01 Z-0.0320 
G01 Z0.100000
G00 X0.2900 Y0.7000 
G01 Z-0.0320 
G01 Z0.100000
G00 X0.2900 Y0.6000 
G01 Z-0.0320 
G01 Z0.100000
G00 X0.2900 Y0.5000 
G01 Z-0.0320 
G01 Z0.100000
G00 X0.2900 Y0.4000 
G01 Z-0.0320 
G01 Z0.100000
G00 X0.2900 Y0.8000 
G01 Z-0.0320 
G01 Z0.100000
G00 X0.1900 Y0.8000 
G01 Z-0.0320 
G01 Z0.100000
G00 X0.1900 Y0.9000 
G01 Z-0.0320 
G01 Z0.100000
G00 X0.1900 Y1.0000 
G01 Z-0.0320 
G01 Z0.100000
G00 X0.2900 Y1.0000 
G01 Z-0.0320 
G01 Z0.100000
G00 X0.2900 Y0.9000 
G01 Z-0.0320 
G01 Z0.100000
G00 X2.3600 Y0.8650 
G01 Z-0.0320 
G01 Z0.100000
G00 X2.3600 Y1.1650 
G01 Z-0.0320 
G01 Z0.100000
(Tool Change Begin)
(Top Tool Change Begin)
M05
G00 Z1.0000 
G00 X0.0000 Y0.0000 
M06 T06  ; 0.0850 
(Top Tool changed)
(Tool changed)
(Tool zero begin)
(Top Tool zero begin)
G01 Z0.0000 F20.00 
M06 
(Top Tool zero end)
(Tool zero end)
G00 Z0.1000 
M03
G04 P3.000000
(Top Tool Changed End)
(Tool Change End)
G00 Z0.100000
G00 X0.1500 Y0.1300 
G01 Z-0.0320 F20.00 
G01 Z0.100000
(R0.1000  P1.000000)
G00 X0.5029 Y0.7576 
G01 Z-0.0320 
G01 Z0.100000
G00 X0.1500 Y1.1900 
G01 Z-0.0320 
G01 Z0.100000
G00 X1.1171 Y0.7576 
G01 Z-0.0320 
G01 Z0.100000
(Top Drill End)
(End of all Drill Files)
(End of every top file)
(End of every file)
T01 
G00 Z0.5000 
M05
M02
