(.../src/pcbgcode.repo/pcb-gcode.ulp)
(Copyright 2005 - 2012 by John Johnson)
(See readme.txt for licensing terms.)
(This file generated from the board:)
(.../pcbgcode.repo/docs/examples/arcie.brd)
(Current profile is .../pcbgcode-work/profiles/mach.pp  )
(This file generated 3/24/14 1:22 PM)
(Settings from pcb-machine.h)
(spindle on time = 3.0000)
(spindle speed = 15000.0000)
(milling depth = -0.0100)
(tool change at 0.0000  0.0000  1.0000  )
(feed rate xy = F10    )
(feed rate z  = F5     )
(Z Axis Settings)
(  High     Up        Down     Drill)
(0.5000  	0.1000  	-0.0070 	-0.0320 )
(Settings from pcb-defaults.h)
(isolate min = 0.0010)
(isolate max = 0.0200)
(isolate step = 0.0050)
(Generated )
(Unit of measure: inch)
M06 (Use 30° bit)
(Inch Mode)
G20
(Absolute Coordinates)
G90
S15000
G00 Z0.5000  
G00 X0.0000  Y0.0000  
M03
G04 P3.000000
G00 Z0.1000  
G01 Z-0.0100 F5     
G01 X0.0000  Y1.1750  F10    
G03 X-0.1450 Y1.3200  R0.1450  F10    
G01 X-2.6500 Y1.3200  
G03 X-2.7800 Y1.1900  R0.1300  F10    
G01 X-2.7800 Y0.1200  
G01 X-2.7800 Y0.1150  
G00 Z0.1000  
G00 X-2.7800 Y0.1200  
G01 Z-0.0100 F5     
G03 X-2.6700 Y0.0000  R0.1164  F10    
G00 Z0.1000  
G00 X-2.6650 Y0.0000  
G01 Z-0.0100 F5     
G01 X0.0000  Y0.0000  F10    
G00 Z0.1000  
G00 X-0.3700 Y0.5050  
G01 Z-0.0100 F5     
G02 X-0.6450 Y0.3600  R0.1555  F10    
G00 Z0.1000  
G00 X-0.6400 Y0.3550  
G01 Z-0.0100 F5     
G03 X-0.8550 Y0.3900  R-0.1172 F10    
G02 X-1.1650 Y0.4750  R0.1607  F10    
G02 X-1.3750 Y0.6000  R0.1222  F10    
G02 X-1.4700 Y0.7950  R0.1085  F10    
G00 Z0.1000  
G00 X-1.4650 Y0.7950  
G01 Z-0.0100 F5     
G02 X-1.3700 Y1.0150  R0.1198  F10    
G00 Z0.1000  
G00 X-1.3600 Y1.0050  
G01 Z-0.0100 F5     
G02 X-1.1500 Y1.1250  R0.1209  F10    
G00 Z0.1000  
G00 X-1.1550 Y1.1200  
G01 Z-0.0100 F5     
G02 X-0.9800 Y1.0550  R-0.1017 F10    
G03 X-0.7600 Y0.8450  R-0.2029 F10    
G00 Z0.1000  
G00 X-0.7600 Y0.8350  
G01 Z-0.0100 F5     
G02 X-0.5200 Y0.7450  R-0.1387 F10    
G03 X-0.3700 Y0.5100  R0.1394  F10    
G00 Z0.5000  
M05
M02
