(.../john/src/pcbgcode/pcb-gcode.ulp)
(Copyright 2005 - 2012 by John Johnson)
(See readme.txt for licensing terms.)
(This file generated from the board:)
(.../pcbgcode/docs/examples/drills.brd)
(Current profile is .../pcb-gcode-3.6.2.4/profiles/generic.pp  )
(This file generated 8/12/22 4:50 PM)
(Settings from pcb-machine.h)
(spindle on time = 3.0000)
(spindle speed = 20000.0000)
(tool change at 0.0000 0.0000 1.0000 )
(feed rate xy = F0.00  )
(feed rate z  = F20.00 )
(Z Axis Settings)
(  High     Up        Down     Drill)
(0.5000 	0.1000 	-0.0070 	-0.0320 )
(Settings from pcb-defaults.h)
(isolate min = 0.0010)
(isolate max = 0.0200)
(isolate step = 0.0050)
(Generated top drill, bottom drill, )
(Unit of measure: inch)
(Beginning of every file)
(Beginning of every bottom file)
(Beginning of All Drill files)
(Bottom Drill Begin)
(Rack file: .../pcbgcode/docs/examples/drills.drl)
(Min Sub is the minimum hole size this tool was subbed for.)
(Max Sub is the maximum hole size this tool was subbed for.)
( Tool|       Size           |  Min Sub |  Max Sub |   Count )
( T01     0.381mm   0.0150in   0.0079in   0.0256in        3     )
( T03     0.813mm   0.0320in   0.0394in   0.1000in        9    THIS IS AN ENDMILL )
( T04     3.175mm   0.1250in   0.2000in   0.3750in        2    THIS IS AN ENDMILL )
(Inch Mode)
G20
(Absolute Coordinates)
G90
S20000
G00 Z0.5000 
G00 X0.0000 Y0.0000 
M03
G04 P3.000000
(Tool Change Begin)
(Bottom Tool Change Begin)
M05
G00 Z1.0000 
M06 T01  ; 0.0150 
(Bottom Tool changed)
(Tool changed)
(Tool zero begin)
(Bottom Tool zero begin)
G01 Z0.0000 F20.00 
M06 
(Bottom Tool zero end)
(Tool zero end)
G00 Z0.1000 
M03
G04 P3.000000
(Bottom Tool Change End)
(Tool Change End)
G00 Z0.100000
G00 X-0.3000 Y0.1500 
G01 Z-0.0320 F20.00 
G01 Z0.100000
(R0.1000  P1.000000)
G00 X-0.5000 Y0.1500 
G01 Z-0.0320 
G01 Z0.100000
G00 X-0.7000 Y0.1500 
G01 Z-0.0320 
G01 Z0.100000
(Tool Change Begin)
(Bottom Tool Change Begin)
M05
G00 Z1.0000 
G00 X0.0000 Y0.0000 
M06 T03  ; 0.0320 
(Bottom Tool changed)
(Tool changed)
(Tool zero begin)
(Bottom Tool zero begin)
G01 Z0.0000 F20.00 
M06 
(Bottom Tool zero end)
(Tool zero end)
G00 Z0.1000 
M03
G04 P3.000000
(Bottom Tool Change End)
(Tool Change End)
(Start milling a hole)
(X-0.1000 Y0.1500, depth=-0.0320, tool_size=0.0320, hole_size=0.0900, step_size=0.0100)
G00 X-0.1000 Y0.1500 
G01 Z0.0000 F10.00 
G01 Z-0.0150 F10.00 
G01 X-0.1050 
G02 X-0.0950 Y0.1500 I0.0050 J0.0000 F20.00 
G02 X-0.1050 Y0.1500 I-0.0050 J0.0000 F20.00 
G01 X-0.1100 
G02 X-0.0900 Y0.1500 I0.0100 J0.0000 F20.00 
G02 X-0.1100 Y0.1500 I-0.0100 J0.0000 F20.00 
G01 X-0.1150 
G02 X-0.0850 Y0.1500 I0.0150 J0.0000 F20.00 
G02 X-0.1150 Y0.1500 I-0.0150 J0.0000 F20.00 
G01 X-0.1200 
G02 X-0.0800 Y0.1500 I0.0200 J0.0000 F20.00 
G02 X-0.1200 Y0.1500 I-0.0200 J0.0000 F20.00 
G01 X-0.1250 
G02 X-0.0750 Y0.1500 I0.0250 J0.0000 F20.00 
G02 X-0.1250 Y0.1500 I-0.0250 J0.0000 F20.00 
G01 X-0.1290 
G02 X-0.0710 Y0.1500 I0.0290 J0.0000 F20.00 
G02 X-0.1290 Y0.1500 I-0.0290 J0.0000 F20.00 
G01 X-0.1000 Y0.1500 
G01 Z-0.0300 F10.00 
G01 X-0.1050 
G02 X-0.0950 Y0.1500 I0.0050 J0.0000 F20.00 
G02 X-0.1050 Y0.1500 I-0.0050 J0.0000 F20.00 
G01 X-0.1100 
G02 X-0.0900 Y0.1500 I0.0100 J0.0000 F20.00 
G02 X-0.1100 Y0.1500 I-0.0100 J0.0000 F20.00 
G01 X-0.1150 
G02 X-0.0850 Y0.1500 I0.0150 J0.0000 F20.00 
G02 X-0.1150 Y0.1500 I-0.0150 J0.0000 F20.00 
G01 X-0.1200 
G02 X-0.0800 Y0.1500 I0.0200 J0.0000 F20.00 
G02 X-0.1200 Y0.1500 I-0.0200 J0.0000 F20.00 
G01 X-0.1250 
G02 X-0.0750 Y0.1500 I0.0250 J0.0000 F20.00 
G02 X-0.1250 Y0.1500 I-0.0250 J0.0000 F20.00 
G01 X-0.1290 
G02 X-0.0710 Y0.1500 I0.0290 J0.0000 F20.00 
G02 X-0.1290 Y0.1500 I-0.0290 J0.0000 F20.00 
G01 X-0.1000 Y0.1500 
G01 Z-0.0320 F10.00 
G01 X-0.1050 
G02 X-0.0950 Y0.1500 I0.0050 J0.0000 F20.00 
G02 X-0.1050 Y0.1500 I-0.0050 J0.0000 F20.00 
G01 X-0.1100 
G02 X-0.0900 Y0.1500 I0.0100 J0.0000 F20.00 
G02 X-0.1100 Y0.1500 I-0.0100 J0.0000 F20.00 
G01 X-0.1150 
G02 X-0.0850 Y0.1500 I0.0150 J0.0000 F20.00 
G02 X-0.1150 Y0.1500 I-0.0150 J0.0000 F20.00 
G01 X-0.1200 
G02 X-0.0800 Y0.1500 I0.0200 J0.0000 F20.00 
G02 X-0.1200 Y0.1500 I-0.0200 J0.0000 F20.00 
G01 X-0.1250 
G02 X-0.0750 Y0.1500 I0.0250 J0.0000 F20.00 
G02 X-0.1250 Y0.1500 I-0.0250 J0.0000 F20.00 
G01 X-0.1290 
G02 X-0.0710 Y0.1500 I0.0290 J0.0000 F20.00 
G02 X-0.1290 Y0.1500 I-0.0290 J0.0000 F20.00 
G01 X-0.1000 Y0.1500 
G01 Z0.1000 
(Start milling a hole)
(X-0.1000 Y0.3000, depth=-0.0320, tool_size=0.0320, hole_size=0.0700, step_size=0.0100)
G00 X-0.1000 Y0.3000 
G01 Z0.0000 F10.00 
G01 Z-0.0150 F10.00 
G01 X-0.1050 
G02 X-0.0950 Y0.3000 I0.0050 J0.0000 F20.00 
G02 X-0.1050 Y0.3000 I-0.0050 J0.0000 F20.00 
G01 X-0.1100 
G02 X-0.0900 Y0.3000 I0.0100 J0.0000 F20.00 
G02 X-0.1100 Y0.3000 I-0.0100 J0.0000 F20.00 
G01 X-0.1150 
G02 X-0.0850 Y0.3000 I0.0150 J0.0000 F20.00 
G02 X-0.1150 Y0.3000 I-0.0150 J0.0000 F20.00 
G01 X-0.1190 
G02 X-0.0810 Y0.3000 I0.0190 J0.0000 F20.00 
G02 X-0.1190 Y0.3000 I-0.0190 J0.0000 F20.00 
G01 X-0.1000 Y0.3000 
G01 Z-0.0300 F10.00 
G01 X-0.1050 
G02 X-0.0950 Y0.3000 I0.0050 J0.0000 F20.00 
G02 X-0.1050 Y0.3000 I-0.0050 J0.0000 F20.00 
G01 X-0.1100 
G02 X-0.0900 Y0.3000 I0.0100 J0.0000 F20.00 
G02 X-0.1100 Y0.3000 I-0.0100 J0.0000 F20.00 
G01 X-0.1150 
G02 X-0.0850 Y0.3000 I0.0150 J0.0000 F20.00 
G02 X-0.1150 Y0.3000 I-0.0150 J0.0000 F20.00 
G01 X-0.1190 
G02 X-0.0810 Y0.3000 I0.0190 J0.0000 F20.00 
G02 X-0.1190 Y0.3000 I-0.0190 J0.0000 F20.00 
G01 X-0.1000 Y0.3000 
G01 Z-0.0320 F10.00 
G01 X-0.1050 
G02 X-0.0950 Y0.3000 I0.0050 J0.0000 F20.00 
G02 X-0.1050 Y0.3000 I-0.0050 J0.0000 F20.00 
G01 X-0.1100 
G02 X-0.0900 Y0.3000 I0.0100 J0.0000 F20.00 
G02 X-0.1100 Y0.3000 I-0.0100 J0.0000 F20.00 
G01 X-0.1150 
G02 X-0.0850 Y0.3000 I0.0150 J0.0000 F20.00 
G02 X-0.1150 Y0.3000 I-0.0150 J0.0000 F20.00 
G01 X-0.1190 
G02 X-0.0810 Y0.3000 I0.0190 J0.0000 F20.00 
G02 X-0.1190 Y0.3000 I-0.0190 J0.0000 F20.00 
G01 X-0.1000 Y0.3000 
G01 Z0.1000 
(Start milling a hole)
(X-0.1000 Y0.4500, depth=-0.0320, tool_size=0.0320, hole_size=0.1000, step_size=0.0100)
G00 X-0.1000 Y0.4500 
G01 Z0.0000 F10.00 
G01 Z-0.0150 F10.00 
G01 X-0.1050 
G02 X-0.0950 Y0.4500 I0.0050 J0.0000 F20.00 
G02 X-0.1050 Y0.4500 I-0.0050 J0.0000 F20.00 
G01 X-0.1100 
G02 X-0.0900 Y0.4500 I0.0100 J0.0000 F20.00 
G02 X-0.1100 Y0.4500 I-0.0100 J0.0000 F20.00 
G01 X-0.1150 
G02 X-0.0850 Y0.4500 I0.0150 J0.0000 F20.00 
G02 X-0.1150 Y0.4500 I-0.0150 J0.0000 F20.00 
G01 X-0.1200 
G02 X-0.0800 Y0.4500 I0.0200 J0.0000 F20.00 
G02 X-0.1200 Y0.4500 I-0.0200 J0.0000 F20.00 
G01 X-0.1250 
G02 X-0.0750 Y0.4500 I0.0250 J0.0000 F20.00 
G02 X-0.1250 Y0.4500 I-0.0250 J0.0000 F20.00 
G01 X-0.1300 
G02 X-0.0700 Y0.4500 I0.0300 J0.0000 F20.00 
G02 X-0.1300 Y0.4500 I-0.0300 J0.0000 F20.00 
G01 X-0.1340 
G02 X-0.0660 Y0.4500 I0.0340 J0.0000 F20.00 
G02 X-0.1340 Y0.4500 I-0.0340 J0.0000 F20.00 
G01 X-0.1000 Y0.4500 
G01 Z-0.0300 F10.00 
G01 X-0.1050 
G02 X-0.0950 Y0.4500 I0.0050 J0.0000 F20.00 
G02 X-0.1050 Y0.4500 I-0.0050 J0.0000 F20.00 
G01 X-0.1100 
G02 X-0.0900 Y0.4500 I0.0100 J0.0000 F20.00 
G02 X-0.1100 Y0.4500 I-0.0100 J0.0000 F20.00 
G01 X-0.1150 
G02 X-0.0850 Y0.4500 I0.0150 J0.0000 F20.00 
G02 X-0.1150 Y0.4500 I-0.0150 J0.0000 F20.00 
G01 X-0.1200 
G02 X-0.0800 Y0.4500 I0.0200 J0.0000 F20.00 
G02 X-0.1200 Y0.4500 I-0.0200 J0.0000 F20.00 
G01 X-0.1250 
G02 X-0.0750 Y0.4500 I0.0250 J0.0000 F20.00 
G02 X-0.1250 Y0.4500 I-0.0250 J0.0000 F20.00 
G01 X-0.1300 
G02 X-0.0700 Y0.4500 I0.0300 J0.0000 F20.00 
G02 X-0.1300 Y0.4500 I-0.0300 J0.0000 F20.00 
G01 X-0.1340 
G02 X-0.0660 Y0.4500 I0.0340 J0.0000 F20.00 
G02 X-0.1340 Y0.4500 I-0.0340 J0.0000 F20.00 
G01 X-0.1000 Y0.4500 
G01 Z-0.0320 F10.00 
G01 X-0.1050 
G02 X-0.0950 Y0.4500 I0.0050 J0.0000 F20.00 
G02 X-0.1050 Y0.4500 I-0.0050 J0.0000 F20.00 
G01 X-0.1100 
G02 X-0.0900 Y0.4500 I0.0100 J0.0000 F20.00 
G02 X-0.1100 Y0.4500 I-0.0100 J0.0000 F20.00 
G01 X-0.1150 
G02 X-0.0850 Y0.4500 I0.0150 J0.0000 F20.00 
G02 X-0.1150 Y0.4500 I-0.0150 J0.0000 F20.00 
G01 X-0.1200 
G02 X-0.0800 Y0.4500 I0.0200 J0.0000 F20.00 
G02 X-0.1200 Y0.4500 I-0.0200 J0.0000 F20.00 
G01 X-0.1250 
G02 X-0.0750 Y0.4500 I0.0250 J0.0000 F20.00 
G02 X-0.1250 Y0.4500 I-0.0250 J0.0000 F20.00 
G01 X-0.1300 
G02 X-0.0700 Y0.4500 I0.0300 J0.0000 F20.00 
G02 X-0.1300 Y0.4500 I-0.0300 J0.0000 F20.00 
G01 X-0.1340 
G02 X-0.0660 Y0.4500 I0.0340 J0.0000 F20.00 
G02 X-0.1340 Y0.4500 I-0.0340 J0.0000 F20.00 
G01 X-0.1000 Y0.4500 
G01 Z0.1000 
(Start milling a hole)
(X-0.1000 Y0.6000, depth=-0.0320, tool_size=0.0320, hole_size=0.0900, step_size=0.0100)
G00 X-0.1000 Y0.6000 
G01 Z0.0000 F10.00 
G01 Z-0.0150 F10.00 
G01 X-0.1050 
G02 X-0.0950 Y0.6000 I0.0050 J0.0000 F20.00 
G02 X-0.1050 Y0.6000 I-0.0050 J0.0000 F20.00 
G01 X-0.1100 
G02 X-0.0900 Y0.6000 I0.0100 J0.0000 F20.00 
G02 X-0.1100 Y0.6000 I-0.0100 J0.0000 F20.00 
G01 X-0.1150 
G02 X-0.0850 Y0.6000 I0.0150 J0.0000 F20.00 
G02 X-0.1150 Y0.6000 I-0.0150 J0.0000 F20.00 
G01 X-0.1200 
G02 X-0.0800 Y0.6000 I0.0200 J0.0000 F20.00 
G02 X-0.1200 Y0.6000 I-0.0200 J0.0000 F20.00 
G01 X-0.1250 
G02 X-0.0750 Y0.6000 I0.0250 J0.0000 F20.00 
G02 X-0.1250 Y0.6000 I-0.0250 J0.0000 F20.00 
G01 X-0.1290 
G02 X-0.0710 Y0.6000 I0.0290 J0.0000 F20.00 
G02 X-0.1290 Y0.6000 I-0.0290 J0.0000 F20.00 
G01 X-0.1000 Y0.6000 
G01 Z-0.0300 F10.00 
G01 X-0.1050 
G02 X-0.0950 Y0.6000 I0.0050 J0.0000 F20.00 
G02 X-0.1050 Y0.6000 I-0.0050 J0.0000 F20.00 
G01 X-0.1100 
G02 X-0.0900 Y0.6000 I0.0100 J0.0000 F20.00 
G02 X-0.1100 Y0.6000 I-0.0100 J0.0000 F20.00 
G01 X-0.1150 
G02 X-0.0850 Y0.6000 I0.0150 J0.0000 F20.00 
G02 X-0.1150 Y0.6000 I-0.0150 J0.0000 F20.00 
G01 X-0.1200 
G02 X-0.0800 Y0.6000 I0.0200 J0.0000 F20.00 
G02 X-0.1200 Y0.6000 I-0.0200 J0.0000 F20.00 
G01 X-0.1250 
G02 X-0.0750 Y0.6000 I0.0250 J0.0000 F20.00 
G02 X-0.1250 Y0.6000 I-0.0250 J0.0000 F20.00 
G01 X-0.1290 
G02 X-0.0710 Y0.6000 I0.0290 J0.0000 F20.00 
G02 X-0.1290 Y0.6000 I-0.0290 J0.0000 F20.00 
G01 X-0.1000 Y0.6000 
G01 Z-0.0320 F10.00 
G01 X-0.1050 
G02 X-0.0950 Y0.6000 I0.0050 J0.0000 F20.00 
G02 X-0.1050 Y0.6000 I-0.0050 J0.0000 F20.00 
G01 X-0.1100 
G02 X-0.0900 Y0.6000 I0.0100 J0.0000 F20.00 
G02 X-0.1100 Y0.6000 I-0.0100 J0.0000 F20.00 
G01 X-0.1150 
G02 X-0.0850 Y0.6000 I0.0150 J0.0000 F20.00 
G02 X-0.1150 Y0.6000 I-0.0150 J0.0000 F20.00 
G01 X-0.1200 
G02 X-0.0800 Y0.6000 I0.0200 J0.0000 F20.00 
G02 X-0.1200 Y0.6000 I-0.0200 J0.0000 F20.00 
G01 X-0.1250 
G02 X-0.0750 Y0.6000 I0.0250 J0.0000 F20.00 
G02 X-0.1250 Y0.6000 I-0.0250 J0.0000 F20.00 
G01 X-0.1290 
G02 X-0.0710 Y0.6000 I0.0290 J0.0000 F20.00 
G02 X-0.1290 Y0.6000 I-0.0290 J0.0000 F20.00 
G01 X-0.1000 Y0.6000 
G01 Z0.1000 
(Start milling a hole)
(X-0.3000 Y0.6000, depth=-0.0320, tool_size=0.0320, hole_size=0.0394, step_size=0.0100)
G00 X-0.3000 Y0.6000 
G01 Z0.0000 F10.00 
G01 Z-0.0150 F10.00 
G01 X-0.3037 
G02 X-0.2963 Y0.6000 I0.0037 J0.0000 F20.00 
G02 X-0.3037 Y0.6000 I-0.0037 J0.0000 F20.00 
G01 X-0.3000 Y0.6000 
G01 Z-0.0300 F10.00 
G01 X-0.3037 
G02 X-0.2963 Y0.6000 I0.0037 J0.0000 F20.00 
G02 X-0.3037 Y0.6000 I-0.0037 J0.0000 F20.00 
G01 X-0.3000 Y0.6000 
G01 Z-0.0320 F10.00 
G01 X-0.3037 
G02 X-0.2963 Y0.6000 I0.0037 J0.0000 F20.00 
G02 X-0.3037 Y0.6000 I-0.0037 J0.0000 F20.00 
G01 X-0.3000 Y0.6000 
G01 Z0.1000 
(Start milling a hole)
(X-0.3000 Y0.4500, depth=-0.0320, tool_size=0.0320, hole_size=0.0335, step_size=0.0100)
G00 X-0.3000 Y0.4500 
G01 Z0.0000 F10.00 
G01 Z-0.0150 F10.00 
G01 X-0.3007 
G02 X-0.2993 Y0.4500 I0.0007 J0.0000 F20.00 
G02 X-0.3007 Y0.4500 I-0.0007 J0.0000 F20.00 
G01 X-0.3000 Y0.4500 
G01 Z-0.0300 F10.00 
G01 X-0.3007 
G02 X-0.2993 Y0.4500 I0.0007 J0.0000 F20.00 
G02 X-0.3007 Y0.4500 I-0.0007 J0.0000 F20.00 
G01 X-0.3000 Y0.4500 
G01 Z-0.0320 F10.00 
G01 X-0.3007 
G02 X-0.2993 Y0.4500 I0.0007 J0.0000 F20.00 
G02 X-0.3007 Y0.4500 I-0.0007 J0.0000 F20.00 
G01 X-0.3000 Y0.4500 
G01 Z0.1000 
(Start milling a hole)
(X-0.3000 Y0.3000, depth=-0.0320, tool_size=0.0320, hole_size=0.0600, step_size=0.0100)
G00 X-0.3000 Y0.3000 
G01 Z0.0000 F10.00 
G01 Z-0.0150 F10.00 
G01 X-0.3050 
G02 X-0.2950 Y0.3000 I0.0050 J0.0000 F20.00 
G02 X-0.3050 Y0.3000 I-0.0050 J0.0000 F20.00 
G01 X-0.3100 
G02 X-0.2900 Y0.3000 I0.0100 J0.0000 F20.00 
G02 X-0.3100 Y0.3000 I-0.0100 J0.0000 F20.00 
G01 X-0.3140 
G02 X-0.2860 Y0.3000 I0.0140 J0.0000 F20.00 
G02 X-0.3140 Y0.3000 I-0.0140 J0.0000 F20.00 
G01 X-0.3000 Y0.3000 
G01 Z-0.0300 F10.00 
G01 X-0.3050 
G02 X-0.2950 Y0.3000 I0.0050 J0.0000 F20.00 
G02 X-0.3050 Y0.3000 I-0.0050 J0.0000 F20.00 
G01 X-0.3100 
G02 X-0.2900 Y0.3000 I0.0100 J0.0000 F20.00 
G02 X-0.3100 Y0.3000 I-0.0100 J0.0000 F20.00 
G01 X-0.3140 
G02 X-0.2860 Y0.3000 I0.0140 J0.0000 F20.00 
G02 X-0.3140 Y0.3000 I-0.0140 J0.0000 F20.00 
G01 X-0.3000 Y0.3000 
G01 Z-0.0320 F10.00 
G01 X-0.3050 
G02 X-0.2950 Y0.3000 I0.0050 J0.0000 F20.00 
G02 X-0.3050 Y0.3000 I-0.0050 J0.0000 F20.00 
G01 X-0.3100 
G02 X-0.2900 Y0.3000 I0.0100 J0.0000 F20.00 
G02 X-0.3100 Y0.3000 I-0.0100 J0.0000 F20.00 
G01 X-0.3140 
G02 X-0.2860 Y0.3000 I0.0140 J0.0000 F20.00 
G02 X-0.3140 Y0.3000 I-0.0140 J0.0000 F20.00 
G01 X-0.3000 Y0.3000 
G01 Z0.1000 
(Start milling a hole)
(X-0.5000 Y0.4500, depth=-0.0320, tool_size=0.0320, hole_size=0.0335, step_size=0.0100)
G00 X-0.5000 Y0.4500 
G01 Z0.0000 F10.00 
G01 Z-0.0150 F10.00 
G01 X-0.5007 
G02 X-0.4993 Y0.4500 I0.0007 J0.0000 F20.00 
G02 X-0.5007 Y0.4500 I-0.0007 J0.0000 F20.00 
G01 X-0.5000 Y0.4500 
G01 Z-0.0300 F10.00 
G01 X-0.5007 
G02 X-0.4993 Y0.4500 I0.0007 J0.0000 F20.00 
G02 X-0.5007 Y0.4500 I-0.0007 J0.0000 F20.00 
G01 X-0.5000 Y0.4500 
G01 Z-0.0320 F10.00 
G01 X-0.5007 
G02 X-0.4993 Y0.4500 I0.0007 J0.0000 F20.00 
G02 X-0.5007 Y0.4500 I-0.0007 J0.0000 F20.00 
G01 X-0.5000 Y0.4500 
G01 Z0.1000 
(Start milling a hole)
(X-0.5000 Y0.6000, depth=-0.0320, tool_size=0.0320, hole_size=0.0394, step_size=0.0100)
G00 X-0.5000 Y0.6000 
G01 Z0.0000 F10.00 
G01 Z-0.0150 F10.00 
G01 X-0.5037 
G02 X-0.4963 Y0.6000 I0.0037 J0.0000 F20.00 
G02 X-0.5037 Y0.6000 I-0.0037 J0.0000 F20.00 
G01 X-0.5000 Y0.6000 
G01 Z-0.0300 F10.00 
G01 X-0.5037 
G02 X-0.4963 Y0.6000 I0.0037 J0.0000 F20.00 
G02 X-0.5037 Y0.6000 I-0.0037 J0.0000 F20.00 
G01 X-0.5000 Y0.6000 
G01 Z-0.0320 F10.00 
G01 X-0.5037 
G02 X-0.4963 Y0.6000 I0.0037 J0.0000 F20.00 
G02 X-0.5037 Y0.6000 I-0.0037 J0.0000 F20.00 
G01 X-0.5000 Y0.6000 
G01 Z0.1000 
(Start milling a hole)
(X-0.8500 Y0.1500, depth=-0.0320, tool_size=0.0320, hole_size=0.0600, step_size=0.0100)
G00 X-0.8500 Y0.1500 
G01 Z0.0000 F10.00 
G01 Z-0.0150 F10.00 
G01 X-0.8550 
G02 X-0.8450 Y0.1500 I0.0050 J0.0000 F20.00 
G02 X-0.8550 Y0.1500 I-0.0050 J0.0000 F20.00 
G01 X-0.8600 
G02 X-0.8400 Y0.1500 I0.0100 J0.0000 F20.00 
G02 X-0.8600 Y0.1500 I-0.0100 J0.0000 F20.00 
G01 X-0.8640 
G02 X-0.8360 Y0.1500 I0.0140 J0.0000 F20.00 
G02 X-0.8640 Y0.1500 I-0.0140 J0.0000 F20.00 
G01 X-0.8500 Y0.1500 
G01 Z-0.0300 F10.00 
G01 X-0.8550 
G02 X-0.8450 Y0.1500 I0.0050 J0.0000 F20.00 
G02 X-0.8550 Y0.1500 I-0.0050 J0.0000 F20.00 
G01 X-0.8600 
G02 X-0.8400 Y0.1500 I0.0100 J0.0000 F20.00 
G02 X-0.8600 Y0.1500 I-0.0100 J0.0000 F20.00 
G01 X-0.8640 
G02 X-0.8360 Y0.1500 I0.0140 J0.0000 F20.00 
G02 X-0.8640 Y0.1500 I-0.0140 J0.0000 F20.00 
G01 X-0.8500 Y0.1500 
G01 Z-0.0320 F10.00 
G01 X-0.8550 
G02 X-0.8450 Y0.1500 I0.0050 J0.0000 F20.00 
G02 X-0.8550 Y0.1500 I-0.0050 J0.0000 F20.00 
G01 X-0.8600 
G02 X-0.8400 Y0.1500 I0.0100 J0.0000 F20.00 
G02 X-0.8600 Y0.1500 I-0.0100 J0.0000 F20.00 
G01 X-0.8640 
G02 X-0.8360 Y0.1500 I0.0140 J0.0000 F20.00 
G02 X-0.8640 Y0.1500 I-0.0140 J0.0000 F20.00 
G01 X-0.8500 Y0.1500 
G01 Z0.1000 
(Start milling a hole)
(X-1.0000 Y0.1500, depth=-0.0320, tool_size=0.0320, hole_size=0.0500, step_size=0.0100)
G00 X-1.0000 Y0.1500 
G01 Z0.0000 F10.00 
G01 Z-0.0150 F10.00 
G01 X-1.0050 
G02 X-0.9950 Y0.1500 I0.0050 J0.0000 F20.00 
G02 X-1.0050 Y0.1500 I-0.0050 J0.0000 F20.00 
G01 X-1.0090 
G02 X-0.9910 Y0.1500 I0.0090 J0.0000 F20.00 
G02 X-1.0090 Y0.1500 I-0.0090 J0.0000 F20.00 
G01 X-1.0000 Y0.1500 
G01 Z-0.0300 F10.00 
G01 X-1.0050 
G02 X-0.9950 Y0.1500 I0.0050 J0.0000 F20.00 
G02 X-1.0050 Y0.1500 I-0.0050 J0.0000 F20.00 
G01 X-1.0090 
G02 X-0.9910 Y0.1500 I0.0090 J0.0000 F20.00 
G02 X-1.0090 Y0.1500 I-0.0090 J0.0000 F20.00 
G01 X-1.0000 Y0.1500 
G01 Z-0.0320 F10.00 
G01 X-1.0050 
G02 X-0.9950 Y0.1500 I0.0050 J0.0000 F20.00 
G02 X-1.0050 Y0.1500 I-0.0050 J0.0000 F20.00 
G01 X-1.0090 
G02 X-0.9910 Y0.1500 I0.0090 J0.0000 F20.00 
G02 X-1.0090 Y0.1500 I-0.0090 J0.0000 F20.00 
G01 X-1.0000 Y0.1500 
G01 Z0.1000 
(Tool Change Begin)
(Bottom Tool Change Begin)
M05
G00 Z1.0000 
G00 X0.0000 Y0.0000 
M06 T04  ; 0.1250 
(Bottom Tool changed)
(Tool changed)
(Tool zero begin)
(Bottom Tool zero begin)
G01 Z0.0000 F20.00 
M06 
(Bottom Tool zero end)
(Tool zero end)
G00 Z0.1000 
M03
G04 P3.000000
(Bottom Tool Change End)
(Tool Change End)
(Start milling a hole)
(X-0.5000 Y0.3000, depth=-0.0320, tool_size=0.1250, hole_size=0.2000, step_size=0.0300)
G00 X-0.5000 Y0.3000 
G01 Z0.0000 F10.00 
G01 Z-0.0300 F10.00 
G01 X-0.5150 
G02 X-0.4850 Y0.3000 I0.0150 J0.0000 F20.00 
G02 X-0.5150 Y0.3000 I-0.0150 J0.0000 F20.00 
G01 X-0.5300 
G02 X-0.4700 Y0.3000 I0.0300 J0.0000 F20.00 
G02 X-0.5300 Y0.3000 I-0.0300 J0.0000 F20.00 
G01 X-0.5375 
G02 X-0.4625 Y0.3000 I0.0375 J0.0000 F20.00 
G02 X-0.5375 Y0.3000 I-0.0375 J0.0000 F20.00 
G01 X-0.5000 Y0.3000 
G01 Z-0.0320 F10.00 
G01 X-0.5150 
G02 X-0.4850 Y0.3000 I0.0150 J0.0000 F20.00 
G02 X-0.5150 Y0.3000 I-0.0150 J0.0000 F20.00 
G01 X-0.5300 
G02 X-0.4700 Y0.3000 I0.0300 J0.0000 F20.00 
G02 X-0.5300 Y0.3000 I-0.0300 J0.0000 F20.00 
G01 X-0.5375 
G02 X-0.4625 Y0.3000 I0.0375 J0.0000 F20.00 
G02 X-0.5375 Y0.3000 I-0.0375 J0.0000 F20.00 
G01 X-0.5000 Y0.3000 
G01 Z0.1000 
(Start milling a hole)
(X-0.8500 Y0.4500, depth=-0.0320, tool_size=0.1250, hole_size=0.3750, step_size=0.0300)
G00 X-0.8500 Y0.4500 
G01 Z0.0000 F10.00 
G01 Z-0.0300 F10.00 
G01 X-0.8650 
G02 X-0.8350 Y0.4500 I0.0150 J0.0000 F20.00 
G02 X-0.8650 Y0.4500 I-0.0150 J0.0000 F20.00 
G01 X-0.8800 
G02 X-0.8200 Y0.4500 I0.0300 J0.0000 F20.00 
G02 X-0.8800 Y0.4500 I-0.0300 J0.0000 F20.00 
G01 X-0.8950 
G02 X-0.8050 Y0.4500 I0.0450 J0.0000 F20.00 
G02 X-0.8950 Y0.4500 I-0.0450 J0.0000 F20.00 
G01 X-0.9100 
G02 X-0.7900 Y0.4500 I0.0600 J0.0000 F20.00 
G02 X-0.9100 Y0.4500 I-0.0600 J0.0000 F20.00 
G01 X-0.9250 
G02 X-0.7750 Y0.4500 I0.0750 J0.0000 F20.00 
G02 X-0.9250 Y0.4500 I-0.0750 J0.0000 F20.00 
G01 X-0.9400 
G02 X-0.7600 Y0.4500 I0.0900 J0.0000 F20.00 
G02 X-0.9400 Y0.4500 I-0.0900 J0.0000 F20.00 
G01 X-0.9550 
G02 X-0.7450 Y0.4500 I0.1050 J0.0000 F20.00 
G02 X-0.9550 Y0.4500 I-0.1050 J0.0000 F20.00 
G01 X-0.9700 
G02 X-0.7300 Y0.4500 I0.1200 J0.0000 F20.00 
G02 X-0.9700 Y0.4500 I-0.1200 J0.0000 F20.00 
G01 X-0.9750 
G02 X-0.7250 Y0.4500 I0.1250 J0.0000 F20.00 
G02 X-0.9750 Y0.4500 I-0.1250 J0.0000 F20.00 
G01 X-0.8500 Y0.4500 
G01 Z-0.0320 F10.00 
G01 X-0.8650 
G02 X-0.8350 Y0.4500 I0.0150 J0.0000 F20.00 
G02 X-0.8650 Y0.4500 I-0.0150 J0.0000 F20.00 
G01 X-0.8800 
G02 X-0.8200 Y0.4500 I0.0300 J0.0000 F20.00 
G02 X-0.8800 Y0.4500 I-0.0300 J0.0000 F20.00 
G01 X-0.8950 
G02 X-0.8050 Y0.4500 I0.0450 J0.0000 F20.00 
G02 X-0.8950 Y0.4500 I-0.0450 J0.0000 F20.00 
G01 X-0.9100 
G02 X-0.7900 Y0.4500 I0.0600 J0.0000 F20.00 
G02 X-0.9100 Y0.4500 I-0.0600 J0.0000 F20.00 
G01 X-0.9250 
G02 X-0.7750 Y0.4500 I0.0750 J0.0000 F20.00 
G02 X-0.9250 Y0.4500 I-0.0750 J0.0000 F20.00 
G01 X-0.9400 
G02 X-0.7600 Y0.4500 I0.0900 J0.0000 F20.00 
G02 X-0.9400 Y0.4500 I-0.0900 J0.0000 F20.00 
G01 X-0.9550 
G02 X-0.7450 Y0.4500 I0.1050 J0.0000 F20.00 
G02 X-0.9550 Y0.4500 I-0.1050 J0.0000 F20.00 
G01 X-0.9700 
G02 X-0.7300 Y0.4500 I0.1200 J0.0000 F20.00 
G02 X-0.9700 Y0.4500 I-0.1200 J0.0000 F20.00 
G01 X-0.9750 
G02 X-0.7250 Y0.4500 I0.1250 J0.0000 F20.00 
G02 X-0.9750 Y0.4500 I-0.1250 J0.0000 F20.00 
G01 X-0.8500 Y0.4500 
G01 Z0.1000 
(Bottom Drill End)
(End of all Drill Files)
(End of every bottom file)
(End of every file)
T01 
G00 Z0.5000 
M05
M02
