(.../john/src/pcbgcode/pcb-gcode.ulp)
(Copyright 2005 - 2012 by John Johnson)
(See readme.txt for licensing terms.)
(This file generated from the board:)
(.../pcbgcode/docs/examples/drills.brd)
(Current profile is .../pcb-gcode-3.6.2.4/profiles/generic.pp  )
(This file generated 8/15/22 1:47 PM)
(Settings from pcb-machine.h)
(spindle on time = 3.0000)
(  Tool Size)
(0.0070 )
(spindle speed = 30000.0000)
(tool change at 0.0000 0.0000 1.0000 )
(feed rate xy = F20.00 )
(feed rate z  = F10.00 )
(Z Axis Settings)
(  High     Up        Down     Drill)
(0.5000 	0.1000 	-0.0070 	-0.0320 )
(Settings from pcb-defaults.h)
(isolate min = 0.0010)
(isolate max = 0.0200)
(isolate step = 0.0050)
(Generated top outlines, top drill, bottom outlines, bottom drill, )
(Unit of measure: inch)
(Beginning of every file)
(Beginning of every top file)
(Outline Begin)
(Top outline Begin)
(Inch Mode)
G20
(Absolute Coordinates)
G90
(Set XY plane for z interpolation)
G17
S30000
G00 Z0.5000 
G00 X0.0000 Y0.0000 
M03
G04 P3.000000
G00 Z0.1000 
G00 X0.0432 Y0.0455 
G01 Z-0.0070 F10.00 
G01 X0.0420 Y0.0484 F20.00 
G01 X0.0420 Y0.0516 
G01 X0.0432 Y0.0545 
G01 X0.0455 Y0.0568 
G01 X0.0484 Y0.0580 
G01 X0.2016 Y0.0580 
G01 X0.2045 Y0.0568 
G01 X0.2068 Y0.0545 
G01 X0.2080 Y0.0516 
G01 X0.2080 Y0.0484 
G01 X0.2068 Y0.0455 
G01 X0.2045 Y0.0432 
G01 X0.2016 Y0.0420 
G01 X0.0484 Y0.0420 
G01 X0.0455 Y0.0432 
G01 X0.0432 Y0.0455 
(Between Passes)
(Top between passes)
G00 Z0.1000 
G00 X0.0396 Y0.0420 
G01 Z-0.0070 F10.00 
G01 X0.0420 Y0.0396 F20.00 
G01 X0.0450 Y0.0379 
G01 X0.0483 Y0.0370 
G01 X0.2017 Y0.0370 
G01 X0.2050 Y0.0379 
G01 X0.2080 Y0.0396 
G01 X0.2104 Y0.0420 
G01 X0.2121 Y0.0450 
G01 X0.2130 Y0.0483 
G01 X0.2130 Y0.0517 
G01 X0.2121 Y0.0550 
G01 X0.2104 Y0.0580 
G01 X0.2080 Y0.0604 
G01 X0.2050 Y0.0621 
G01 X0.2017 Y0.0630 
G01 X0.0483 Y0.0630 
G01 X0.0450 Y0.0621 
G01 X0.0420 Y0.0604 
G01 X0.0396 Y0.0580 
G01 X0.0379 Y0.0550 
G01 X0.0370 Y0.0517 
G01 X0.0370 Y0.0483 
G01 X0.0379 Y0.0450 
G01 X0.0396 Y0.0420 
(Between Passes)
(Top between passes)
G00 Z0.1000 
G00 X0.0356 Y0.0389 
G01 Z-0.0070 F10.00 
G01 X0.0389 Y0.0356 F20.00 
G01 X0.0431 Y0.0332 
G01 X0.0476 Y0.0320 
G01 X0.2024 Y0.0320 
G01 X0.2069 Y0.0332 
G01 X0.2111 Y0.0356 
G01 X0.2144 Y0.0389 
G01 X0.2168 Y0.0431 
G01 X0.2180 Y0.0476 
G01 X0.2180 Y0.0524 
G01 X0.2168 Y0.0569 
G01 X0.2144 Y0.0611 
G01 X0.2111 Y0.0644 
G01 X0.2069 Y0.0668 
G01 X0.2024 Y0.0680 
G01 X0.0476 Y0.0680 
G01 X0.0431 Y0.0668 
G01 X0.0389 Y0.0644 
G01 X0.0356 Y0.0611 
G01 X0.0332 Y0.0569 
G01 X0.0320 Y0.0524 
G01 X0.0320 Y0.0476 
G01 X0.0332 Y0.0431 
G01 X0.0356 Y0.0389 
(Between Passes)
(Top between passes)
G00 Z0.1000 
G00 X0.0321 Y0.0353 
G01 Z-0.0070 F10.00 
G01 X0.0353 Y0.0321 F20.00 
G01 X0.0391 Y0.0296 
G01 X0.0433 Y0.0279 
G01 X0.0477 Y0.0270 
G01 X0.2023 Y0.0270 
G01 X0.2067 Y0.0279 
G01 X0.2109 Y0.0296 
G01 X0.2147 Y0.0321 
G01 X0.2179 Y0.0353 
G01 X0.2204 Y0.0391 
G01 X0.2221 Y0.0433 
G01 X0.2230 Y0.0477 
G01 X0.2230 Y0.0523 
G01 X0.2221 Y0.0567 
G01 X0.2204 Y0.0609 
G01 X0.2179 Y0.0647 
G01 X0.2147 Y0.0679 
G01 X0.2109 Y0.0704 
G01 X0.2067 Y0.0721 
G01 X0.2023 Y0.0730 
G01 X0.0477 Y0.0730 
G01 X0.0433 Y0.0721 
G01 X0.0391 Y0.0704 
G01 X0.0353 Y0.0679 
G01 X0.0321 Y0.0647 
G01 X0.0296 Y0.0609 
G01 X0.0279 Y0.0567 
G01 X0.0270 Y0.0523 
G01 X0.0270 Y0.0477 
G01 X0.0279 Y0.0433 
G01 X0.0296 Y0.0391 
G01 X0.0321 Y0.0353 
(Between Passes)
(Top between passes)
G00 Z0.1000 
G00 X0.0283 Y0.0322 
G01 Z-0.0070 F10.00 
G01 X0.0322 Y0.0283 F20.00 
G01 X0.0367 Y0.0252 
G01 X0.0418 Y0.0231 
G01 X0.0472 Y0.0220 
G01 X0.2028 Y0.0220 
G01 X0.2082 Y0.0231 
G01 X0.2133 Y0.0252 
G01 X0.2178 Y0.0283 
G01 X0.2217 Y0.0322 
G01 X0.2248 Y0.0367 
G01 X0.2269 Y0.0418 
G01 X0.2280 Y0.0472 
G01 X0.2280 Y0.0528 
G01 X0.2269 Y0.0582 
G01 X0.2248 Y0.0633 
G01 X0.2217 Y0.0678 
G01 X0.2178 Y0.0717 
G01 X0.2133 Y0.0748 
G01 X0.2082 Y0.0769 
G01 X0.2028 Y0.0780 
G01 X0.0472 Y0.0780 
G01 X0.0418 Y0.0769 
G01 X0.0367 Y0.0748 
G01 X0.0322 Y0.0717 
G01 X0.0283 Y0.0678 
G01 X0.0252 Y0.0633 
G01 X0.0231 Y0.0582 
G01 X0.0220 Y0.0528 
G01 X0.0220 Y0.0472 
G01 X0.0231 Y0.0418 
G01 X0.0252 Y0.0367 
G01 X0.0283 Y0.0322 
(Top outline End)
(Outline End)
(End of every top file)
(End of every file)
G00 Z0.1000 
G00 Z0.100000
G00 X0.1000 Y0.1500 
G01 Z-0.0130 F20.00 
G01 Z0.100000
(R0.1000  P1.000000)
G00 X0.3000 Y0.1500 
G01 Z-0.0130 
G01 Z0.100000
G00 X0.5000 Y0.1500 
G01 Z-0.0130 
G01 Z0.100000
G00 X0.1000 Y0.3000 
G01 Z-0.0130 
G01 Z0.100000
G00 X0.3000 Y0.3000 
G01 Z-0.0130 
G01 Z0.100000
G00 X0.5000 Y0.3000 
G01 Z-0.0130 
G01 Z0.100000
G00 X0.1000 Y0.4500 
G01 Z-0.0130 
G01 Z0.100000
G00 X0.3000 Y0.4500 
G01 Z-0.0130 
G01 Z0.100000
G00 X0.5000 Y0.4500 
G01 Z-0.0130 
G01 Z0.100000
G00 X0.1000 Y0.6000 
G01 Z-0.0130 
G01 Z0.100000
G00 X0.3000 Y0.6000 
G01 Z-0.0130 
G01 Z0.100000
G00 X0.5000 Y0.6000 
G01 Z-0.0130 
G01 Z0.100000
G00 X0.7000 Y0.1500 
G01 Z-0.0130 
G01 Z0.100000
G00 X0.8500 Y0.4500 
G01 Z-0.0130 
G01 Z0.100000
G00 X0.8500 Y0.1500 
G01 Z-0.0130 
G01 Z0.100000
G00 X1.0000 Y0.1500 
G01 Z-0.0130 
G01 Z0.100000
G00 Z0.5000 
M05
M02
