(.../john/src/pcbgcode/pcb-gcode.ulp)
(Copyright 2005 - 2012 by John Johnson)
(See readme.txt for licensing terms.)
(This file generated from the board:)
(.../pcbgcode/docs/examples/drills.brd)
(Current profile is .../pcb-gcode-3.6.2.4/profiles/generic.pp  )
(This file generated 8/16/22 11:14 AM)
(Settings from pcb-machine.h)
(spindle on time = 3.0000)
(  Tool Size)
(0.0070 )
(spindle speed = 30000.0000)
(tool change at 0.0000 0.0000 1.0000 )
(feed rate xy = F20.00 )
(feed rate z  = F10.00 )
(Z Axis Settings)
(  High     Up        Down     Drill)
(0.5000 	0.1000 	-0.0070 	-0.0320 )
(Settings from pcb-defaults.h)
(isolate min = 0.0010)
(isolate max = 0.0200)
(isolate step = 0.0050)
(Generated top outlines, top drill, bottom outlines, bottom drill, )
(Unit of measure: inch)
(Beginning of every file)
(Beginning of every bottom file)
(Outline Begin)
(Bottom outline Begin)
(Inch Mode)
G20
(Absolute Coordinates)
G90
(Set XY plane for z interpolation)
G17
S30000
G00 Z0.5000 
G00 X0.0000 Y0.0000 
M03
G04 P3.000000
G00 Z0.1000 
G00 X-0.2432 Y0.0455 
G01 Z-0.0070 F10.00 
G01 X-0.2455 Y0.0432 F20.00 
G01 X-0.2484 Y0.0420 
G01 X-0.3516 Y0.0420 
G01 X-0.3545 Y0.0432 
G01 X-0.3568 Y0.0455 
G01 X-0.3580 Y0.0484 
G01 X-0.3580 Y0.0516 
G01 X-0.3568 Y0.0545 
G01 X-0.3545 Y0.0568 
G01 X-0.3516 Y0.0580 
G01 X-0.2484 Y0.0580 
G01 X-0.2455 Y0.0568 
G01 X-0.2432 Y0.0545 
G01 X-0.2420 Y0.0516 
G01 X-0.2420 Y0.0484 
G01 X-0.2432 Y0.0455 
G00 Z0.1000 
G00 X-0.5430 Y0.4958 
G01 Z-0.0070 F10.00 
G01 X-0.5430 Y0.4958 F20.00 
G01 X-0.5489 Y0.4904 
G01 X-0.5557 Y0.4862 
G01 X-0.5631 Y0.4833 
G01 X-0.5710 Y0.4818 
G01 X-0.5790 Y0.4818 
G01 X-0.5869 Y0.4833 
G01 X-0.5943 Y0.4862 
G01 X-0.6011 Y0.4904 
G01 X-0.6070 Y0.4958 
G01 X-0.6119 Y0.5022 
G01 X-0.6154 Y0.5093 
G01 X-0.6176 Y0.5170 
G01 X-0.6184 Y0.5250 
G01 X-0.6176 Y0.5330 
G01 X-0.6154 Y0.5407 
G01 X-0.6119 Y0.5478 
G01 X-0.6070 Y0.5542 
G01 X-0.6011 Y0.5596 
G01 X-0.5943 Y0.5638 
G01 X-0.5869 Y0.5667 
G01 X-0.5790 Y0.5682 
G01 X-0.5710 Y0.5682 
G01 X-0.5631 Y0.5667 
G01 X-0.5557 Y0.5638 
G01 X-0.5489 Y0.5596 
G01 X-0.5430 Y0.5542 
G01 X-0.5381 Y0.5478 
G01 X-0.5346 Y0.5407 
G01 X-0.5324 Y0.5330 
G01 X-0.5316 Y0.5250 
G01 X-0.5324 Y0.5170 
G01 X-0.5346 Y0.5093 
G01 X-0.5381 Y0.5022 
G01 X-0.5430 Y0.4958 
G00 Z0.1000 
G00 X-0.5548 Y0.5066 
G01 Z-0.0070 F10.00 
G01 X-0.5517 Y0.5106 F20.00 
G01 X-0.5495 Y0.5151 
G01 X-0.5481 Y0.5200 
G01 X-0.5476 Y0.5250 
G01 X-0.5481 Y0.5300 
G01 X-0.5495 Y0.5349 
G01 X-0.5517 Y0.5394 
G01 X-0.5548 Y0.5434 
G01 X-0.5585 Y0.5468 
G01 X-0.5628 Y0.5495 
G01 X-0.5675 Y0.5513 
G01 X-0.5725 Y0.5522 
G01 X-0.5775 Y0.5522 
G01 X-0.5825 Y0.5513 
G01 X-0.5872 Y0.5495 
G01 X-0.5915 Y0.5468 
G01 X-0.5952 Y0.5434 
G01 X-0.5983 Y0.5394 
G01 X-0.6005 Y0.5349 
G01 X-0.6019 Y0.5300 
G01 X-0.6024 Y0.5250 
G01 X-0.6019 Y0.5200 
G01 X-0.6005 Y0.5151 
G01 X-0.5983 Y0.5106 
G01 X-0.5952 Y0.5066 
G01 X-0.5915 Y0.5032 
G01 X-0.5872 Y0.5005 
G01 X-0.5825 Y0.4987 
G01 X-0.5775 Y0.4978 
G01 X-0.5725 Y0.4978 
G01 X-0.5675 Y0.4987 
G01 X-0.5628 Y0.5005 
G01 X-0.5585 Y0.5032 
G01 X-0.5548 Y0.5066 
(Between Passes)
(Bottom between passes)
G00 Z0.1000 
G00 X-0.2396 Y0.0420 
G01 Z-0.0070 F10.00 
G01 X-0.2379 Y0.0450 F20.00 
G01 X-0.2370 Y0.0483 
G01 X-0.2370 Y0.0517 
G01 X-0.2379 Y0.0550 
G01 X-0.2396 Y0.0580 
G01 X-0.2420 Y0.0604 
G01 X-0.2450 Y0.0621 
G01 X-0.2483 Y0.0630 
G01 X-0.3517 Y0.0630 
G01 X-0.3550 Y0.0621 
G01 X-0.3580 Y0.0604 
G01 X-0.3604 Y0.0580 
G01 X-0.3621 Y0.0550 
G01 X-0.3630 Y0.0517 
G01 X-0.3630 Y0.0483 
G01 X-0.3621 Y0.0450 
G01 X-0.3604 Y0.0420 
G01 X-0.3580 Y0.0396 
G01 X-0.3550 Y0.0379 
G01 X-0.3517 Y0.0370 
G01 X-0.2483 Y0.0370 
G01 X-0.2450 Y0.0379 
G01 X-0.2420 Y0.0396 
G01 X-0.2396 Y0.0420 
G00 Z0.1000 
G00 X-0.5416 Y0.4900 
G01 Z-0.0070 F10.00 
G01 X-0.5359 Y0.4966 F20.00 
G01 X-0.5314 Y0.5040 
G01 X-0.5284 Y0.5121 
G01 X-0.5268 Y0.5207 
G01 X-0.5268 Y0.5293 
G01 X-0.5284 Y0.5379 
G01 X-0.5314 Y0.5460 
G01 X-0.5359 Y0.5534 
G01 X-0.5416 Y0.5600 
G01 X-0.5484 Y0.5654 
G01 X-0.5560 Y0.5695 
G01 X-0.5642 Y0.5721 
G01 X-0.5728 Y0.5733 
G01 X-0.5815 Y0.5729 
G01 X-0.5899 Y0.5710 
G01 X-0.5979 Y0.5676 
G01 X-0.6051 Y0.5628 
G01 X-0.6114 Y0.5568 
G01 X-0.6165 Y0.5498 
G01 X-0.6203 Y0.5420 
G01 X-0.6226 Y0.5336 
G01 X-0.6234 Y0.5250 
G01 X-0.6226 Y0.5164 
G01 X-0.6203 Y0.5080 
G01 X-0.6165 Y0.5002 
G01 X-0.6114 Y0.4932 
G01 X-0.6051 Y0.4872 
G01 X-0.5979 Y0.4824 
G01 X-0.5899 Y0.4790 
G01 X-0.5815 Y0.4771 
G01 X-0.5728 Y0.4767 
G01 X-0.5642 Y0.4779 
G01 X-0.5560 Y0.4805 
G01 X-0.5484 Y0.4846 
G01 X-0.5416 Y0.4900 
G00 Z0.1000 
G00 X-0.5596 Y0.5088 
G01 Z-0.0070 F10.00 
G01 X-0.5627 Y0.5063 F20.00 
G01 X-0.5662 Y0.5044 
G01 X-0.5700 Y0.5032 
G01 X-0.5740 Y0.5027 
G01 X-0.5780 Y0.5028 
G01 X-0.5819 Y0.5037 
G01 X-0.5856 Y0.5053 
G01 X-0.5889 Y0.5075 
G01 X-0.5918 Y0.5103 
G01 X-0.5942 Y0.5135 
G01 X-0.5959 Y0.5171 
G01 X-0.5970 Y0.5210 
G01 X-0.5974 Y0.5250 
G01 X-0.5970 Y0.5290 
G01 X-0.5959 Y0.5329 
G01 X-0.5942 Y0.5365 
G01 X-0.5918 Y0.5397 
G01 X-0.5889 Y0.5425 
G01 X-0.5856 Y0.5447 
G01 X-0.5819 Y0.5463 
G01 X-0.5780 Y0.5472 
G01 X-0.5740 Y0.5473 
G01 X-0.5700 Y0.5468 
G01 X-0.5662 Y0.5456 
G01 X-0.5627 Y0.5437 
G01 X-0.5596 Y0.5412 
G01 X-0.5569 Y0.5381 
G01 X-0.5549 Y0.5347 
G01 X-0.5535 Y0.5309 
G01 X-0.5527 Y0.5270 
G01 X-0.5527 Y0.5230 
G01 X-0.5535 Y0.5191 
G01 X-0.5549 Y0.5153 
G01 X-0.5569 Y0.5119 
G01 X-0.5596 Y0.5088 
(Between Passes)
(Bottom between passes)
G00 Z0.1000 
G00 X-0.2356 Y0.0389 
G01 Z-0.0070 F10.00 
G01 X-0.2332 Y0.0431 F20.00 
G01 X-0.2320 Y0.0476 
G01 X-0.2320 Y0.0524 
G01 X-0.2332 Y0.0569 
G01 X-0.2356 Y0.0611 
G01 X-0.2389 Y0.0644 
G01 X-0.2431 Y0.0668 
G01 X-0.2476 Y0.0680 
G01 X-0.3524 Y0.0680 
G01 X-0.3569 Y0.0668 
G01 X-0.3611 Y0.0644 
G01 X-0.3644 Y0.0611 
G01 X-0.3668 Y0.0569 
G01 X-0.3680 Y0.0524 
G01 X-0.3680 Y0.0476 
G01 X-0.3668 Y0.0431 
G01 X-0.3644 Y0.0389 
G01 X-0.3611 Y0.0356 
G01 X-0.3569 Y0.0332 
G01 X-0.3524 Y0.0320 
G01 X-0.2476 Y0.0320 
G01 X-0.2431 Y0.0332 
G01 X-0.2389 Y0.0356 
G01 X-0.2356 Y0.0389 
G00 Z0.1000 
G00 X-0.5365 Y0.4881 
G01 Z-0.0070 F10.00 
G01 X-0.5365 Y0.4881 F20.00 
G01 X-0.5308 Y0.4951 
G01 X-0.5264 Y0.5030 
G01 X-0.5234 Y0.5116 
G01 X-0.5218 Y0.5205 
G01 X-0.5218 Y0.5295 
G01 X-0.5234 Y0.5384 
G01 X-0.5264 Y0.5470 
G01 X-0.5308 Y0.5549 
G01 X-0.5365 Y0.5619 
G01 X-0.5433 Y0.5679 
G01 X-0.5510 Y0.5726 
G01 X-0.5594 Y0.5760 
G01 X-0.5682 Y0.5779 
G01 X-0.5773 Y0.5783 
G01 X-0.5862 Y0.5772 
G01 X-0.5949 Y0.5745 
G01 X-0.6030 Y0.5704 
G01 X-0.6103 Y0.5651 
G01 X-0.6165 Y0.5585 
G01 X-0.6216 Y0.5510 
G01 X-0.6253 Y0.5428 
G01 X-0.6276 Y0.5340 
G01 X-0.6284 Y0.5250 
G01 X-0.6276 Y0.5160 
G01 X-0.6253 Y0.5072 
G01 X-0.6216 Y0.4990 
G01 X-0.6165 Y0.4915 
G01 X-0.6103 Y0.4849 
G01 X-0.6030 Y0.4796 
G01 X-0.5949 Y0.4755 
G01 X-0.5862 Y0.4728 
G01 X-0.5773 Y0.4717 
G01 X-0.5682 Y0.4721 
G01 X-0.5594 Y0.4740 
G01 X-0.5510 Y0.4774 
G01 X-0.5433 Y0.4821 
G01 X-0.5365 Y0.4881 
G00 Z0.1000 
G00 X-0.5625 Y0.5130 
G01 Z-0.0070 F10.00 
G01 X-0.5647 Y0.5110 F20.00 
G01 X-0.5672 Y0.5095 
G01 X-0.5699 Y0.5084 
G01 X-0.5728 Y0.5078 
G01 X-0.5757 Y0.5077 
G01 X-0.5787 Y0.5080 
G01 X-0.5815 Y0.5089 
G01 X-0.5841 Y0.5102 
G01 X-0.5865 Y0.5120 
G01 X-0.5885 Y0.5141 
G01 X-0.5902 Y0.5165 
G01 X-0.5914 Y0.5192 
G01 X-0.5921 Y0.5221 
G01 X-0.5924 Y0.5250 
G01 X-0.5921 Y0.5279 
G01 X-0.5914 Y0.5308 
G01 X-0.5902 Y0.5335 
G01 X-0.5885 Y0.5359 
G01 X-0.5865 Y0.5380 
G01 X-0.5841 Y0.5398 
G01 X-0.5815 Y0.5411 
G01 X-0.5787 Y0.5420 
G01 X-0.5757 Y0.5423 
G01 X-0.5728 Y0.5422 
G01 X-0.5699 Y0.5416 
G01 X-0.5672 Y0.5405 
G01 X-0.5647 Y0.5390 
G01 X-0.5625 Y0.5370 
G01 X-0.5606 Y0.5347 
G01 X-0.5592 Y0.5321 
G01 X-0.5582 Y0.5294 
G01 X-0.5577 Y0.5265 
G01 X-0.5577 Y0.5235 
G01 X-0.5582 Y0.5206 
G01 X-0.5592 Y0.5179 
G01 X-0.5606 Y0.5153 
G01 X-0.5625 Y0.5130 
(Between Passes)
(Bottom between passes)
G00 Z0.1000 
G00 X-0.2321 Y0.0353 
G01 Z-0.0070 F10.00 
G01 X-0.2296 Y0.0391 F20.00 
G01 X-0.2279 Y0.0433 
G01 X-0.2270 Y0.0477 
G01 X-0.2270 Y0.0523 
G01 X-0.2279 Y0.0567 
G01 X-0.2296 Y0.0609 
G01 X-0.2321 Y0.0647 
G01 X-0.2353 Y0.0679 
G01 X-0.2391 Y0.0704 
G01 X-0.2433 Y0.0721 
G01 X-0.2477 Y0.0730 
G01 X-0.3523 Y0.0730 
G01 X-0.3567 Y0.0721 
G01 X-0.3609 Y0.0704 
G01 X-0.3647 Y0.0679 
G01 X-0.3679 Y0.0647 
G01 X-0.3704 Y0.0609 
G01 X-0.3721 Y0.0567 
G01 X-0.3730 Y0.0523 
G01 X-0.3730 Y0.0477 
G01 X-0.3721 Y0.0433 
G01 X-0.3704 Y0.0391 
G01 X-0.3679 Y0.0353 
G01 X-0.3647 Y0.0321 
G01 X-0.3609 Y0.0296 
G01 X-0.3567 Y0.0279 
G01 X-0.3523 Y0.0270 
G01 X-0.2477 Y0.0270 
G01 X-0.2433 Y0.0279 
G01 X-0.2391 Y0.0296 
G01 X-0.2353 Y0.0321 
G01 X-0.2321 Y0.0353 
G00 Z0.1000 
G00 X-0.5313 Y0.4863 
G01 Z-0.0070 F10.00 
G01 X-0.5313 Y0.4863 F20.00 
G01 X-0.5257 Y0.4938 
G01 X-0.5213 Y0.5021 
G01 X-0.5183 Y0.5110 
G01 X-0.5168 Y0.5203 
G01 X-0.5168 Y0.5297 
G01 X-0.5183 Y0.5390 
G01 X-0.5213 Y0.5479 
G01 X-0.5257 Y0.5562 
G01 X-0.5313 Y0.5637 
G01 X-0.5381 Y0.5702 
G01 X-0.5458 Y0.5755 
G01 X-0.5543 Y0.5796 
G01 X-0.5633 Y0.5822 
G01 X-0.5727 Y0.5833 
G01 X-0.5820 Y0.5829 
G01 X-0.5912 Y0.5811 
G01 X-0.6000 Y0.5777 
G01 X-0.6081 Y0.5730 
G01 X-0.6154 Y0.5671 
G01 X-0.6217 Y0.5601 
G01 X-0.6267 Y0.5521 
G01 X-0.6304 Y0.5435 
G01 X-0.6326 Y0.5344 
G01 X-0.6334 Y0.5250 
G01 X-0.6326 Y0.5156 
G01 X-0.6304 Y0.5065 
G01 X-0.6267 Y0.4979 
G01 X-0.6217 Y0.4899 
G01 X-0.6154 Y0.4829 
G01 X-0.6081 Y0.4770 
G01 X-0.6000 Y0.4723 
G01 X-0.5912 Y0.4689 
G01 X-0.5820 Y0.4671 
G01 X-0.5727 Y0.4667 
G01 X-0.5633 Y0.4678 
G01 X-0.5543 Y0.4704 
G01 X-0.5458 Y0.4745 
G01 X-0.5381 Y0.4798 
G01 X-0.5313 Y0.4863 
G00 Z0.1000 
G00 X-0.5658 Y0.5168 
G01 Z-0.0070 F10.00 
G01 X-0.5672 Y0.5154 F20.00 
G01 X-0.5688 Y0.5143 
G01 X-0.5706 Y0.5134 
G01 X-0.5725 Y0.5129 
G01 X-0.5745 Y0.5127 
G01 X-0.5765 Y0.5127 
G01 X-0.5784 Y0.5131 
G01 X-0.5803 Y0.5138 
G01 X-0.5820 Y0.5148 
G01 X-0.5836 Y0.5161 
G01 X-0.5849 Y0.5176 
G01 X-0.5859 Y0.5193 
G01 X-0.5867 Y0.5211 
G01 X-0.5872 Y0.5230 
G01 X-0.5874 Y0.5250 
G01 X-0.5872 Y0.5270 
G01 X-0.5867 Y0.5289 
G01 X-0.5859 Y0.5307 
G01 X-0.5849 Y0.5324 
G01 X-0.5836 Y0.5339 
G01 X-0.5820 Y0.5352 
G01 X-0.5803 Y0.5362 
G01 X-0.5784 Y0.5369 
G01 X-0.5765 Y0.5373 
G01 X-0.5745 Y0.5373 
G01 X-0.5725 Y0.5371 
G01 X-0.5706 Y0.5366 
G01 X-0.5688 Y0.5357 
G01 X-0.5672 Y0.5346 
G01 X-0.5658 Y0.5332 
G01 X-0.5646 Y0.5316 
G01 X-0.5636 Y0.5298 
G01 X-0.5630 Y0.5280 
G01 X-0.5627 Y0.5260 
G01 X-0.5627 Y0.5240 
G01 X-0.5630 Y0.5220 
G01 X-0.5636 Y0.5202 
G01 X-0.5646 Y0.5184 
G01 X-0.5658 Y0.5168 
(Between Passes)
(Bottom between passes)
G00 Z0.1000 
G00 X-0.2283 Y0.0322 
G01 Z-0.0070 F10.00 
G01 X-0.2252 Y0.0367 F20.00 
G01 X-0.2231 Y0.0418 
G01 X-0.2220 Y0.0472 
G01 X-0.2220 Y0.0528 
G01 X-0.2231 Y0.0582 
G01 X-0.2252 Y0.0633 
G01 X-0.2283 Y0.0678 
G01 X-0.2322 Y0.0717 
G01 X-0.2367 Y0.0748 
G01 X-0.2418 Y0.0769 
G01 X-0.2472 Y0.0780 
G01 X-0.3528 Y0.0780 
G01 X-0.3582 Y0.0769 
G01 X-0.3633 Y0.0748 
G01 X-0.3678 Y0.0717 
G01 X-0.3717 Y0.0678 
G01 X-0.3748 Y0.0633 
G01 X-0.3769 Y0.0582 
G01 X-0.3780 Y0.0528 
G01 X-0.3780 Y0.0472 
G01 X-0.3769 Y0.0418 
G01 X-0.3748 Y0.0367 
G01 X-0.3717 Y0.0322 
G01 X-0.3678 Y0.0283 
G01 X-0.3633 Y0.0252 
G01 X-0.3582 Y0.0231 
G01 X-0.3528 Y0.0220 
G01 X-0.2472 Y0.0220 
G01 X-0.2418 Y0.0231 
G01 X-0.2367 Y0.0252 
G01 X-0.2322 Y0.0283 
G01 X-0.2283 Y0.0322 
G00 Z0.1000 
G00 X-0.5302 Y0.4802 
G01 Z-0.0070 F10.00 
G01 X-0.5302 Y0.4802 F20.00 
G01 X-0.5237 Y0.4878 
G01 X-0.5185 Y0.4962 
G01 X-0.5147 Y0.5054 
G01 X-0.5124 Y0.5151 
G01 X-0.5116 Y0.5250 
G01 X-0.5124 Y0.5349 
G01 X-0.5147 Y0.5446 
G01 X-0.5185 Y0.5538 
G01 X-0.5237 Y0.5622 
G01 X-0.5302 Y0.5698 
G01 X-0.5378 Y0.5763 
G01 X-0.5462 Y0.5814 
G01 X-0.5554 Y0.5853 
G01 X-0.5651 Y0.5876 
G01 X-0.5750 Y0.5884 
G01 X-0.5849 Y0.5876 
G01 X-0.5946 Y0.5853 
G01 X-0.6038 Y0.5814 
G01 X-0.6122 Y0.5763 
G01 X-0.6198 Y0.5698 
G01 X-0.6263 Y0.5622 
G01 X-0.6314 Y0.5538 
G01 X-0.6353 Y0.5446 
G01 X-0.6376 Y0.5349 
G01 X-0.6384 Y0.5250 
G01 X-0.6376 Y0.5151 
G01 X-0.6353 Y0.5054 
G01 X-0.6314 Y0.4962 
G01 X-0.6263 Y0.4878 
G01 X-0.6198 Y0.4802 
G01 X-0.6122 Y0.4737 
G01 X-0.6038 Y0.4685 
G01 X-0.5946 Y0.4647 
G01 X-0.5849 Y0.4624 
G01 X-0.5750 Y0.4616 
G01 X-0.5651 Y0.4624 
G01 X-0.5554 Y0.4647 
G01 X-0.5462 Y0.4685 
G01 X-0.5378 Y0.4737 
G01 X-0.5302 Y0.4802 
G00 Z0.1000 
G00 X-0.5698 Y0.5198 
G01 Z-0.0070 F10.00 
G01 X-0.5707 Y0.5190 F20.00 
G01 X-0.5717 Y0.5184 
G01 X-0.5727 Y0.5180 
G01 X-0.5738 Y0.5177 
G01 X-0.5750 Y0.5176 
G01 X-0.5762 Y0.5177 
G01 X-0.5773 Y0.5180 
G01 X-0.5783 Y0.5184 
G01 X-0.5793 Y0.5190 
G01 X-0.5802 Y0.5198 
G01 X-0.5810 Y0.5207 
G01 X-0.5816 Y0.5217 
G01 X-0.5820 Y0.5227 
G01 X-0.5823 Y0.5238 
G01 X-0.5824 Y0.5250 
G01 X-0.5823 Y0.5262 
G01 X-0.5820 Y0.5273 
G01 X-0.5816 Y0.5283 
G01 X-0.5810 Y0.5293 
G01 X-0.5802 Y0.5302 
G01 X-0.5793 Y0.5310 
G01 X-0.5783 Y0.5316 
G01 X-0.5773 Y0.5320 
G01 X-0.5762 Y0.5323 
G01 X-0.5750 Y0.5324 
G01 X-0.5738 Y0.5323 
G01 X-0.5727 Y0.5320 
G01 X-0.5717 Y0.5316 
G01 X-0.5707 Y0.5310 
G01 X-0.5698 Y0.5302 
G01 X-0.5690 Y0.5293 
G01 X-0.5684 Y0.5283 
G01 X-0.5680 Y0.5273 
G01 X-0.5677 Y0.5262 
G01 X-0.5676 Y0.5250 
G01 X-0.5677 Y0.5238 
G01 X-0.5680 Y0.5227 
G01 X-0.5684 Y0.5217 
G01 X-0.5690 Y0.5207 
G01 X-0.5698 Y0.5198 
(Bottom outline End)
(Outline End)
(End of every bottom file)
(End of every file)
G00 Z0.1000 
G00 Z0.100000
G00 X-0.1000 Y0.1500 
G01 Z-0.0130 F20.00 
G01 Z0.100000
(R0.1000  P1.000000)
G00 X-0.3000 Y0.1500 
G01 Z-0.0130 
G01 Z0.100000
G00 X-0.5000 Y0.1500 
G01 Z-0.0130 
G01 Z0.100000
G00 X-0.1000 Y0.3000 
G01 Z-0.0130 
G01 Z0.100000
G00 X-0.3000 Y0.3000 
G01 Z-0.0130 
G01 Z0.100000
G00 X-0.5000 Y0.3000 
G01 Z-0.0130 
G01 Z0.100000
G00 X-0.1000 Y0.4500 
G01 Z-0.0130 
G01 Z0.100000
G00 X-0.3000 Y0.4500 
G01 Z-0.0130 
G01 Z0.100000
G00 X-0.5000 Y0.4500 
G01 Z-0.0130 
G01 Z0.100000
G00 X-0.1000 Y0.6000 
G01 Z-0.0130 
G01 Z0.100000
G00 X-0.3000 Y0.6000 
G01 Z-0.0130 
G01 Z0.100000
G00 X-0.5000 Y0.6000 
G01 Z-0.0130 
G01 Z0.100000
G00 X-0.7000 Y0.1500 
G01 Z-0.0130 
G01 Z0.100000
G00 X-0.8500 Y0.4500 
G01 Z-0.0130 
G01 Z0.100000
G00 X-0.8500 Y0.1500 
G01 Z-0.0130 
G01 Z0.100000
G00 X-1.0000 Y0.1500 
G01 Z-0.0130 
G01 Z0.100000
G00 Z0.5000 
M05
M02
