(.../john/src/pcbgcode/pcb-gcode.ulp)
(Copyright 2005 - 2012 by John Johnson)
(See readme.txt for licensing terms.)
(This file generated from the board:)
(.../pcbgcode/docs/examples/drills.brd)
(Current profile is .../pcb-gcode-3.6.2.4/profiles/generic.pp  )
(This file generated 8/16/22 11:14 AM)
(Settings from pcb-machine.h)
(spindle on time = 3.0000)
(  Tool Size)
(0.0070 )
(spindle speed = 30000.0000)
(tool change at 0.0000 0.0000 1.0000 )
(feed rate xy = F20.00 )
(feed rate z  = F10.00 )
(Z Axis Settings)
(  High     Up        Down     Drill)
(0.5000 	0.1000 	-0.0070 	-0.0320 )
(Settings from pcb-defaults.h)
(isolate min = 0.0010)
(isolate max = 0.0200)
(isolate step = 0.0050)
(Generated top outlines, top drill, bottom outlines, bottom drill, )
(Unit of measure: inch)
(Beginning of every file)
(Beginning of every top file)
(Outline Begin)
(Top outline Begin)
(Inch Mode)
G20
(Absolute Coordinates)
G90
(Set XY plane for z interpolation)
G17
S30000
G00 Z0.5000 
G00 X0.0000 Y0.0000 
M03
G04 P3.000000
G00 Z0.1000 
G00 X0.0432 Y0.0455 
G01 Z-0.0070 F10.00 
G01 X0.0420 Y0.0484 F20.00 
G01 X0.0420 Y0.0516 
G01 X0.0432 Y0.0545 
G01 X0.0455 Y0.0568 
G01 X0.0484 Y0.0580 
G01 X0.2016 Y0.0580 
G01 X0.2045 Y0.0568 
G01 X0.2068 Y0.0545 
G01 X0.2080 Y0.0516 
G01 X0.2080 Y0.0484 
G01 X0.2068 Y0.0455 
G01 X0.2045 Y0.0432 
G01 X0.2016 Y0.0420 
G01 X0.0484 Y0.0420 
G01 X0.0455 Y0.0432 
G01 X0.0432 Y0.0455 
G00 Z0.1000 
G00 X0.1932 Y0.4955 
G01 Z-0.0070 F10.00 
G01 X0.1920 Y0.4984 F20.00 
G01 X0.1920 Y0.5016 
G01 X0.1932 Y0.5045 
G01 X0.1955 Y0.5068 
G01 X0.1984 Y0.5080 
G01 X0.2016 Y0.5080 
G01 X0.2045 Y0.5068 
G01 X0.2057 Y0.5057 
G01 X0.2074 Y0.5040 
G01 X0.2113 Y0.5013 
G01 X0.2156 Y0.4993 
G01 X0.2202 Y0.4981 
G01 X0.2250 Y0.4976 
G01 X0.2298 Y0.4981 
G01 X0.2344 Y0.4993 
G01 X0.2387 Y0.5013 
G01 X0.2426 Y0.5040 
G01 X0.2460 Y0.5074 
G01 X0.2487 Y0.5113 
G01 X0.2507 Y0.5156 
G01 X0.2519 Y0.5202 
G01 X0.2524 Y0.5250 
G01 X0.2519 Y0.5298 
G01 X0.2507 Y0.5344 
G01 X0.2487 Y0.5387 
G01 X0.2460 Y0.5426 
G01 X0.2443 Y0.5443 
G01 X0.2432 Y0.5455 
G01 X0.2420 Y0.5484 
G01 X0.2420 Y0.5516 
G01 X0.2432 Y0.5545 
G01 X0.2455 Y0.5568 
G01 X0.2484 Y0.5580 
G01 X0.2516 Y0.5580 
G01 X0.2545 Y0.5568 
G01 X0.2557 Y0.5557 
G01 X0.2583 Y0.5530 
G01 X0.2627 Y0.5468 
G01 X0.2659 Y0.5399 
G01 X0.2679 Y0.5326 
G01 X0.2685 Y0.5250 
G01 X0.2679 Y0.5174 
G01 X0.2659 Y0.5101 
G01 X0.2627 Y0.5032 
G01 X0.2583 Y0.4970 
G01 X0.2530 Y0.4917 
G01 X0.2468 Y0.4873 
G01 X0.2399 Y0.4841 
G01 X0.2326 Y0.4821 
G01 X0.2250 Y0.4815 
G01 X0.2174 Y0.4821 
G01 X0.2101 Y0.4841 
G01 X0.2032 Y0.4873 
G01 X0.1970 Y0.4917 
G01 X0.1943 Y0.4943 
G01 X0.1932 Y0.4955 
G00 Z0.1000 
G00 X0.1795 Y0.5182 
G01 Z-0.0070 F10.00 
G01 X0.1766 Y0.5170 F20.00 
G01 X0.1734 Y0.5170 
G01 X0.1705 Y0.5182 
G01 X0.1682 Y0.5205 
G01 X0.1670 Y0.5234 
G01 X0.1670 Y0.5285 
G01 X0.1684 Y0.5353 
G01 X0.1713 Y0.5416 
G01 X0.1753 Y0.5472 
G01 X0.1805 Y0.5518 
G01 X0.1865 Y0.5553 
G01 X0.1931 Y0.5575 
G01 X0.2000 Y0.5582 
G01 X0.2069 Y0.5575 
G01 X0.2135 Y0.5553 
G01 X0.2195 Y0.5518 
G01 X0.2247 Y0.5472 
G01 X0.2287 Y0.5416 
G01 X0.2316 Y0.5353 
G01 X0.2330 Y0.5285 
G01 X0.2330 Y0.5234 
G01 X0.2318 Y0.5205 
G01 X0.2295 Y0.5182 
G01 X0.2266 Y0.5170 
G01 X0.2234 Y0.5170 
G01 X0.2205 Y0.5182 
G01 X0.2182 Y0.5205 
G01 X0.2170 Y0.5234 
G01 X0.2170 Y0.5250 
G01 X0.2169 Y0.5268 
G01 X0.2162 Y0.5303 
G01 X0.2147 Y0.5335 
G01 X0.2126 Y0.5364 
G01 X0.2100 Y0.5388 
G01 X0.2069 Y0.5405 
G01 X0.2035 Y0.5416 
G01 X0.2000 Y0.5420 
G01 X0.1965 Y0.5416 
G01 X0.1931 Y0.5405 
G01 X0.1900 Y0.5388 
G01 X0.1874 Y0.5364 
G01 X0.1853 Y0.5335 
G01 X0.1838 Y0.5303 
G01 X0.1831 Y0.5268 
G01 X0.1830 Y0.5250 
G01 X0.1830 Y0.5234 
G01 X0.1818 Y0.5205 
G01 X0.1795 Y0.5182 
G00 Z0.1000 
G00 X0.1932 Y0.6205 
G01 Z-0.0070 F10.00 
G01 X0.1920 Y0.6234 F20.00 
G01 X0.1920 Y0.6266 
G01 X0.1932 Y0.6295 
G01 X0.1943 Y0.6307 
G01 X0.1965 Y0.6329 
G01 X0.2019 Y0.6361 
G01 X0.2078 Y0.6379 
G01 X0.2141 Y0.6383 
G01 X0.2202 Y0.6372 
G01 X0.2259 Y0.6346 
G01 X0.2308 Y0.6308 
G01 X0.2346 Y0.6259 
G01 X0.2372 Y0.6202 
G01 X0.2383 Y0.6141 
G01 X0.2379 Y0.6078 
G01 X0.2361 Y0.6019 
G01 X0.2329 Y0.5965 
G01 X0.2307 Y0.5943 
G01 X0.2295 Y0.5932 
G01 X0.2266 Y0.5920 
G01 X0.2234 Y0.5920 
G01 X0.2205 Y0.5932 
G01 X0.2182 Y0.5955 
G01 X0.2170 Y0.5984 
G01 X0.2170 Y0.6016 
G01 X0.2182 Y0.6045 
G01 X0.2193 Y0.6057 
G01 X0.2201 Y0.6065 
G01 X0.2213 Y0.6085 
G01 X0.2220 Y0.6108 
G01 X0.2222 Y0.6131 
G01 X0.2217 Y0.6154 
G01 X0.2208 Y0.6175 
G01 X0.2193 Y0.6193 
G01 X0.2175 Y0.6208 
G01 X0.2154 Y0.6217 
G01 X0.2131 Y0.6222 
G01 X0.2108 Y0.6220 
G01 X0.2085 Y0.6213 
G01 X0.2065 Y0.6201 
G01 X0.2057 Y0.6193 
G01 X0.2045 Y0.6182 
G01 X0.2016 Y0.6170 
G01 X0.1984 Y0.6170 
G01 X0.1955 Y0.6182 
G01 X0.1932 Y0.6205 
G00 Z0.1000 
G00 X0.3682 Y0.6205 
G01 Z-0.0070 F10.00 
G01 X0.3670 Y0.6234 F20.00 
G01 X0.3670 Y0.6266 
G01 X0.3682 Y0.6295 
G01 X0.3693 Y0.6307 
G01 X0.3722 Y0.6335 
G01 X0.3788 Y0.6380 
G01 X0.3862 Y0.6413 
G01 X0.3940 Y0.6431 
G01 X0.4020 Y0.6435 
G01 X0.4100 Y0.6424 
G01 X0.4176 Y0.6398 
G01 X0.4246 Y0.6359 
G01 X0.4308 Y0.6308 
G01 X0.4359 Y0.6246 
G01 X0.4398 Y0.6176 
G01 X0.4424 Y0.6100 
G01 X0.4435 Y0.6020 
G01 X0.4431 Y0.5940 
G01 X0.4413 Y0.5862 
G01 X0.4380 Y0.5788 
G01 X0.4335 Y0.5722 
G01 X0.4307 Y0.5693 
G01 X0.4295 Y0.5682 
G01 X0.4266 Y0.5670 
G01 X0.4234 Y0.5670 
G01 X0.4205 Y0.5682 
G01 X0.4182 Y0.5705 
G01 X0.4170 Y0.5734 
G01 X0.4170 Y0.5766 
G01 X0.4182 Y0.5795 
G01 X0.4193 Y0.5807 
G01 X0.4210 Y0.5825 
G01 X0.4239 Y0.5867 
G01 X0.4259 Y0.5913 
G01 X0.4271 Y0.5962 
G01 X0.4273 Y0.6013 
G01 X0.4266 Y0.6063 
G01 X0.4250 Y0.6110 
G01 X0.4226 Y0.6155 
G01 X0.4193 Y0.6193 
G01 X0.4155 Y0.6226 
G01 X0.4110 Y0.6250 
G01 X0.4063 Y0.6266 
G01 X0.4013 Y0.6273 
G01 X0.3962 Y0.6271 
G01 X0.3913 Y0.6259 
G01 X0.3867 Y0.6239 
G01 X0.3825 Y0.6210 
G01 X0.3807 Y0.6193 
G01 X0.3795 Y0.6182 
G01 X0.3766 Y0.6170 
G01 X0.3734 Y0.6170 
G01 X0.3705 Y0.6182 
G01 X0.3682 Y0.6205 
G00 Z0.1000 
G00 X0.3681 Y0.5825 
G01 Z-0.0070 F10.00 
G01 X0.3750 Y0.5832 F20.00 
G01 X0.3819 Y0.5825 
G01 X0.3885 Y0.5803 
G01 X0.3945 Y0.5768 
G01 X0.3997 Y0.5722 
G01 X0.4037 Y0.5666 
G01 X0.4066 Y0.5603 
G01 X0.4080 Y0.5535 
G01 X0.4080 Y0.5484 
G01 X0.4068 Y0.5455 
G01 X0.4067 Y0.5454 
G01 X0.4057 Y0.5443 
G01 X0.4040 Y0.5425 
G01 X0.4012 Y0.5384 
G01 X0.3991 Y0.5339 
G01 X0.3980 Y0.5291 
G01 X0.3977 Y0.5242 
G01 X0.3983 Y0.5193 
G01 X0.3997 Y0.5145 
G01 X0.4020 Y0.5101 
G01 X0.4051 Y0.5062 
G01 X0.4088 Y0.5030 
G01 X0.4130 Y0.5004 
G01 X0.4177 Y0.4986 
G01 X0.4225 Y0.4978 
G01 X0.4275 Y0.4978 
G01 X0.4323 Y0.4986 
G01 X0.4370 Y0.5004 
G01 X0.4412 Y0.5030 
G01 X0.4449 Y0.5062 
G01 X0.4480 Y0.5101 
G01 X0.4503 Y0.5145 
G01 X0.4517 Y0.5193 
G01 X0.4523 Y0.5242 
G01 X0.4520 Y0.5291 
G01 X0.4509 Y0.5339 
G01 X0.4488 Y0.5384 
G01 X0.4460 Y0.5425 
G01 X0.4443 Y0.5443 
G01 X0.4432 Y0.5455 
G01 X0.4420 Y0.5484 
G01 X0.4420 Y0.5516 
G01 X0.4432 Y0.5545 
G01 X0.4455 Y0.5568 
G01 X0.4484 Y0.5580 
G01 X0.4516 Y0.5580 
G01 X0.4545 Y0.5568 
G01 X0.4557 Y0.5557 
G01 X0.4584 Y0.5529 
G01 X0.4629 Y0.5464 
G01 X0.4662 Y0.5392 
G01 X0.4680 Y0.5316 
G01 X0.4685 Y0.5237 
G01 X0.4676 Y0.5159 
G01 X0.4652 Y0.5083 
G01 X0.4616 Y0.5014 
G01 X0.4567 Y0.4952 
G01 X0.4508 Y0.4899 
G01 X0.4441 Y0.4859 
G01 X0.4367 Y0.4831 
G01 X0.4289 Y0.4816 
G01 X0.4211 Y0.4816 
G01 X0.4133 Y0.4831 
G01 X0.4059 Y0.4859 
G01 X0.3992 Y0.4899 
G01 X0.3933 Y0.4952 
G01 X0.3884 Y0.5014 
G01 X0.3848 Y0.5083 
G01 X0.3824 Y0.5159 
G01 X0.3815 Y0.5237 
G01 X0.3820 Y0.5316 
G01 X0.3838 Y0.5392 
G01 X0.3871 Y0.5464 
G01 X0.3916 Y0.5529 
G01 X0.3912 Y0.5553 
G01 X0.3897 Y0.5585 
G01 X0.3876 Y0.5614 
G01 X0.3850 Y0.5638 
G01 X0.3819 Y0.5655 
G01 X0.3785 Y0.5666 
G01 X0.3750 Y0.5670 
G01 X0.3715 Y0.5666 
G01 X0.3681 Y0.5655 
G01 X0.3650 Y0.5638 
G01 X0.3624 Y0.5614 
G01 X0.3603 Y0.5585 
G01 X0.3588 Y0.5553 
G01 X0.3581 Y0.5518 
G01 X0.3580 Y0.5500 
G01 X0.3580 Y0.5484 
G01 X0.3568 Y0.5455 
G01 X0.3545 Y0.5432 
G01 X0.3516 Y0.5420 
G01 X0.3484 Y0.5420 
G01 X0.3455 Y0.5432 
G01 X0.3432 Y0.5455 
G01 X0.3420 Y0.5484 
G01 X0.3420 Y0.5535 
G01 X0.3434 Y0.5603 
G01 X0.3463 Y0.5666 
G01 X0.3503 Y0.5722 
G01 X0.3555 Y0.5768 
G01 X0.3615 Y0.5803 
G01 X0.3681 Y0.5825 
G00 Z0.1000 
G00 X0.5346 Y0.5843 
G01 Z-0.0070 F10.00 
G01 X0.5346 Y0.5843 F20.00 
G01 X0.5324 Y0.5920 
G01 X0.5316 Y0.6000 
G01 X0.5324 Y0.6080 
G01 X0.5346 Y0.6157 
G01 X0.5381 Y0.6228 
G01 X0.5430 Y0.6292 
G01 X0.5489 Y0.6346 
G01 X0.5557 Y0.6388 
G01 X0.5631 Y0.6417 
G01 X0.5710 Y0.6432 
G01 X0.5790 Y0.6432 
G01 X0.5869 Y0.6417 
G01 X0.5943 Y0.6388 
G01 X0.6011 Y0.6346 
G01 X0.6070 Y0.6292 
G01 X0.6119 Y0.6228 
G01 X0.6154 Y0.6157 
G01 X0.6176 Y0.6080 
G01 X0.6184 Y0.6000 
G01 X0.6176 Y0.5920 
G01 X0.6154 Y0.5843 
G01 X0.6119 Y0.5772 
G01 X0.6070 Y0.5708 
G01 X0.6011 Y0.5654 
G01 X0.5943 Y0.5612 
G01 X0.5869 Y0.5583 
G01 X0.5790 Y0.5568 
G01 X0.5710 Y0.5568 
G01 X0.5631 Y0.5583 
G01 X0.5557 Y0.5612 
G01 X0.5489 Y0.5654 
G01 X0.5430 Y0.5708 
G01 X0.5381 Y0.5772 
G01 X0.5346 Y0.5843 
G00 Z0.1000 
G00 X0.5517 Y0.5856 
G01 Z-0.0070 F10.00 
G01 X0.5548 Y0.5816 F20.00 
G01 X0.5585 Y0.5782 
G01 X0.5628 Y0.5755 
G01 X0.5675 Y0.5737 
G01 X0.5725 Y0.5728 
G01 X0.5775 Y0.5728 
G01 X0.5825 Y0.5737 
G01 X0.5872 Y0.5755 
G01 X0.5915 Y0.5782 
G01 X0.5952 Y0.5816 
G01 X0.5983 Y0.5856 
G01 X0.6005 Y0.5901 
G01 X0.6019 Y0.5950 
G01 X0.6024 Y0.6000 
G01 X0.6019 Y0.6050 
G01 X0.6005 Y0.6099 
G01 X0.5983 Y0.6144 
G01 X0.5952 Y0.6184 
G01 X0.5915 Y0.6218 
G01 X0.5872 Y0.6245 
G01 X0.5825 Y0.6263 
G01 X0.5775 Y0.6272 
G01 X0.5725 Y0.6272 
G01 X0.5675 Y0.6263 
G01 X0.5628 Y0.6245 
G01 X0.5585 Y0.6218 
G01 X0.5548 Y0.6184 
G01 X0.5517 Y0.6144 
G01 X0.5495 Y0.6099 
G01 X0.5481 Y0.6050 
G01 X0.5476 Y0.6000 
G01 X0.5481 Y0.5950 
G01 X0.5495 Y0.5901 
G01 X0.5517 Y0.5856 
(Between Passes)
(Top between passes)
G00 Z0.1000 
G00 X0.0396 Y0.0420 
G01 Z-0.0070 F10.00 
G01 X0.0420 Y0.0396 F20.00 
G01 X0.0450 Y0.0379 
G01 X0.0483 Y0.0370 
G01 X0.2017 Y0.0370 
G01 X0.2050 Y0.0379 
G01 X0.2080 Y0.0396 
G01 X0.2104 Y0.0420 
G01 X0.2121 Y0.0450 
G01 X0.2130 Y0.0483 
G01 X0.2130 Y0.0517 
G01 X0.2121 Y0.0550 
G01 X0.2104 Y0.0580 
G01 X0.2080 Y0.0604 
G01 X0.2050 Y0.0621 
G01 X0.2017 Y0.0630 
G01 X0.0483 Y0.0630 
G01 X0.0450 Y0.0621 
G01 X0.0420 Y0.0604 
G01 X0.0396 Y0.0580 
G01 X0.0379 Y0.0550 
G01 X0.0370 Y0.0517 
G01 X0.0370 Y0.0483 
G01 X0.0379 Y0.0450 
G01 X0.0396 Y0.0420 
G00 Z0.1000 
G00 X0.1896 Y0.4920 
G01 Z-0.0070 F10.00 
G01 X0.1908 Y0.4908 F20.00 
G01 X0.1938 Y0.4878 
G01 X0.2007 Y0.4830 
G01 X0.2084 Y0.4794 
G01 X0.2166 Y0.4772 
G01 X0.2250 Y0.4765 
G01 X0.2334 Y0.4772 
G01 X0.2416 Y0.4794 
G01 X0.2493 Y0.4830 
G01 X0.2562 Y0.4878 
G01 X0.2622 Y0.4938 
G01 X0.2670 Y0.5007 
G01 X0.2706 Y0.5084 
G01 X0.2728 Y0.5166 
G01 X0.2735 Y0.5250 
G01 X0.2728 Y0.5334 
G01 X0.2706 Y0.5416 
G01 X0.2670 Y0.5493 
G01 X0.2622 Y0.5562 
G01 X0.2592 Y0.5592 
G01 X0.2580 Y0.5604 
G01 X0.2550 Y0.5621 
G01 X0.2517 Y0.5630 
G01 X0.2483 Y0.5630 
G01 X0.2450 Y0.5621 
G01 X0.2420 Y0.5604 
G01 X0.2396 Y0.5580 
G01 X0.2379 Y0.5550 
G01 X0.2370 Y0.5517 
G01 X0.2370 Y0.5483 
G01 X0.2379 Y0.5450 
G01 X0.2396 Y0.5420 
G01 X0.2408 Y0.5408 
G01 X0.2421 Y0.5394 
G01 X0.2444 Y0.5362 
G01 X0.2460 Y0.5326 
G01 X0.2470 Y0.5289 
G01 X0.2474 Y0.5250 
G01 X0.2470 Y0.5211 
G01 X0.2460 Y0.5174 
G01 X0.2444 Y0.5138 
G01 X0.2421 Y0.5106 
G01 X0.2394 Y0.5079 
G01 X0.2362 Y0.5056 
G01 X0.2326 Y0.5040 
G01 X0.2289 Y0.5030 
G01 X0.2250 Y0.5026 
G01 X0.2211 Y0.5030 
G01 X0.2174 Y0.5040 
G01 X0.2138 Y0.5056 
G01 X0.2106 Y0.5079 
G01 X0.2092 Y0.5092 
G01 X0.2080 Y0.5104 
G01 X0.2050 Y0.5121 
G01 X0.2017 Y0.5130 
G01 X0.1983 Y0.5130 
G01 X0.1950 Y0.5121 
G01 X0.1920 Y0.5104 
G01 X0.1896 Y0.5080 
G01 X0.1879 Y0.5050 
G01 X0.1870 Y0.5017 
G01 X0.1870 Y0.4983 
G01 X0.1879 Y0.4950 
G01 X0.1896 Y0.4920 
G00 Z0.1000 
G00 X0.1830 Y0.5146 
G01 Z-0.0070 F10.00 
G01 X0.1854 Y0.5170 F20.00 
G01 X0.1871 Y0.5200 
G01 X0.1880 Y0.5233 
G01 X0.1880 Y0.5250 
G01 X0.1881 Y0.5262 
G01 X0.1885 Y0.5285 
G01 X0.1894 Y0.5307 
G01 X0.1907 Y0.5326 
G01 X0.1924 Y0.5343 
G01 X0.1943 Y0.5356 
G01 X0.1965 Y0.5365 
G01 X0.1988 Y0.5369 
G01 X0.2012 Y0.5369 
G01 X0.2035 Y0.5365 
G01 X0.2057 Y0.5356 
G01 X0.2076 Y0.5343 
G01 X0.2093 Y0.5326 
G01 X0.2106 Y0.5307 
G01 X0.2115 Y0.5285 
G01 X0.2119 Y0.5262 
G01 X0.2120 Y0.5250 
G01 X0.2120 Y0.5233 
G01 X0.2129 Y0.5200 
G01 X0.2146 Y0.5170 
G01 X0.2170 Y0.5146 
G01 X0.2200 Y0.5129 
G01 X0.2233 Y0.5120 
G01 X0.2267 Y0.5120 
G01 X0.2300 Y0.5129 
G01 X0.2330 Y0.5146 
G01 X0.2354 Y0.5170 
G01 X0.2371 Y0.5200 
G01 X0.2380 Y0.5233 
G01 X0.2380 Y0.5287 
G01 X0.2365 Y0.5361 
G01 X0.2337 Y0.5430 
G01 X0.2295 Y0.5492 
G01 X0.2242 Y0.5545 
G01 X0.2180 Y0.5587 
G01 X0.2111 Y0.5615 
G01 X0.2037 Y0.5630 
G01 X0.1963 Y0.5630 
G01 X0.1889 Y0.5615 
G01 X0.1820 Y0.5587 
G01 X0.1758 Y0.5545 
G01 X0.1705 Y0.5492 
G01 X0.1663 Y0.5430 
G01 X0.1635 Y0.5361 
G01 X0.1620 Y0.5287 
G01 X0.1620 Y0.5233 
G01 X0.1629 Y0.5200 
G01 X0.1646 Y0.5170 
G01 X0.1670 Y0.5146 
G01 X0.1700 Y0.5129 
G01 X0.1733 Y0.5120 
G01 X0.1767 Y0.5120 
G01 X0.1800 Y0.5129 
G01 X0.1830 Y0.5146 
G00 Z0.1000 
G00 X0.1896 Y0.6170 
G01 Z-0.0070 F10.00 
G01 X0.1920 Y0.6146 F20.00 
G01 X0.1950 Y0.6129 
G01 X0.1983 Y0.6120 
G01 X0.2017 Y0.6120 
G01 X0.2050 Y0.6129 
G01 X0.2080 Y0.6146 
G01 X0.2092 Y0.6158 
G01 X0.2096 Y0.6162 
G01 X0.2105 Y0.6167 
G01 X0.2115 Y0.6171 
G01 X0.2125 Y0.6172 
G01 X0.2135 Y0.6171 
G01 X0.2145 Y0.6167 
G01 X0.2154 Y0.6162 
G01 X0.2162 Y0.6154 
G01 X0.2167 Y0.6145 
G01 X0.2171 Y0.6135 
G01 X0.2172 Y0.6125 
G01 X0.2171 Y0.6115 
G01 X0.2167 Y0.6105 
G01 X0.2162 Y0.6096 
G01 X0.2158 Y0.6092 
G01 X0.2146 Y0.6080 
G01 X0.2129 Y0.6050 
G01 X0.2120 Y0.6017 
G01 X0.2120 Y0.5983 
G01 X0.2129 Y0.5950 
G01 X0.2146 Y0.5920 
G01 X0.2170 Y0.5896 
G01 X0.2200 Y0.5879 
G01 X0.2233 Y0.5870 
G01 X0.2267 Y0.5870 
G01 X0.2300 Y0.5879 
G01 X0.2330 Y0.5896 
G01 X0.2342 Y0.5908 
G01 X0.2366 Y0.5933 
G01 X0.2403 Y0.5991 
G01 X0.2426 Y0.6056 
G01 X0.2434 Y0.6125 
G01 X0.2426 Y0.6194 
G01 X0.2403 Y0.6259 
G01 X0.2366 Y0.6317 
G01 X0.2317 Y0.6366 
G01 X0.2259 Y0.6403 
G01 X0.2194 Y0.6426 
G01 X0.2125 Y0.6434 
G01 X0.2056 Y0.6426 
G01 X0.1991 Y0.6403 
G01 X0.1933 Y0.6366 
G01 X0.1908 Y0.6342 
G01 X0.1896 Y0.6330 
G01 X0.1879 Y0.6300 
G01 X0.1870 Y0.6267 
G01 X0.1870 Y0.6233 
G01 X0.1879 Y0.6200 
G01 X0.1896 Y0.6170 
G00 Z0.1000 
G00 X0.3646 Y0.6170 
G01 Z-0.0070 F10.00 
G01 X0.3670 Y0.6146 F20.00 
G01 X0.3700 Y0.6129 
G01 X0.3733 Y0.6120 
G01 X0.3767 Y0.6120 
G01 X0.3800 Y0.6129 
G01 X0.3830 Y0.6146 
G01 X0.3842 Y0.6158 
G01 X0.3856 Y0.6171 
G01 X0.3888 Y0.6194 
G01 X0.3924 Y0.6210 
G01 X0.3961 Y0.6220 
G01 X0.4000 Y0.6224 
G01 X0.4039 Y0.6220 
G01 X0.4076 Y0.6210 
G01 X0.4112 Y0.6194 
G01 X0.4144 Y0.6171 
G01 X0.4171 Y0.6144 
G01 X0.4194 Y0.6112 
G01 X0.4210 Y0.6076 
G01 X0.4220 Y0.6039 
G01 X0.4224 Y0.6000 
G01 X0.4220 Y0.5961 
G01 X0.4210 Y0.5924 
G01 X0.4194 Y0.5888 
G01 X0.4171 Y0.5856 
G01 X0.4158 Y0.5842 
G01 X0.4146 Y0.5830 
G01 X0.4129 Y0.5800 
G01 X0.4120 Y0.5767 
G01 X0.4120 Y0.5733 
G01 X0.4129 Y0.5700 
G01 X0.4146 Y0.5670 
G01 X0.4170 Y0.5646 
G01 X0.4200 Y0.5629 
G01 X0.4233 Y0.5620 
G01 X0.4267 Y0.5620 
G01 X0.4300 Y0.5629 
G01 X0.4330 Y0.5646 
G01 X0.4342 Y0.5658 
G01 X0.4372 Y0.5688 
G01 X0.4420 Y0.5757 
G01 X0.4456 Y0.5834 
G01 X0.4478 Y0.5916 
G01 X0.4485 Y0.6000 
G01 X0.4478 Y0.6084 
G01 X0.4456 Y0.6166 
G01 X0.4420 Y0.6243 
G01 X0.4372 Y0.6312 
G01 X0.4312 Y0.6372 
G01 X0.4243 Y0.6420 
G01 X0.4166 Y0.6456 
G01 X0.4084 Y0.6478 
G01 X0.4000 Y0.6485 
G01 X0.3916 Y0.6478 
G01 X0.3834 Y0.6456 
G01 X0.3757 Y0.6420 
G01 X0.3688 Y0.6372 
G01 X0.3658 Y0.6342 
G01 X0.3646 Y0.6330 
G01 X0.3629 Y0.6300 
G01 X0.3620 Y0.6267 
G01 X0.3620 Y0.6233 
G01 X0.3629 Y0.6200 
G01 X0.3646 Y0.6170 
G00 Z0.1000 
G00 X0.3639 Y0.5865 
G01 Z-0.0070 F10.00 
G01 X0.3639 Y0.5865 F20.00 
G01 X0.3570 Y0.5837 
G01 X0.3508 Y0.5795 
G01 X0.3455 Y0.5742 
G01 X0.3413 Y0.5680 
G01 X0.3385 Y0.5611 
G01 X0.3370 Y0.5537 
G01 X0.3370 Y0.5483 
G01 X0.3379 Y0.5450 
G01 X0.3396 Y0.5420 
G01 X0.3420 Y0.5396 
G01 X0.3450 Y0.5379 
G01 X0.3483 Y0.5370 
G01 X0.3517 Y0.5370 
G01 X0.3550 Y0.5379 
G01 X0.3580 Y0.5396 
G01 X0.3604 Y0.5420 
G01 X0.3621 Y0.5450 
G01 X0.3630 Y0.5483 
G01 X0.3630 Y0.5500 
G01 X0.3631 Y0.5512 
G01 X0.3635 Y0.5535 
G01 X0.3644 Y0.5557 
G01 X0.3657 Y0.5576 
G01 X0.3674 Y0.5593 
G01 X0.3693 Y0.5606 
G01 X0.3715 Y0.5615 
G01 X0.3738 Y0.5619 
G01 X0.3762 Y0.5619 
G01 X0.3785 Y0.5615 
G01 X0.3807 Y0.5606 
G01 X0.3826 Y0.5593 
G01 X0.3843 Y0.5576 
G01 X0.3856 Y0.5557 
G01 X0.3863 Y0.5540 
G01 X0.3830 Y0.5493 
G01 X0.3794 Y0.5416 
G01 X0.3772 Y0.5334 
G01 X0.3765 Y0.5250 
G01 X0.3772 Y0.5166 
G01 X0.3794 Y0.5084 
G01 X0.3830 Y0.5007 
G01 X0.3878 Y0.4938 
G01 X0.3938 Y0.4878 
G01 X0.4007 Y0.4830 
G01 X0.4084 Y0.4794 
G01 X0.4166 Y0.4772 
G01 X0.4250 Y0.4765 
G01 X0.4334 Y0.4772 
G01 X0.4416 Y0.4794 
G01 X0.4493 Y0.4830 
G01 X0.4562 Y0.4878 
G01 X0.4622 Y0.4938 
G01 X0.4670 Y0.5007 
G01 X0.4706 Y0.5084 
G01 X0.4728 Y0.5166 
G01 X0.4735 Y0.5250 
G01 X0.4728 Y0.5334 
G01 X0.4706 Y0.5416 
G01 X0.4670 Y0.5493 
G01 X0.4622 Y0.5562 
G01 X0.4592 Y0.5592 
G01 X0.4580 Y0.5604 
G01 X0.4550 Y0.5621 
G01 X0.4517 Y0.5630 
G01 X0.4483 Y0.5630 
G01 X0.4450 Y0.5621 
G01 X0.4420 Y0.5604 
G01 X0.4396 Y0.5580 
G01 X0.4379 Y0.5550 
G01 X0.4370 Y0.5517 
G01 X0.4370 Y0.5483 
G01 X0.4379 Y0.5450 
G01 X0.4396 Y0.5420 
G01 X0.4408 Y0.5408 
G01 X0.4421 Y0.5394 
G01 X0.4444 Y0.5362 
G01 X0.4460 Y0.5326 
G01 X0.4470 Y0.5289 
G01 X0.4474 Y0.5250 
G01 X0.4470 Y0.5211 
G01 X0.4460 Y0.5174 
G01 X0.4444 Y0.5138 
G01 X0.4421 Y0.5106 
G01 X0.4394 Y0.5079 
G01 X0.4362 Y0.5056 
G01 X0.4326 Y0.5040 
G01 X0.4289 Y0.5030 
G01 X0.4250 Y0.5026 
G01 X0.4211 Y0.5030 
G01 X0.4174 Y0.5040 
G01 X0.4138 Y0.5056 
G01 X0.4106 Y0.5079 
G01 X0.4079 Y0.5106 
G01 X0.4056 Y0.5138 
G01 X0.4040 Y0.5174 
G01 X0.4030 Y0.5211 
G01 X0.4026 Y0.5250 
G01 X0.4030 Y0.5289 
G01 X0.4040 Y0.5326 
G01 X0.4056 Y0.5362 
G01 X0.4079 Y0.5394 
G01 X0.4092 Y0.5408 
G01 X0.4104 Y0.5420 
G01 X0.4121 Y0.5450 
G01 X0.4130 Y0.5483 
G01 X0.4130 Y0.5537 
G01 X0.4115 Y0.5611 
G01 X0.4087 Y0.5680 
G01 X0.4045 Y0.5742 
G01 X0.3992 Y0.5795 
G01 X0.3930 Y0.5837 
G01 X0.3861 Y0.5865 
G01 X0.3787 Y0.5880 
G01 X0.3713 Y0.5880 
G01 X0.3639 Y0.5865 
G00 Z0.1000 
G00 X0.5284 Y0.5871 
G01 Z-0.0070 F10.00 
G01 X0.5314 Y0.5790 F20.00 
G01 X0.5359 Y0.5716 
G01 X0.5416 Y0.5650 
G01 X0.5484 Y0.5596 
G01 X0.5560 Y0.5555 
G01 X0.5642 Y0.5529 
G01 X0.5728 Y0.5517 
G01 X0.5815 Y0.5521 
G01 X0.5899 Y0.5540 
G01 X0.5979 Y0.5574 
G01 X0.6051 Y0.5622 
G01 X0.6114 Y0.5682 
G01 X0.6165 Y0.5752 
G01 X0.6203 Y0.5830 
G01 X0.6226 Y0.5914 
G01 X0.6234 Y0.6000 
G01 X0.6226 Y0.6086 
G01 X0.6203 Y0.6170 
G01 X0.6165 Y0.6248 
G01 X0.6114 Y0.6318 
G01 X0.6051 Y0.6378 
G01 X0.5979 Y0.6426 
G01 X0.5899 Y0.6460 
G01 X0.5815 Y0.6479 
G01 X0.5728 Y0.6483 
G01 X0.5642 Y0.6471 
G01 X0.5560 Y0.6445 
G01 X0.5484 Y0.6404 
G01 X0.5416 Y0.6350 
G01 X0.5359 Y0.6284 
G01 X0.5314 Y0.6210 
G01 X0.5284 Y0.6129 
G01 X0.5268 Y0.6043 
G01 X0.5268 Y0.5957 
G01 X0.5284 Y0.5871 
G00 Z0.1000 
G00 X0.5569 Y0.5869 
G01 Z-0.0070 F10.00 
G01 X0.5549 Y0.5903 F20.00 
G01 X0.5535 Y0.5941 
G01 X0.5527 Y0.5980 
G01 X0.5527 Y0.6020 
G01 X0.5535 Y0.6059 
G01 X0.5549 Y0.6097 
G01 X0.5569 Y0.6131 
G01 X0.5596 Y0.6162 
G01 X0.5627 Y0.6187 
G01 X0.5662 Y0.6206 
G01 X0.5700 Y0.6218 
G01 X0.5740 Y0.6223 
G01 X0.5780 Y0.6222 
G01 X0.5819 Y0.6213 
G01 X0.5856 Y0.6197 
G01 X0.5889 Y0.6175 
G01 X0.5918 Y0.6147 
G01 X0.5942 Y0.6115 
G01 X0.5959 Y0.6079 
G01 X0.5970 Y0.6040 
G01 X0.5974 Y0.6000 
G01 X0.5970 Y0.5960 
G01 X0.5959 Y0.5921 
G01 X0.5942 Y0.5885 
G01 X0.5918 Y0.5853 
G01 X0.5889 Y0.5825 
G01 X0.5856 Y0.5803 
G01 X0.5819 Y0.5787 
G01 X0.5780 Y0.5778 
G01 X0.5740 Y0.5777 
G01 X0.5700 Y0.5782 
G01 X0.5662 Y0.5794 
G01 X0.5627 Y0.5813 
G01 X0.5596 Y0.5838 
G01 X0.5569 Y0.5869 
(Between Passes)
(Top between passes)
G00 Z0.1000 
G00 X0.0356 Y0.0389 
G01 Z-0.0070 F10.00 
G01 X0.0389 Y0.0356 F20.00 
G01 X0.0431 Y0.0332 
G01 X0.0476 Y0.0320 
G01 X0.2024 Y0.0320 
G01 X0.2069 Y0.0332 
G01 X0.2111 Y0.0356 
G01 X0.2144 Y0.0389 
G01 X0.2168 Y0.0431 
G01 X0.2180 Y0.0476 
G01 X0.2180 Y0.0524 
G01 X0.2168 Y0.0569 
G01 X0.2144 Y0.0611 
G01 X0.2111 Y0.0644 
G01 X0.2069 Y0.0668 
G01 X0.2024 Y0.0680 
G01 X0.0476 Y0.0680 
G01 X0.0431 Y0.0668 
G01 X0.0389 Y0.0644 
G01 X0.0356 Y0.0611 
G01 X0.0332 Y0.0569 
G01 X0.0320 Y0.0524 
G01 X0.0320 Y0.0476 
G01 X0.0332 Y0.0431 
G01 X0.0356 Y0.0389 
G00 Z0.1000 
G00 X0.1856 Y0.4889 
G01 Z-0.0070 F10.00 
G01 X0.1873 Y0.4873 F20.00 
G01 X0.1904 Y0.4841 
G01 X0.1976 Y0.4790 
G01 X0.2055 Y0.4751 
G01 X0.2140 Y0.4726 
G01 X0.2228 Y0.4715 
G01 X0.2316 Y0.4719 
G01 X0.2403 Y0.4737 
G01 X0.2485 Y0.4769 
G01 X0.2561 Y0.4814 
G01 X0.2629 Y0.4871 
G01 X0.2686 Y0.4939 
G01 X0.2731 Y0.5015 
G01 X0.2763 Y0.5097 
G01 X0.2781 Y0.5184 
G01 X0.2785 Y0.5272 
G01 X0.2774 Y0.5360 
G01 X0.2749 Y0.5445 
G01 X0.2710 Y0.5524 
G01 X0.2659 Y0.5596 
G01 X0.2627 Y0.5627 
G01 X0.2611 Y0.5644 
G01 X0.2569 Y0.5668 
G01 X0.2524 Y0.5680 
G01 X0.2476 Y0.5680 
G01 X0.2431 Y0.5668 
G01 X0.2389 Y0.5644 
G01 X0.2356 Y0.5611 
G01 X0.2332 Y0.5569 
G01 X0.2323 Y0.5534 
G01 X0.2291 Y0.5569 
G01 X0.2227 Y0.5617 
G01 X0.2156 Y0.5653 
G01 X0.2079 Y0.5674 
G01 X0.2000 Y0.5682 
G01 X0.1921 Y0.5674 
G01 X0.1844 Y0.5653 
G01 X0.1773 Y0.5617 
G01 X0.1709 Y0.5569 
G01 X0.1655 Y0.5510 
G01 X0.1613 Y0.5442 
G01 X0.1585 Y0.5368 
G01 X0.1570 Y0.5290 
G01 X0.1570 Y0.5226 
G01 X0.1582 Y0.5181 
G01 X0.1606 Y0.5139 
G01 X0.1639 Y0.5106 
G01 X0.1681 Y0.5082 
G01 X0.1726 Y0.5070 
G01 X0.1774 Y0.5070 
G01 X0.1819 Y0.5082 
G01 X0.1850 Y0.5100 
G01 X0.1832 Y0.5069 
G01 X0.1820 Y0.5024 
G01 X0.1820 Y0.4976 
G01 X0.1832 Y0.4931 
G01 X0.1856 Y0.4889 
G00 Z0.1000 
G00 X0.1900 Y0.5150 
G01 Z-0.0070 F10.00 
G01 X0.1918 Y0.5181 F20.00 
G01 X0.1930 Y0.5226 
G01 X0.1930 Y0.5250 
G01 X0.1930 Y0.5256 
G01 X0.1933 Y0.5269 
G01 X0.1937 Y0.5281 
G01 X0.1944 Y0.5292 
G01 X0.1953 Y0.5302 
G01 X0.1963 Y0.5310 
G01 X0.1975 Y0.5315 
G01 X0.1987 Y0.5319 
G01 X0.2000 Y0.5320 
G01 X0.2013 Y0.5319 
G01 X0.2025 Y0.5315 
G01 X0.2037 Y0.5310 
G01 X0.2047 Y0.5302 
G01 X0.2056 Y0.5292 
G01 X0.2063 Y0.5281 
G01 X0.2067 Y0.5269 
G01 X0.2070 Y0.5256 
G01 X0.2070 Y0.5250 
G01 X0.2070 Y0.5226 
G01 X0.2082 Y0.5181 
G01 X0.2100 Y0.5150 
G01 X0.2069 Y0.5168 
G01 X0.2024 Y0.5180 
G01 X0.1976 Y0.5180 
G01 X0.1931 Y0.5168 
G01 X0.1900 Y0.5150 
G00 Z0.1000 
G00 X0.2106 Y0.5889 
G01 Z-0.0070 F10.00 
G01 X0.2139 Y0.5856 F20.00 
G01 X0.2181 Y0.5832 
G01 X0.2226 Y0.5820 
G01 X0.2274 Y0.5820 
G01 X0.2319 Y0.5832 
G01 X0.2361 Y0.5856 
G01 X0.2377 Y0.5873 
G01 X0.2404 Y0.5899 
G01 X0.2445 Y0.5962 
G01 X0.2472 Y0.6032 
G01 X0.2483 Y0.6106 
G01 X0.2479 Y0.6181 
G01 X0.2460 Y0.6254 
G01 X0.2426 Y0.6320 
G01 X0.2379 Y0.6379 
G01 X0.2320 Y0.6426 
G01 X0.2254 Y0.6460 
G01 X0.2181 Y0.6479 
G01 X0.2106 Y0.6483 
G01 X0.2032 Y0.6472 
G01 X0.1962 Y0.6445 
G01 X0.1899 Y0.6404 
G01 X0.1873 Y0.6377 
G01 X0.1856 Y0.6361 
G01 X0.1832 Y0.6319 
G01 X0.1820 Y0.6274 
G01 X0.1820 Y0.6226 
G01 X0.1832 Y0.6181 
G01 X0.1856 Y0.6139 
G01 X0.1889 Y0.6106 
G01 X0.1931 Y0.6082 
G01 X0.1976 Y0.6070 
G01 X0.2024 Y0.6070 
G01 X0.2069 Y0.6082 
G01 X0.2100 Y0.6100 
G01 X0.2082 Y0.6069 
G01 X0.2070 Y0.6024 
G01 X0.2070 Y0.5976 
G01 X0.2082 Y0.5931 
G01 X0.2106 Y0.5889 
G00 Z0.1000 
G00 X0.3459 Y0.5819 
G01 Z-0.0070 F10.00 
G01 X0.3405 Y0.5760 F20.00 
G01 X0.3363 Y0.5692 
G01 X0.3335 Y0.5618 
G01 X0.3320 Y0.5540 
G01 X0.3320 Y0.5476 
G01 X0.3332 Y0.5431 
G01 X0.3356 Y0.5389 
G01 X0.3389 Y0.5356 
G01 X0.3431 Y0.5332 
G01 X0.3476 Y0.5320 
G01 X0.3524 Y0.5320 
G01 X0.3569 Y0.5332 
G01 X0.3611 Y0.5356 
G01 X0.3644 Y0.5389 
G01 X0.3668 Y0.5431 
G01 X0.3680 Y0.5476 
G01 X0.3680 Y0.5500 
G01 X0.3680 Y0.5506 
G01 X0.3683 Y0.5519 
G01 X0.3687 Y0.5531 
G01 X0.3694 Y0.5542 
G01 X0.3703 Y0.5552 
G01 X0.3713 Y0.5560 
G01 X0.3725 Y0.5565 
G01 X0.3737 Y0.5569 
G01 X0.3750 Y0.5570 
G01 X0.3763 Y0.5569 
G01 X0.3775 Y0.5565 
G01 X0.3787 Y0.5560 
G01 X0.3797 Y0.5552 
G01 X0.3804 Y0.5544 
G01 X0.3789 Y0.5522 
G01 X0.3750 Y0.5441 
G01 X0.3725 Y0.5354 
G01 X0.3715 Y0.5265 
G01 X0.3720 Y0.5175 
G01 X0.3740 Y0.5087 
G01 X0.3774 Y0.5004 
G01 X0.3822 Y0.4928 
G01 X0.3882 Y0.4861 
G01 X0.3953 Y0.4805 
G01 X0.4031 Y0.4761 
G01 X0.4116 Y0.4732 
G01 X0.4205 Y0.4716 
G01 X0.4295 Y0.4716 
G01 X0.4384 Y0.4732 
G01 X0.4469 Y0.4761 
G01 X0.4547 Y0.4805 
G01 X0.4618 Y0.4861 
G01 X0.4678 Y0.4928 
G01 X0.4726 Y0.5004 
G01 X0.4760 Y0.5087 
G01 X0.4780 Y0.5175 
G01 X0.4785 Y0.5265 
G01 X0.4775 Y0.5354 
G01 X0.4750 Y0.5441 
G01 X0.4711 Y0.5522 
G01 X0.4659 Y0.5595 
G01 X0.4627 Y0.5627 
G01 X0.4611 Y0.5644 
G01 X0.4569 Y0.5668 
G01 X0.4524 Y0.5680 
G01 X0.4476 Y0.5680 
G01 X0.4431 Y0.5668 
G01 X0.4410 Y0.5656 
G01 X0.4460 Y0.5726 
G01 X0.4499 Y0.5805 
G01 X0.4524 Y0.5890 
G01 X0.4535 Y0.5978 
G01 X0.4531 Y0.6066 
G01 X0.4513 Y0.6153 
G01 X0.4481 Y0.6235 
G01 X0.4436 Y0.6311 
G01 X0.4379 Y0.6379 
G01 X0.4311 Y0.6436 
G01 X0.4235 Y0.6481 
G01 X0.4153 Y0.6513 
G01 X0.4066 Y0.6531 
G01 X0.3978 Y0.6535 
G01 X0.3890 Y0.6524 
G01 X0.3805 Y0.6499 
G01 X0.3726 Y0.6460 
G01 X0.3654 Y0.6409 
G01 X0.3623 Y0.6377 
G01 X0.3606 Y0.6361 
G01 X0.3582 Y0.6319 
G01 X0.3570 Y0.6274 
G01 X0.3570 Y0.6226 
G01 X0.3582 Y0.6181 
G01 X0.3606 Y0.6139 
G01 X0.3639 Y0.6106 
G01 X0.3681 Y0.6082 
G01 X0.3726 Y0.6070 
G01 X0.3774 Y0.6070 
G01 X0.3819 Y0.6082 
G01 X0.3861 Y0.6106 
G01 X0.3877 Y0.6123 
G01 X0.3888 Y0.6132 
G01 X0.3911 Y0.6149 
G01 X0.3937 Y0.6162 
G01 X0.3964 Y0.6170 
G01 X0.3993 Y0.6173 
G01 X0.4021 Y0.6172 
G01 X0.4050 Y0.6166 
G01 X0.4076 Y0.6156 
G01 X0.4101 Y0.6141 
G01 X0.4123 Y0.6123 
G01 X0.4141 Y0.6101 
G01 X0.4156 Y0.6076 
G01 X0.4166 Y0.6050 
G01 X0.4172 Y0.6021 
G01 X0.4173 Y0.5993 
G01 X0.4170 Y0.5964 
G01 X0.4162 Y0.5937 
G01 X0.4149 Y0.5911 
G01 X0.4132 Y0.5888 
G01 X0.4123 Y0.5877 
G01 X0.4106 Y0.5861 
G01 X0.4082 Y0.5819 
G01 X0.4073 Y0.5784 
G01 X0.4041 Y0.5819 
G01 X0.3977 Y0.5867 
G01 X0.3906 Y0.5903 
G01 X0.3829 Y0.5924 
G01 X0.3750 Y0.5932 
G01 X0.3671 Y0.5924 
G01 X0.3594 Y0.5903 
G01 X0.3523 Y0.5867 
G01 X0.3459 Y0.5819 
G00 Z0.1000 
G00 X0.4171 Y0.5588 
G01 Z-0.0070 F10.00 
G01 X0.4181 Y0.5582 F20.00 
G01 X0.4226 Y0.5570 
G01 X0.4274 Y0.5570 
G01 X0.4319 Y0.5582 
G01 X0.4350 Y0.5600 
G01 X0.4332 Y0.5569 
G01 X0.4320 Y0.5524 
G01 X0.4320 Y0.5476 
G01 X0.4332 Y0.5431 
G01 X0.4356 Y0.5389 
G01 X0.4373 Y0.5373 
G01 X0.4383 Y0.5362 
G01 X0.4399 Y0.5338 
G01 X0.4412 Y0.5312 
G01 X0.4420 Y0.5284 
G01 X0.4423 Y0.5255 
G01 X0.4422 Y0.5226 
G01 X0.4415 Y0.5197 
G01 X0.4404 Y0.5170 
G01 X0.4389 Y0.5146 
G01 X0.4369 Y0.5124 
G01 X0.4346 Y0.5106 
G01 X0.4321 Y0.5092 
G01 X0.4293 Y0.5082 
G01 X0.4265 Y0.5077 
G01 X0.4235 Y0.5077 
G01 X0.4207 Y0.5082 
G01 X0.4179 Y0.5092 
G01 X0.4154 Y0.5106 
G01 X0.4131 Y0.5124 
G01 X0.4111 Y0.5146 
G01 X0.4096 Y0.5170 
G01 X0.4085 Y0.5197 
G01 X0.4078 Y0.5226 
G01 X0.4077 Y0.5255 
G01 X0.4080 Y0.5284 
G01 X0.4088 Y0.5312 
G01 X0.4101 Y0.5338 
G01 X0.4117 Y0.5362 
G01 X0.4127 Y0.5373 
G01 X0.4131 Y0.5376 
G01 X0.4144 Y0.5389 
G01 X0.4168 Y0.5431 
G01 X0.4180 Y0.5476 
G01 X0.4180 Y0.5540 
G01 X0.4171 Y0.5588 
G00 Z0.1000 
G00 X0.5365 Y0.5631 
G01 Z-0.0070 F10.00 
G01 X0.5365 Y0.5631 F20.00 
G01 X0.5433 Y0.5571 
G01 X0.5510 Y0.5524 
G01 X0.5594 Y0.5490 
G01 X0.5682 Y0.5471 
G01 X0.5773 Y0.5467 
G01 X0.5862 Y0.5478 
G01 X0.5949 Y0.5505 
G01 X0.6030 Y0.5546 
G01 X0.6103 Y0.5599 
G01 X0.6165 Y0.5665 
G01 X0.6216 Y0.5740 
G01 X0.6253 Y0.5822 
G01 X0.6276 Y0.5910 
G01 X0.6284 Y0.6000 
G01 X0.6276 Y0.6090 
G01 X0.6253 Y0.6178 
G01 X0.6216 Y0.6260 
G01 X0.6165 Y0.6335 
G01 X0.6103 Y0.6401 
G01 X0.6030 Y0.6454 
G01 X0.5949 Y0.6495 
G01 X0.5862 Y0.6522 
G01 X0.5773 Y0.6533 
G01 X0.5682 Y0.6529 
G01 X0.5594 Y0.6510 
G01 X0.5510 Y0.6476 
G01 X0.5433 Y0.6429 
G01 X0.5365 Y0.6369 
G01 X0.5308 Y0.6299 
G01 X0.5264 Y0.6220 
G01 X0.5234 Y0.6134 
G01 X0.5218 Y0.6045 
G01 X0.5218 Y0.5955 
G01 X0.5234 Y0.5866 
G01 X0.5264 Y0.5780 
G01 X0.5308 Y0.5701 
G01 X0.5365 Y0.5631 
G00 Z0.1000 
G00 X0.5625 Y0.5880 
G01 Z-0.0070 F10.00 
G01 X0.5606 Y0.5903 F20.00 
G01 X0.5592 Y0.5929 
G01 X0.5582 Y0.5956 
G01 X0.5577 Y0.5985 
G01 X0.5577 Y0.6015 
G01 X0.5582 Y0.6044 
G01 X0.5592 Y0.6071 
G01 X0.5606 Y0.6097 
G01 X0.5625 Y0.6120 
G01 X0.5647 Y0.6140 
G01 X0.5672 Y0.6155 
G01 X0.5699 Y0.6166 
G01 X0.5728 Y0.6172 
G01 X0.5757 Y0.6173 
G01 X0.5787 Y0.6170 
G01 X0.5815 Y0.6161 
G01 X0.5841 Y0.6148 
G01 X0.5865 Y0.6130 
G01 X0.5885 Y0.6109 
G01 X0.5902 Y0.6085 
G01 X0.5914 Y0.6058 
G01 X0.5921 Y0.6029 
G01 X0.5924 Y0.6000 
G01 X0.5921 Y0.5971 
G01 X0.5914 Y0.5942 
G01 X0.5902 Y0.5915 
G01 X0.5885 Y0.5891 
G01 X0.5865 Y0.5870 
G01 X0.5841 Y0.5852 
G01 X0.5815 Y0.5839 
G01 X0.5787 Y0.5830 
G01 X0.5757 Y0.5827 
G01 X0.5728 Y0.5828 
G01 X0.5699 Y0.5834 
G01 X0.5672 Y0.5845 
G01 X0.5647 Y0.5860 
G01 X0.5625 Y0.5880 
(Between Passes)
(Top between passes)
G00 Z0.1000 
G00 X0.0321 Y0.0353 
G01 Z-0.0070 F10.00 
G01 X0.0353 Y0.0321 F20.00 
G01 X0.0391 Y0.0296 
G01 X0.0433 Y0.0279 
G01 X0.0477 Y0.0270 
G01 X0.2023 Y0.0270 
G01 X0.2067 Y0.0279 
G01 X0.2109 Y0.0296 
G01 X0.2147 Y0.0321 
G01 X0.2179 Y0.0353 
G01 X0.2204 Y0.0391 
G01 X0.2221 Y0.0433 
G01 X0.2230 Y0.0477 
G01 X0.2230 Y0.0523 
G01 X0.2221 Y0.0567 
G01 X0.2204 Y0.0609 
G01 X0.2179 Y0.0647 
G01 X0.2147 Y0.0679 
G01 X0.2109 Y0.0704 
G01 X0.2067 Y0.0721 
G01 X0.2023 Y0.0730 
G01 X0.0477 Y0.0730 
G01 X0.0433 Y0.0721 
G01 X0.0391 Y0.0704 
G01 X0.0353 Y0.0679 
G01 X0.0321 Y0.0647 
G01 X0.0296 Y0.0609 
G01 X0.0279 Y0.0567 
G01 X0.0270 Y0.0523 
G01 X0.0270 Y0.0477 
G01 X0.0279 Y0.0433 
G01 X0.0296 Y0.0391 
G01 X0.0321 Y0.0353 
G00 Z0.1000 
G00 X0.1837 Y0.4837 
G01 Z-0.0070 F10.00 
G01 X0.1870 Y0.4805 F20.00 
G01 X0.1944 Y0.4751 
G01 X0.2026 Y0.4709 
G01 X0.2113 Y0.4681 
G01 X0.2204 Y0.4666 
G01 X0.2296 Y0.4666 
G01 X0.2387 Y0.4681 
G01 X0.2474 Y0.4709 
G01 X0.2556 Y0.4751 
G01 X0.2630 Y0.4805 
G01 X0.2695 Y0.4870 
G01 X0.2749 Y0.4944 
G01 X0.2791 Y0.5026 
G01 X0.2819 Y0.5113 
G01 X0.2834 Y0.5204 
G01 X0.2834 Y0.5296 
G01 X0.2819 Y0.5387 
G01 X0.2791 Y0.5474 
G01 X0.2749 Y0.5556 
G01 X0.2695 Y0.5630 
G01 X0.2663 Y0.5663 
G01 X0.2647 Y0.5679 
G01 X0.2609 Y0.5704 
G01 X0.2567 Y0.5721 
G01 X0.2523 Y0.5730 
G01 X0.2477 Y0.5730 
G01 X0.2433 Y0.5721 
G01 X0.2391 Y0.5704 
G01 X0.2353 Y0.5679 
G01 X0.2321 Y0.5647 
G01 X0.2304 Y0.5621 
G01 X0.2276 Y0.5645 
G01 X0.2204 Y0.5687 
G01 X0.2125 Y0.5715 
G01 X0.2042 Y0.5730 
G01 X0.1958 Y0.5730 
G01 X0.1875 Y0.5715 
G01 X0.1796 Y0.5687 
G01 X0.1724 Y0.5645 
G01 X0.1659 Y0.5591 
G01 X0.1605 Y0.5526 
G01 X0.1563 Y0.5454 
G01 X0.1535 Y0.5375 
G01 X0.1520 Y0.5292 
G01 X0.1520 Y0.5227 
G01 X0.1529 Y0.5183 
G01 X0.1546 Y0.5141 
G01 X0.1571 Y0.5103 
G01 X0.1603 Y0.5071 
G01 X0.1641 Y0.5046 
G01 X0.1683 Y0.5029 
G01 X0.1727 Y0.5020 
G01 X0.1770 Y0.5020 
G01 X0.1770 Y0.4977 
G01 X0.1779 Y0.4933 
G01 X0.1796 Y0.4891 
G01 X0.1821 Y0.4853 
G01 X0.1837 Y0.4837 
G00 Z0.1000 
G00 X0.1980 Y0.5230 
G01 Z-0.0070 F10.00 
G01 X0.1980 Y0.5250 F20.00 
G01 X0.1980 Y0.5252 
G01 X0.1981 Y0.5255 
G01 X0.1982 Y0.5258 
G01 X0.1984 Y0.5261 
G01 X0.1986 Y0.5264 
G01 X0.1989 Y0.5266 
G01 X0.1992 Y0.5268 
G01 X0.1995 Y0.5269 
G01 X0.1998 Y0.5270 
G01 X0.2002 Y0.5270 
G01 X0.2005 Y0.5269 
G01 X0.2008 Y0.5268 
G01 X0.2011 Y0.5266 
G01 X0.2014 Y0.5264 
G01 X0.2016 Y0.5261 
G01 X0.2018 Y0.5258 
G01 X0.2019 Y0.5255 
G01 X0.2020 Y0.5252 
G01 X0.2020 Y0.5250 
G01 X0.2020 Y0.5230 
G01 X0.1980 Y0.5230 
G00 Z0.1000 
G00 X0.2071 Y0.5853 
G01 Z-0.0070 F10.00 
G01 X0.2103 Y0.5821 F20.00 
G01 X0.2141 Y0.5796 
G01 X0.2183 Y0.5779 
G01 X0.2227 Y0.5770 
G01 X0.2273 Y0.5770 
G01 X0.2317 Y0.5779 
G01 X0.2359 Y0.5796 
G01 X0.2397 Y0.5821 
G01 X0.2413 Y0.5837 
G01 X0.2441 Y0.5866 
G01 X0.2485 Y0.5932 
G01 X0.2516 Y0.6006 
G01 X0.2532 Y0.6085 
G01 X0.2532 Y0.6165 
G01 X0.2516 Y0.6244 
G01 X0.2485 Y0.6318 
G01 X0.2441 Y0.6384 
G01 X0.2384 Y0.6441 
G01 X0.2318 Y0.6485 
G01 X0.2244 Y0.6516 
G01 X0.2165 Y0.6532 
G01 X0.2085 Y0.6532 
G01 X0.2006 Y0.6516 
G01 X0.1932 Y0.6485 
G01 X0.1866 Y0.6441 
G01 X0.1837 Y0.6413 
G01 X0.1821 Y0.6397 
G01 X0.1796 Y0.6359 
G01 X0.1779 Y0.6317 
G01 X0.1770 Y0.6273 
G01 X0.1770 Y0.6227 
G01 X0.1779 Y0.6183 
G01 X0.1796 Y0.6141 
G01 X0.1821 Y0.6103 
G01 X0.1853 Y0.6071 
G01 X0.1891 Y0.6046 
G01 X0.1933 Y0.6029 
G01 X0.1977 Y0.6020 
G01 X0.2020 Y0.6020 
G01 X0.2020 Y0.5977 
G01 X0.2029 Y0.5933 
G01 X0.2046 Y0.5891 
G01 X0.2071 Y0.5853 
G00 Z0.1000 
G00 X0.3409 Y0.5841 
G01 Z-0.0070 F10.00 
G01 X0.3355 Y0.5776 F20.00 
G01 X0.3313 Y0.5704 
G01 X0.3285 Y0.5625 
G01 X0.3270 Y0.5542 
G01 X0.3270 Y0.5477 
G01 X0.3279 Y0.5433 
G01 X0.3296 Y0.5391 
G01 X0.3321 Y0.5353 
G01 X0.3353 Y0.5321 
G01 X0.3391 Y0.5296 
G01 X0.3433 Y0.5279 
G01 X0.3477 Y0.5270 
G01 X0.3523 Y0.5270 
G01 X0.3567 Y0.5279 
G01 X0.3609 Y0.5296 
G01 X0.3647 Y0.5321 
G01 X0.3675 Y0.5350 
G01 X0.3666 Y0.5296 
G01 X0.3666 Y0.5204 
G01 X0.3681 Y0.5113 
G01 X0.3709 Y0.5026 
G01 X0.3751 Y0.4944 
G01 X0.3805 Y0.4870 
G01 X0.3870 Y0.4805 
G01 X0.3944 Y0.4751 
G01 X0.4026 Y0.4709 
G01 X0.4113 Y0.4681 
G01 X0.4204 Y0.4666 
G01 X0.4296 Y0.4666 
G01 X0.4387 Y0.4681 
G01 X0.4474 Y0.4709 
G01 X0.4556 Y0.4751 
G01 X0.4630 Y0.4805 
G01 X0.4695 Y0.4870 
G01 X0.4749 Y0.4944 
G01 X0.4791 Y0.5026 
G01 X0.4819 Y0.5113 
G01 X0.4834 Y0.5204 
G01 X0.4834 Y0.5296 
G01 X0.4819 Y0.5387 
G01 X0.4791 Y0.5474 
G01 X0.4749 Y0.5556 
G01 X0.4695 Y0.5630 
G01 X0.4663 Y0.5663 
G01 X0.4647 Y0.5679 
G01 X0.4609 Y0.5704 
G01 X0.4567 Y0.5721 
G01 X0.4523 Y0.5730 
G01 X0.4517 Y0.5730 
G01 X0.4541 Y0.5776 
G01 X0.4569 Y0.5863 
G01 X0.4584 Y0.5954 
G01 X0.4584 Y0.6046 
G01 X0.4569 Y0.6137 
G01 X0.4541 Y0.6224 
G01 X0.4499 Y0.6306 
G01 X0.4445 Y0.6380 
G01 X0.4380 Y0.6445 
G01 X0.4306 Y0.6499 
G01 X0.4224 Y0.6541 
G01 X0.4137 Y0.6569 
G01 X0.4046 Y0.6584 
G01 X0.3954 Y0.6584 
G01 X0.3863 Y0.6569 
G01 X0.3776 Y0.6541 
G01 X0.3694 Y0.6499 
G01 X0.3620 Y0.6445 
G01 X0.3587 Y0.6413 
G01 X0.3571 Y0.6397 
G01 X0.3546 Y0.6359 
G01 X0.3529 Y0.6317 
G01 X0.3520 Y0.6273 
G01 X0.3520 Y0.6227 
G01 X0.3529 Y0.6183 
G01 X0.3546 Y0.6141 
G01 X0.3571 Y0.6103 
G01 X0.3603 Y0.6071 
G01 X0.3641 Y0.6046 
G01 X0.3683 Y0.6029 
G01 X0.3727 Y0.6020 
G01 X0.3773 Y0.6020 
G01 X0.3817 Y0.6029 
G01 X0.3859 Y0.6046 
G01 X0.3897 Y0.6071 
G01 X0.3913 Y0.6087 
G01 X0.3920 Y0.6094 
G01 X0.3935 Y0.6105 
G01 X0.3953 Y0.6114 
G01 X0.3971 Y0.6120 
G01 X0.3990 Y0.6123 
G01 X0.4010 Y0.6123 
G01 X0.4029 Y0.6120 
G01 X0.4047 Y0.6114 
G01 X0.4065 Y0.6105 
G01 X0.4080 Y0.6094 
G01 X0.4094 Y0.6080 
G01 X0.4105 Y0.6065 
G01 X0.4114 Y0.6047 
G01 X0.4120 Y0.6029 
G01 X0.4123 Y0.6010 
G01 X0.4123 Y0.5990 
G01 X0.4120 Y0.5971 
G01 X0.4114 Y0.5953 
G01 X0.4105 Y0.5935 
G01 X0.4094 Y0.5920 
G01 X0.4087 Y0.5913 
G01 X0.4071 Y0.5897 
G01 X0.4054 Y0.5871 
G01 X0.4026 Y0.5895 
G01 X0.3954 Y0.5937 
G01 X0.3875 Y0.5965 
G01 X0.3792 Y0.5980 
G01 X0.3708 Y0.5980 
G01 X0.3625 Y0.5965 
G01 X0.3546 Y0.5937 
G01 X0.3474 Y0.5895 
G01 X0.3409 Y0.5841 
G00 Z0.1000 
G00 X0.4230 Y0.5520 
G01 Z-0.0070 F10.00 
G01 X0.4270 Y0.5520 F20.00 
G01 X0.4270 Y0.5477 
G01 X0.4279 Y0.5433 
G01 X0.4296 Y0.5391 
G01 X0.4321 Y0.5353 
G01 X0.4337 Y0.5337 
G01 X0.4344 Y0.5330 
G01 X0.4355 Y0.5315 
G01 X0.4364 Y0.5297 
G01 X0.4370 Y0.5279 
G01 X0.4373 Y0.5260 
G01 X0.4373 Y0.5240 
G01 X0.4370 Y0.5221 
G01 X0.4364 Y0.5203 
G01 X0.4355 Y0.5185 
G01 X0.4344 Y0.5170 
G01 X0.4330 Y0.5156 
G01 X0.4315 Y0.5145 
G01 X0.4297 Y0.5136 
G01 X0.4279 Y0.5130 
G01 X0.4260 Y0.5127 
G01 X0.4240 Y0.5127 
G01 X0.4221 Y0.5130 
G01 X0.4203 Y0.5136 
G01 X0.4185 Y0.5145 
G01 X0.4170 Y0.5156 
G01 X0.4156 Y0.5170 
G01 X0.4145 Y0.5185 
G01 X0.4136 Y0.5203 
G01 X0.4130 Y0.5221 
G01 X0.4127 Y0.5240 
G01 X0.4127 Y0.5260 
G01 X0.4130 Y0.5279 
G01 X0.4136 Y0.5297 
G01 X0.4145 Y0.5315 
G01 X0.4156 Y0.5330 
G01 X0.4163 Y0.5337 
G01 X0.4179 Y0.5353 
G01 X0.4204 Y0.5391 
G01 X0.4221 Y0.5433 
G01 X0.4230 Y0.5477 
G01 X0.4230 Y0.5520 
G00 Z0.1000 
G00 X0.5313 Y0.5613 
G01 Z-0.0070 F10.00 
G01 X0.5313 Y0.5613 F20.00 
G01 X0.5381 Y0.5548 
G01 X0.5458 Y0.5495 
G01 X0.5543 Y0.5454 
G01 X0.5633 Y0.5428 
G01 X0.5727 Y0.5417 
G01 X0.5820 Y0.5421 
G01 X0.5912 Y0.5439 
G01 X0.6000 Y0.5473 
G01 X0.6081 Y0.5520 
G01 X0.6154 Y0.5579 
G01 X0.6217 Y0.5649 
G01 X0.6267 Y0.5729 
G01 X0.6304 Y0.5815 
G01 X0.6326 Y0.5906 
G01 X0.6334 Y0.6000 
G01 X0.6326 Y0.6094 
G01 X0.6304 Y0.6185 
G01 X0.6267 Y0.6271 
G01 X0.6217 Y0.6351 
G01 X0.6154 Y0.6421 
G01 X0.6081 Y0.6480 
G01 X0.6000 Y0.6527 
G01 X0.5912 Y0.6561 
G01 X0.5820 Y0.6579 
G01 X0.5727 Y0.6583 
G01 X0.5633 Y0.6572 
G01 X0.5543 Y0.6546 
G01 X0.5458 Y0.6505 
G01 X0.5381 Y0.6452 
G01 X0.5313 Y0.6387 
G01 X0.5257 Y0.6312 
G01 X0.5213 Y0.6229 
G01 X0.5183 Y0.6140 
G01 X0.5168 Y0.6047 
G01 X0.5168 Y0.5953 
G01 X0.5183 Y0.5860 
G01 X0.5213 Y0.5771 
G01 X0.5257 Y0.5688 
G01 X0.5313 Y0.5613 
G00 Z0.1000 
G00 X0.5658 Y0.5918 
G01 Z-0.0070 F10.00 
G01 X0.5646 Y0.5934 F20.00 
G01 X0.5636 Y0.5952 
G01 X0.5630 Y0.5970 
G01 X0.5627 Y0.5990 
G01 X0.5627 Y0.6010 
G01 X0.5630 Y0.6030 
G01 X0.5636 Y0.6048 
G01 X0.5646 Y0.6066 
G01 X0.5658 Y0.6082 
G01 X0.5672 Y0.6096 
G01 X0.5688 Y0.6107 
G01 X0.5706 Y0.6116 
G01 X0.5725 Y0.6121 
G01 X0.5745 Y0.6123 
G01 X0.5765 Y0.6123 
G01 X0.5784 Y0.6119 
G01 X0.5803 Y0.6112 
G01 X0.5820 Y0.6102 
G01 X0.5836 Y0.6089 
G01 X0.5849 Y0.6074 
G01 X0.5859 Y0.6057 
G01 X0.5867 Y0.6039 
G01 X0.5872 Y0.6020 
G01 X0.5874 Y0.6000 
G01 X0.5872 Y0.5980 
G01 X0.5867 Y0.5961 
G01 X0.5859 Y0.5943 
G01 X0.5849 Y0.5926 
G01 X0.5836 Y0.5911 
G01 X0.5820 Y0.5898 
G01 X0.5803 Y0.5888 
G01 X0.5784 Y0.5881 
G01 X0.5765 Y0.5877 
G01 X0.5745 Y0.5877 
G01 X0.5725 Y0.5879 
G01 X0.5706 Y0.5884 
G01 X0.5688 Y0.5893 
G01 X0.5672 Y0.5904 
G01 X0.5658 Y0.5918 
(Between Passes)
(Top between passes)
G00 Z0.1000 
G00 X0.0283 Y0.0322 
G01 Z-0.0070 F10.00 
G01 X0.0322 Y0.0283 F20.00 
G01 X0.0367 Y0.0252 
G01 X0.0418 Y0.0231 
G01 X0.0472 Y0.0220 
G01 X0.2028 Y0.0220 
G01 X0.2082 Y0.0231 
G01 X0.2133 Y0.0252 
G01 X0.2178 Y0.0283 
G01 X0.2217 Y0.0322 
G01 X0.2248 Y0.0367 
G01 X0.2269 Y0.0418 
G01 X0.2280 Y0.0472 
G01 X0.2280 Y0.0528 
G01 X0.2269 Y0.0582 
G01 X0.2248 Y0.0633 
G01 X0.2217 Y0.0678 
G01 X0.2178 Y0.0717 
G01 X0.2133 Y0.0748 
G01 X0.2082 Y0.0769 
G01 X0.2028 Y0.0780 
G01 X0.0472 Y0.0780 
G01 X0.0418 Y0.0769 
G01 X0.0367 Y0.0748 
G01 X0.0322 Y0.0717 
G01 X0.0283 Y0.0678 
G01 X0.0252 Y0.0633 
G01 X0.0231 Y0.0582 
G01 X0.0220 Y0.0528 
G01 X0.0220 Y0.0472 
G01 X0.0231 Y0.0418 
G01 X0.0252 Y0.0367 
G01 X0.0283 Y0.0322 
G00 Z0.1000 
G00 X0.1783 Y0.4822 
G01 Z-0.0070 F10.00 
G01 X0.1802 Y0.4802 F20.00 
G01 X0.1836 Y0.4768 
G01 X0.1912 Y0.4712 
G01 X0.1996 Y0.4668 
G01 X0.2086 Y0.4636 
G01 X0.2179 Y0.4619 
G01 X0.2274 Y0.4615 
G01 X0.2368 Y0.4626 
G01 X0.2460 Y0.4650 
G01 X0.2547 Y0.4688 
G01 X0.2627 Y0.4739 
G01 X0.2699 Y0.4801 
G01 X0.2761 Y0.4873 
G01 X0.2812 Y0.4953 
G01 X0.2850 Y0.5040 
G01 X0.2874 Y0.5132 
G01 X0.2885 Y0.5226 
G01 X0.2881 Y0.5321 
G01 X0.2864 Y0.5414 
G01 X0.2832 Y0.5504 
G01 X0.2788 Y0.5588 
G01 X0.2732 Y0.5664 
G01 X0.2698 Y0.5698 
G01 X0.2678 Y0.5717 
G01 X0.2633 Y0.5748 
G01 X0.2582 Y0.5769 
G01 X0.2528 Y0.5780 
G01 X0.2472 Y0.5780 
G01 X0.2418 Y0.5769 
G01 X0.2393 Y0.5759 
G01 X0.2428 Y0.5783 
G01 X0.2448 Y0.5802 
G01 X0.2478 Y0.5832 
G01 X0.2526 Y0.5902 
G01 X0.2560 Y0.5979 
G01 X0.2579 Y0.6062 
G01 X0.2583 Y0.6146 
G01 X0.2572 Y0.6230 
G01 X0.2545 Y0.6310 
G01 X0.2503 Y0.6384 
G01 X0.2449 Y0.6449 
G01 X0.2384 Y0.6503 
G01 X0.2310 Y0.6545 
G01 X0.2230 Y0.6572 
G01 X0.2146 Y0.6583 
G01 X0.2062 Y0.6579 
G01 X0.1979 Y0.6560 
G01 X0.1902 Y0.6526 
G01 X0.1832 Y0.6478 
G01 X0.1802 Y0.6448 
G01 X0.1783 Y0.6428 
G01 X0.1752 Y0.6383 
G01 X0.1731 Y0.6332 
G01 X0.1720 Y0.6278 
G01 X0.1720 Y0.6222 
G01 X0.1731 Y0.6168 
G01 X0.1752 Y0.6117 
G01 X0.1783 Y0.6072 
G01 X0.1822 Y0.6033 
G01 X0.1867 Y0.6002 
G01 X0.1918 Y0.5981 
G01 X0.1970 Y0.5970 
G01 X0.1981 Y0.5918 
G01 X0.2002 Y0.5867 
G01 X0.2033 Y0.5822 
G01 X0.2072 Y0.5783 
G01 X0.2083 Y0.5775 
G01 X0.2000 Y0.5782 
G01 X0.1912 Y0.5775 
G01 X0.1827 Y0.5753 
G01 X0.1747 Y0.5718 
G01 X0.1673 Y0.5670 
G01 X0.1609 Y0.5610 
G01 X0.1555 Y0.5541 
G01 X0.1513 Y0.5464 
G01 X0.1484 Y0.5381 
G01 X0.1470 Y0.5294 
G01 X0.1470 Y0.5222 
G01 X0.1481 Y0.5168 
G01 X0.1502 Y0.5117 
G01 X0.1533 Y0.5072 
G01 X0.1572 Y0.5033 
G01 X0.1617 Y0.5002 
G01 X0.1668 Y0.4981 
G01 X0.1720 Y0.4970 
G01 X0.1731 Y0.4918 
G01 X0.1752 Y0.4867 
G01 X0.1783 Y0.4822 
G00 Z0.1000 
G00 X0.2248 Y0.5720 
G01 Z-0.0070 F10.00 
G01 X0.2278 Y0.5720 F20.00 
G01 X0.2332 Y0.5731 
G01 X0.2357 Y0.5741 
G01 X0.2322 Y0.5717 
G01 X0.2295 Y0.5691 
G01 X0.2253 Y0.5718 
G01 X0.2248 Y0.5720 
G00 Z0.1000 
G00 X0.3263 Y0.5714 
G01 Z-0.0070 F10.00 
G01 X0.3263 Y0.5714 F20.00 
G01 X0.3234 Y0.5631 
G01 X0.3220 Y0.5544 
G01 X0.3220 Y0.5472 
G01 X0.3231 Y0.5418 
G01 X0.3252 Y0.5367 
G01 X0.3283 Y0.5322 
G01 X0.3322 Y0.5283 
G01 X0.3367 Y0.5252 
G01 X0.3418 Y0.5231 
G01 X0.3472 Y0.5220 
G01 X0.3528 Y0.5220 
G01 X0.3582 Y0.5231 
G01 X0.3616 Y0.5245 
G01 X0.3616 Y0.5200 
G01 X0.3632 Y0.5102 
G01 X0.3663 Y0.5007 
G01 X0.3708 Y0.4918 
G01 X0.3767 Y0.4837 
G01 X0.3837 Y0.4767 
G01 X0.3918 Y0.4708 
G01 X0.4007 Y0.4663 
G01 X0.4102 Y0.4632 
G01 X0.4200 Y0.4616 
G01 X0.4300 Y0.4616 
G01 X0.4398 Y0.4632 
G01 X0.4493 Y0.4663 
G01 X0.4582 Y0.4708 
G01 X0.4663 Y0.4767 
G01 X0.4733 Y0.4837 
G01 X0.4792 Y0.4918 
G01 X0.4837 Y0.5007 
G01 X0.4868 Y0.5102 
G01 X0.4884 Y0.5200 
G01 X0.4884 Y0.5300 
G01 X0.4868 Y0.5398 
G01 X0.4837 Y0.5493 
G01 X0.4792 Y0.5582 
G01 X0.4733 Y0.5663 
G01 X0.4698 Y0.5698 
G01 X0.4678 Y0.5717 
G01 X0.4633 Y0.5748 
G01 X0.4590 Y0.5766 
G01 X0.4618 Y0.5852 
G01 X0.4634 Y0.5950 
G01 X0.4634 Y0.6050 
G01 X0.4618 Y0.6148 
G01 X0.4587 Y0.6243 
G01 X0.4542 Y0.6332 
G01 X0.4483 Y0.6413 
G01 X0.4413 Y0.6483 
G01 X0.4332 Y0.6542 
G01 X0.4243 Y0.6587 
G01 X0.4148 Y0.6618 
G01 X0.4050 Y0.6634 
G01 X0.3950 Y0.6634 
G01 X0.3852 Y0.6618 
G01 X0.3757 Y0.6587 
G01 X0.3668 Y0.6542 
G01 X0.3587 Y0.6483 
G01 X0.3552 Y0.6448 
G01 X0.3533 Y0.6428 
G01 X0.3502 Y0.6383 
G01 X0.3481 Y0.6332 
G01 X0.3470 Y0.6278 
G01 X0.3470 Y0.6222 
G01 X0.3481 Y0.6168 
G01 X0.3502 Y0.6117 
G01 X0.3533 Y0.6072 
G01 X0.3572 Y0.6033 
G01 X0.3605 Y0.6010 
G01 X0.3577 Y0.6003 
G01 X0.3497 Y0.5968 
G01 X0.3423 Y0.5920 
G01 X0.3359 Y0.5860 
G01 X0.3305 Y0.5791 
G01 X0.3263 Y0.5714 
G00 Z0.1000 
G00 X0.3895 Y0.6010 
G01 Z-0.0070 F10.00 
G01 X0.3928 Y0.6033 F20.00 
G01 X0.3948 Y0.6052 
G01 X0.3952 Y0.6056 
G01 X0.3962 Y0.6063 
G01 X0.3972 Y0.6068 
G01 X0.3983 Y0.6072 
G01 X0.3994 Y0.6073 
G01 X0.4006 Y0.6073 
G01 X0.4017 Y0.6072 
G01 X0.4028 Y0.6068 
G01 X0.4038 Y0.6063 
G01 X0.4048 Y0.6056 
G01 X0.4056 Y0.6048 
G01 X0.4063 Y0.6038 
G01 X0.4068 Y0.6028 
G01 X0.4072 Y0.6017 
G01 X0.4073 Y0.6006 
G01 X0.4073 Y0.5994 
G01 X0.4072 Y0.5983 
G01 X0.4068 Y0.5972 
G01 X0.4063 Y0.5962 
G01 X0.4056 Y0.5952 
G01 X0.4052 Y0.5948 
G01 X0.4045 Y0.5941 
G01 X0.4003 Y0.5968 
G01 X0.3923 Y0.6003 
G01 X0.3895 Y0.6010 
G00 Z0.1000 
G00 X0.4250 Y0.5372 
G01 Z-0.0070 F10.00 
G01 X0.4252 Y0.5367 F20.00 
G01 X0.4283 Y0.5322 
G01 X0.4302 Y0.5302 
G01 X0.4306 Y0.5298 
G01 X0.4313 Y0.5288 
G01 X0.4318 Y0.5278 
G01 X0.4322 Y0.5267 
G01 X0.4323 Y0.5256 
G01 X0.4323 Y0.5244 
G01 X0.4322 Y0.5233 
G01 X0.4318 Y0.5222 
G01 X0.4313 Y0.5212 
G01 X0.4306 Y0.5202 
G01 X0.4298 Y0.5194 
G01 X0.4288 Y0.5187 
G01 X0.4278 Y0.5182 
G01 X0.4267 Y0.5178 
G01 X0.4256 Y0.5177 
G01 X0.4244 Y0.5177 
G01 X0.4233 Y0.5178 
G01 X0.4222 Y0.5182 
G01 X0.4212 Y0.5187 
G01 X0.4202 Y0.5194 
G01 X0.4194 Y0.5202 
G01 X0.4187 Y0.5212 
G01 X0.4182 Y0.5222 
G01 X0.4178 Y0.5233 
G01 X0.4177 Y0.5244 
G01 X0.4177 Y0.5256 
G01 X0.4178 Y0.5267 
G01 X0.4182 Y0.5278 
G01 X0.4187 Y0.5288 
G01 X0.4194 Y0.5298 
G01 X0.4198 Y0.5302 
G01 X0.4217 Y0.5321 
G01 X0.4248 Y0.5367 
G01 X0.4250 Y0.5372 
G00 Z0.1000 
G00 X0.5302 Y0.5552 
G01 Z-0.0070 F10.00 
G01 X0.5302 Y0.5552 F20.00 
G01 X0.5378 Y0.5487 
G01 X0.5462 Y0.5435 
G01 X0.5554 Y0.5397 
G01 X0.5651 Y0.5374 
G01 X0.5750 Y0.5366 
G01 X0.5849 Y0.5374 
G01 X0.5946 Y0.5397 
G01 X0.6038 Y0.5435 
G01 X0.6122 Y0.5487 
G01 X0.6198 Y0.5552 
G01 X0.6263 Y0.5628 
G01 X0.6314 Y0.5712 
G01 X0.6353 Y0.5804 
G01 X0.6376 Y0.5901 
G01 X0.6384 Y0.6000 
G01 X0.6376 Y0.6099 
G01 X0.6353 Y0.6196 
G01 X0.6314 Y0.6288 
G01 X0.6263 Y0.6372 
G01 X0.6198 Y0.6448 
G01 X0.6122 Y0.6513 
G01 X0.6038 Y0.6564 
G01 X0.5946 Y0.6603 
G01 X0.5849 Y0.6626 
G01 X0.5750 Y0.6634 
G01 X0.5651 Y0.6626 
G01 X0.5554 Y0.6603 
G01 X0.5462 Y0.6564 
G01 X0.5378 Y0.6513 
G01 X0.5302 Y0.6448 
G01 X0.5237 Y0.6372 
G01 X0.5185 Y0.6288 
G01 X0.5147 Y0.6196 
G01 X0.5124 Y0.6099 
G01 X0.5116 Y0.6000 
G01 X0.5124 Y0.5901 
G01 X0.5147 Y0.5804 
G01 X0.5185 Y0.5712 
G01 X0.5237 Y0.5628 
G01 X0.5302 Y0.5552 
G00 Z0.1000 
G00 X0.5698 Y0.5948 
G01 Z-0.0070 F10.00 
G01 X0.5690 Y0.5957 F20.00 
G01 X0.5684 Y0.5967 
G01 X0.5680 Y0.5977 
G01 X0.5677 Y0.5988 
G01 X0.5676 Y0.6000 
G01 X0.5677 Y0.6012 
G01 X0.5680 Y0.6023 
G01 X0.5684 Y0.6033 
G01 X0.5690 Y0.6043 
G01 X0.5698 Y0.6052 
G01 X0.5707 Y0.6060 
G01 X0.5717 Y0.6066 
G01 X0.5727 Y0.6070 
G01 X0.5738 Y0.6073 
G01 X0.5750 Y0.6074 
G01 X0.5762 Y0.6073 
G01 X0.5773 Y0.6070 
G01 X0.5783 Y0.6066 
G01 X0.5793 Y0.6060 
G01 X0.5802 Y0.6052 
G01 X0.5810 Y0.6043 
G01 X0.5816 Y0.6033 
G01 X0.5820 Y0.6023 
G01 X0.5823 Y0.6012 
G01 X0.5824 Y0.6000 
G01 X0.5823 Y0.5988 
G01 X0.5820 Y0.5977 
G01 X0.5816 Y0.5967 
G01 X0.5810 Y0.5957 
G01 X0.5802 Y0.5948 
G01 X0.5793 Y0.5940 
G01 X0.5783 Y0.5934 
G01 X0.5773 Y0.5930 
G01 X0.5762 Y0.5927 
G01 X0.5750 Y0.5926 
G01 X0.5738 Y0.5927 
G01 X0.5727 Y0.5930 
G01 X0.5717 Y0.5934 
G01 X0.5707 Y0.5940 
G01 X0.5698 Y0.5948 
(Top outline End)
(Outline End)
(End of every top file)
(End of every file)
G00 Z0.1000 
G00 Z0.100000
G00 X0.1000 Y0.1500 
G01 Z-0.0130 F20.00 
G01 Z0.100000
(R0.1000  P1.000000)
G00 X0.3000 Y0.1500 
G01 Z-0.0130 
G01 Z0.100000
G00 X0.5000 Y0.1500 
G01 Z-0.0130 
G01 Z0.100000
G00 X0.1000 Y0.3000 
G01 Z-0.0130 
G01 Z0.100000
G00 X0.3000 Y0.3000 
G01 Z-0.0130 
G01 Z0.100000
G00 X0.5000 Y0.3000 
G01 Z-0.0130 
G01 Z0.100000
G00 X0.1000 Y0.4500 
G01 Z-0.0130 
G01 Z0.100000
G00 X0.3000 Y0.4500 
G01 Z-0.0130 
G01 Z0.100000
G00 X0.5000 Y0.4500 
G01 Z-0.0130 
G01 Z0.100000
G00 X0.1000 Y0.6000 
G01 Z-0.0130 
G01 Z0.100000
G00 X0.3000 Y0.6000 
G01 Z-0.0130 
G01 Z0.100000
G00 X0.5000 Y0.6000 
G01 Z-0.0130 
G01 Z0.100000
G00 X0.7000 Y0.1500 
G01 Z-0.0130 
G01 Z0.100000
G00 X0.8500 Y0.4500 
G01 Z-0.0130 
G01 Z0.100000
G00 X0.8500 Y0.1500 
G01 Z-0.0130 
G01 Z0.100000
G00 X1.0000 Y0.1500 
G01 Z-0.0130 
G01 Z0.100000
G00 Z0.5000 
M05
M02
