(.../john/src/pcbgcode/pcb-gcode.ulp)
(Copyright 2005 - 2012 by John Johnson)
(See readme.txt for licensing terms.)
(This file generated from the board:)
(.../pcbgcode/docs/examples/drills.brd)
(Current profile is .../pcb-gcode-3.6.2.4/profiles/generic.pp  )
(This file generated 8/16/22 11:14 AM)
(Settings from pcb-machine.h)
(spindle on time = 3.0000)
(spindle speed = 15000.0000)
(milling depth = -0.0100)
(tool change at 0.0000 0.0000 1.0000 )
(feed rate xy = F10.00 )
(feed rate z  = F5.00  )
(Z Axis Settings)
(  High     Up        Down     Drill)
(0.5000 	0.1000 	-0.0070 	-0.0320 )
(Settings from pcb-defaults.h)
(isolate min = 0.0010)
(isolate max = 0.0200)
(isolate step = 0.0050)
(Generated top outlines, top drill, bottom outlines, bottom drill, )
(Unit of measure: inch)
(Beginning of every file)
(Beginning of every top file)
(MILL Begin)
(Top MILL Begin)
(Inch Mode)
G20
(Absolute Coordinates)
G90
(Set XY plane for z interpolation)
G17
S15000
G00 Z0.5000 
G00 X0.0000 Y0.0000 
M03
G04 P3.000000
G00 Z0.1000 
G00 X0.0750 Y0.0750 
G01 Z-0.0100 F5.00  
G02 X0.0750 Y0.2000 I0.0000 J0.0625 F10.00 
G00 Z0.1000 
G00 X0.1000 Y0.2000 
G01 Z-0.0100 F5.00  
G02 X0.1000 Y0.0750 I0.0000 J-0.0625 F10.00 
G00 Z0.1000 
G00 X0.2250 Y0.1500 
G01 Z-0.0100 F5.00  
G03 X0.3750 Y0.1500 I0.0750 J0.0000 F10.00 
G00 Z0.1000 
G00 X0.3750 Y0.3000 
G01 Z-0.0100 F5.00  
G03 X0.2250 Y0.3000 I-0.0750 J0.0000 F10.00 
G00 Z0.1000 
G00 X0.5000 Y0.0500 
G01 Z-0.0100 F5.00  
G02 X0.6000 Y0.1000 I0.0500 J0.0250 F10.00 
G00 Z0.1000 
G00 X0.6500 Y0.1000 
G01 Z-0.0100 F5.00  
G03 X0.7500 Y0.0500 I0.0500 J-0.0250 F10.00 
G00 Z0.1000 
G00 X0.7000 Y0.2500 
G01 Z-0.0100 F5.00  
G02 X0.7000 Y0.3000 I0.0000 J0.0250 F10.00 
G00 Z0.1000 
G00 X0.6500 Y0.3000 
G01 Z-0.0100 F5.00  
G02 X0.6000 Y0.2500 I-0.0250 J-0.0250 F10.00 
(Top MILL End)
(MILL End)
(End of every top file)
(End of every file)
G00 Z0.5000 
M05
M02
