(.../john/src/pcbgcode/pcb-gcode.ulp)
(Copyright 2005 - 2012 by John Johnson)
(See readme.txt for licensing terms.)
(This file generated from the board:)
(.../pcbgcode/docs/examples/drills.brd)
(Current profile is .../pcb-gcode-3.6.2.4/profiles/generic.pp  )
(This file generated 8/15/22 1:48 PM)
(Settings from pcb-machine.h)
(spindle on time = 3.0000)
(spindle speed = 20000.0000)
(tool change at 0.0000 0.0000 1.0000 )
(feed rate xy = F0.00  )
(feed rate z  = F20.00 )
(Z Axis Settings)
(  High     Up        Down     Drill)
(0.5000 	0.1000 	-0.0070 	-0.0320 )
(Settings from pcb-defaults.h)
(isolate min = 0.0010)
(isolate max = 0.0200)
(isolate step = 0.0050)
(Generated top outlines, top drill, bottom outlines, bottom drill, )
(Unit of measure: inch)
(Beginning of every file)
(Beginning of every bottom file)
(Beginning of All Drill files)
(Bottom Drill Begin)
(Rack file: .../pcbgcode/docs/examples/drills.drl)
(Min Sub is the minimum hole size this tool was subbed for.)
(Max Sub is the maximum hole size this tool was subbed for.)
( Tool|       Size           |  Min Sub |  Max Sub |   Count )
( T01     0.381mm   0.0150in   0.0079in   0.0079in        1     )
( T03     0.813mm   0.0320in   0.0256in   0.1000in       11    THIS IS AN ENDMILL )
( T04     3.175mm   0.1250in   0.2000in   0.3750in        2    THIS IS AN ENDMILL )
(Inch Mode)
G20
(Absolute Coordinates)
G90
(Set XY plane for z interpolation)
G17
S20000
G00 Z0.5000 
G00 X0.0000 Y0.0000 
M03
G04 P3.000000
(Tool Change Begin)
(Bottom Tool Change Begin)
M05
G00 Z1.0000 
M06 T01  ; 0.0150 
(Bottom Tool changed)
(Tool changed)
(Tool zero begin)
(Bottom Tool zero begin)
G01 Z0.0000 F20.00 
M06 
(Bottom Tool zero end)
(Tool zero end)
G00 Z0.1000 
M03
G04 P3.000000
(Bottom Tool Change End)
(Tool Change End)
G00 Z0.100000
G00 X-0.7000 Y0.1500 
G01 Z-0.0320 F20.00 
G01 Z0.100000
(R0.1000  P1.000000)
(Tool Change Begin)
(Bottom Tool Change Begin)
M05
G00 Z1.0000 
G00 X0.0000 Y0.0000 
M06 T03  ; 0.0320 
(Bottom Tool changed)
(Tool changed)
(Tool zero begin)
(Bottom Tool zero begin)
G01 Z0.0000 F20.00 
M06 
(Bottom Tool zero end)
(Tool zero end)
G00 Z0.1000 
M03
G04 P3.000000
(Bottom Tool Change End)
(Tool Change End)
(Start milling a hole)
(X-0.1000 Y0.1500, depth=-0.0320, tool_size=0.0320, hole_size=0.0900, step_size=0.0100)
(helical selected)
G00 X-0.0710 Y0.1500 
G01 Z0.0000 F10.00 
G02 X-0.1290 Y0.1500 Z-0.0075 I-0.0290 J0.0000 F20.00 
G02 X-0.0710 Y0.1500 Z-0.0150 I0.0290 J0.0000 F20.00 
G02 X-0.1290 Y0.1500 Z-0.0150 I-0.0290 J0.0000 F20.00 
G02 X-0.0710 Y0.1500 Z-0.0300 I0.0290 J0.0000 F20.00 
G02 X-0.1290 Y0.1500 Z-0.0310 I-0.0290 J0.0000 F20.00 
G02 X-0.0710 Y0.1500 Z-0.0320 I0.0290 J0.0000 F20.00 
G02 X-0.1290 Y0.1500 Z-0.0320 I-0.0290 J0.0000 F20.00 
G02 X-0.0710 Y0.1500 Z-0.0320 I0.0290 J0.0000 F20.00 
G01 Z0.1000 
(Start milling a hole)
(X-0.1000 Y0.3000, depth=-0.0320, tool_size=0.0320, hole_size=0.0700, step_size=0.0100)
(helical selected)
G00 X-0.0810 Y0.3000 
G01 Z0.0000 F10.00 
G02 X-0.1190 Y0.3000 Z-0.0075 I-0.0190 J0.0000 F20.00 
G02 X-0.0810 Y0.3000 Z-0.0150 I0.0190 J0.0000 F20.00 
G02 X-0.1190 Y0.3000 Z-0.0150 I-0.0190 J0.0000 F20.00 
G02 X-0.0810 Y0.3000 Z-0.0300 I0.0190 J0.0000 F20.00 
G02 X-0.1190 Y0.3000 Z-0.0310 I-0.0190 J0.0000 F20.00 
G02 X-0.0810 Y0.3000 Z-0.0320 I0.0190 J0.0000 F20.00 
G02 X-0.1190 Y0.3000 Z-0.0320 I-0.0190 J0.0000 F20.00 
G02 X-0.0810 Y0.3000 Z-0.0320 I0.0190 J0.0000 F20.00 
G01 Z0.1000 
(Start milling a hole)
(X-0.1000 Y0.4500, depth=-0.0320, tool_size=0.0320, hole_size=0.1000, step_size=0.0100)
(helical selected)
G00 X-0.0660 Y0.4500 
G01 Z0.0000 F10.00 
G02 X-0.1340 Y0.4500 Z-0.0075 I-0.0340 J0.0000 F20.00 
G02 X-0.0660 Y0.4500 Z-0.0150 I0.0340 J0.0000 F20.00 
G02 X-0.1340 Y0.4500 Z-0.0150 I-0.0340 J0.0000 F20.00 
G02 X-0.0660 Y0.4500 Z-0.0300 I0.0340 J0.0000 F20.00 
G02 X-0.1340 Y0.4500 Z-0.0310 I-0.0340 J0.0000 F20.00 
G02 X-0.0660 Y0.4500 Z-0.0320 I0.0340 J0.0000 F20.00 
G02 X-0.1340 Y0.4500 Z-0.0320 I-0.0340 J0.0000 F20.00 
G02 X-0.0660 Y0.4500 Z-0.0320 I0.0340 J0.0000 F20.00 
G01 Z0.1000 
(Start milling a hole)
(X-0.1000 Y0.6000, depth=-0.0320, tool_size=0.0320, hole_size=0.0900, step_size=0.0100)
(helical selected)
G00 X-0.0710 Y0.6000 
G01 Z0.0000 F10.00 
G02 X-0.1290 Y0.6000 Z-0.0075 I-0.0290 J0.0000 F20.00 
G02 X-0.0710 Y0.6000 Z-0.0150 I0.0290 J0.0000 F20.00 
G02 X-0.1290 Y0.6000 Z-0.0150 I-0.0290 J0.0000 F20.00 
G02 X-0.0710 Y0.6000 Z-0.0300 I0.0290 J0.0000 F20.00 
G02 X-0.1290 Y0.6000 Z-0.0310 I-0.0290 J0.0000 F20.00 
G02 X-0.0710 Y0.6000 Z-0.0320 I0.0290 J0.0000 F20.00 
G02 X-0.1290 Y0.6000 Z-0.0320 I-0.0290 J0.0000 F20.00 
G02 X-0.0710 Y0.6000 Z-0.0320 I0.0290 J0.0000 F20.00 
G01 Z0.1000 
(Start milling a hole)
(X-0.3000 Y0.6000, depth=-0.0320, tool_size=0.0320, hole_size=0.0394, step_size=0.0100)
(helical selected)
G00 X-0.2963 Y0.6000 
G01 Z0.0000 F10.00 
G02 X-0.3037 Y0.6000 Z-0.0075 I-0.0037 J0.0000 F20.00 
G02 X-0.2963 Y0.6000 Z-0.0150 I0.0037 J0.0000 F20.00 
G02 X-0.3037 Y0.6000 Z-0.0150 I-0.0037 J0.0000 F20.00 
G02 X-0.2963 Y0.6000 Z-0.0300 I0.0037 J0.0000 F20.00 
G02 X-0.3037 Y0.6000 Z-0.0310 I-0.0037 J0.0000 F20.00 
G02 X-0.2963 Y0.6000 Z-0.0320 I0.0037 J0.0000 F20.00 
G02 X-0.3037 Y0.6000 Z-0.0320 I-0.0037 J0.0000 F20.00 
G02 X-0.2963 Y0.6000 Z-0.0320 I0.0037 J0.0000 F20.00 
G01 Z0.1000 
(Start milling a hole)
(X-0.3000 Y0.4500, depth=-0.0320, tool_size=0.0320, hole_size=0.0335, step_size=0.0100)
(helical selected)
G00 X-0.2993 Y0.4500 
G01 Z0.0000 F10.00 
G02 X-0.3007 Y0.4500 Z-0.0075 I-0.0007 J0.0000 F20.00 
G02 X-0.2993 Y0.4500 Z-0.0150 I0.0007 J0.0000 F20.00 
G02 X-0.3007 Y0.4500 Z-0.0150 I-0.0007 J0.0000 F20.00 
G02 X-0.2993 Y0.4500 Z-0.0300 I0.0007 J0.0000 F20.00 
G02 X-0.3007 Y0.4500 Z-0.0310 I-0.0007 J0.0000 F20.00 
G02 X-0.2993 Y0.4500 Z-0.0320 I0.0007 J0.0000 F20.00 
G02 X-0.3007 Y0.4500 Z-0.0320 I-0.0007 J0.0000 F20.00 
G02 X-0.2993 Y0.4500 Z-0.0320 I0.0007 J0.0000 F20.00 
G01 Z0.1000 
(Start milling a hole)
(X-0.3000 Y0.3000, depth=-0.0320, tool_size=0.0320, hole_size=0.0600, step_size=0.0100)
(helical selected)
G00 X-0.2860 Y0.3000 
G01 Z0.0000 F10.00 
G02 X-0.3140 Y0.3000 Z-0.0075 I-0.0140 J0.0000 F20.00 
G02 X-0.2860 Y0.3000 Z-0.0150 I0.0140 J0.0000 F20.00 
G02 X-0.3140 Y0.3000 Z-0.0150 I-0.0140 J0.0000 F20.00 
G02 X-0.2860 Y0.3000 Z-0.0300 I0.0140 J0.0000 F20.00 
G02 X-0.3140 Y0.3000 Z-0.0310 I-0.0140 J0.0000 F20.00 
G02 X-0.2860 Y0.3000 Z-0.0320 I0.0140 J0.0000 F20.00 
G02 X-0.3140 Y0.3000 Z-0.0320 I-0.0140 J0.0000 F20.00 
G02 X-0.2860 Y0.3000 Z-0.0320 I0.0140 J0.0000 F20.00 
G01 Z0.1000 
(Start milling a hole)
(X-0.3000 Y0.1500, depth=-0.0320, tool_size=0.0320, hole_size=0.0256, step_size=0.0100)
(helical selected)
(hole_size < tool_size)
G00 X-0.3000 Y0.1500 
G01 Z-0.0320 
G01 Z0.100000
(Start milling a hole)
(X-0.5000 Y0.1500, depth=-0.0320, tool_size=0.0320, hole_size=0.0256, step_size=0.0100)
(helical selected)
(hole_size < tool_size)
G00 X-0.5000 Y0.1500 
G01 Z-0.0320 
G01 Z0.100000
(Start milling a hole)
(X-0.5000 Y0.4500, depth=-0.0320, tool_size=0.0320, hole_size=0.0335, step_size=0.0100)
(helical selected)
G00 X-0.4993 Y0.4500 
G01 Z0.0000 F10.00 
G02 X-0.5007 Y0.4500 Z-0.0075 I-0.0007 J0.0000 F20.00 
G02 X-0.4993 Y0.4500 Z-0.0150 I0.0007 J0.0000 F20.00 
G02 X-0.5007 Y0.4500 Z-0.0150 I-0.0007 J0.0000 F20.00 
G02 X-0.4993 Y0.4500 Z-0.0300 I0.0007 J0.0000 F20.00 
G02 X-0.5007 Y0.4500 Z-0.0310 I-0.0007 J0.0000 F20.00 
G02 X-0.4993 Y0.4500 Z-0.0320 I0.0007 J0.0000 F20.00 
G02 X-0.5007 Y0.4500 Z-0.0320 I-0.0007 J0.0000 F20.00 
G02 X-0.4993 Y0.4500 Z-0.0320 I0.0007 J0.0000 F20.00 
G01 Z0.1000 
(Start milling a hole)
(X-0.5000 Y0.6000, depth=-0.0320, tool_size=0.0320, hole_size=0.0394, step_size=0.0100)
(helical selected)
G00 X-0.4963 Y0.6000 
G01 Z0.0000 F10.00 
G02 X-0.5037 Y0.6000 Z-0.0075 I-0.0037 J0.0000 F20.00 
G02 X-0.4963 Y0.6000 Z-0.0150 I0.0037 J0.0000 F20.00 
G02 X-0.5037 Y0.6000 Z-0.0150 I-0.0037 J0.0000 F20.00 
G02 X-0.4963 Y0.6000 Z-0.0300 I0.0037 J0.0000 F20.00 
G02 X-0.5037 Y0.6000 Z-0.0310 I-0.0037 J0.0000 F20.00 
G02 X-0.4963 Y0.6000 Z-0.0320 I0.0037 J0.0000 F20.00 
G02 X-0.5037 Y0.6000 Z-0.0320 I-0.0037 J0.0000 F20.00 
G02 X-0.4963 Y0.6000 Z-0.0320 I0.0037 J0.0000 F20.00 
G01 Z0.1000 
(Start milling a hole)
(X-0.8500 Y0.1500, depth=-0.0320, tool_size=0.0320, hole_size=0.0600, step_size=0.0100)
(helical selected)
G00 X-0.8360 Y0.1500 
G01 Z0.0000 F10.00 
G02 X-0.8640 Y0.1500 Z-0.0075 I-0.0140 J0.0000 F20.00 
G02 X-0.8360 Y0.1500 Z-0.0150 I0.0140 J0.0000 F20.00 
G02 X-0.8640 Y0.1500 Z-0.0150 I-0.0140 J0.0000 F20.00 
G02 X-0.8360 Y0.1500 Z-0.0300 I0.0140 J0.0000 F20.00 
G02 X-0.8640 Y0.1500 Z-0.0310 I-0.0140 J0.0000 F20.00 
G02 X-0.8360 Y0.1500 Z-0.0320 I0.0140 J0.0000 F20.00 
G02 X-0.8640 Y0.1500 Z-0.0320 I-0.0140 J0.0000 F20.00 
G02 X-0.8360 Y0.1500 Z-0.0320 I0.0140 J0.0000 F20.00 
G01 Z0.1000 
(Start milling a hole)
(X-1.0000 Y0.1500, depth=-0.0320, tool_size=0.0320, hole_size=0.0500, step_size=0.0100)
(helical selected)
G00 X-0.9910 Y0.1500 
G01 Z0.0000 F10.00 
G02 X-1.0090 Y0.1500 Z-0.0075 I-0.0090 J0.0000 F20.00 
G02 X-0.9910 Y0.1500 Z-0.0150 I0.0090 J0.0000 F20.00 
G02 X-1.0090 Y0.1500 Z-0.0150 I-0.0090 J0.0000 F20.00 
G02 X-0.9910 Y0.1500 Z-0.0300 I0.0090 J0.0000 F20.00 
G02 X-1.0090 Y0.1500 Z-0.0310 I-0.0090 J0.0000 F20.00 
G02 X-0.9910 Y0.1500 Z-0.0320 I0.0090 J0.0000 F20.00 
G02 X-1.0090 Y0.1500 Z-0.0320 I-0.0090 J0.0000 F20.00 
G02 X-0.9910 Y0.1500 Z-0.0320 I0.0090 J0.0000 F20.00 
G01 Z0.1000 
(Tool Change Begin)
(Bottom Tool Change Begin)
M05
G00 Z1.0000 
G00 X0.0000 Y0.0000 
M06 T04  ; 0.1250 
(Bottom Tool changed)
(Tool changed)
(Tool zero begin)
(Bottom Tool zero begin)
G01 Z0.0000 F20.00 
M06 
(Bottom Tool zero end)
(Tool zero end)
G00 Z0.1000 
M03
G04 P3.000000
(Bottom Tool Change End)
(Tool Change End)
(Start milling a hole)
(X-0.5000 Y0.3000, depth=-0.0320, tool_size=0.1250, hole_size=0.2000, step_size=0.0300)
(helical selected)
G00 X-0.4625 Y0.3000 
G01 Z0.0000 F10.00 
G02 X-0.5375 Y0.3000 Z-0.0150 I-0.0375 J0.0000 F20.00 
G02 X-0.4625 Y0.3000 Z-0.0300 I0.0375 J0.0000 F20.00 
G02 X-0.5375 Y0.3000 Z-0.0310 I-0.0375 J0.0000 F20.00 
G02 X-0.4625 Y0.3000 Z-0.0320 I0.0375 J0.0000 F20.00 
G02 X-0.5375 Y0.3000 Z-0.0320 I-0.0375 J0.0000 F20.00 
G02 X-0.4625 Y0.3000 Z-0.0320 I0.0375 J0.0000 F20.00 
G01 Z0.1000 
(Start milling a hole)
(X-0.8500 Y0.4500, depth=-0.0320, tool_size=0.1250, hole_size=0.3750, step_size=0.0300)
(helical selected)
G00 X-0.7250 Y0.4500 
G01 Z0.0000 F10.00 
G02 X-0.9750 Y0.4500 Z-0.0150 I-0.1250 J0.0000 F20.00 
G02 X-0.7250 Y0.4500 Z-0.0300 I0.1250 J0.0000 F20.00 
G02 X-0.9750 Y0.4500 Z-0.0310 I-0.1250 J0.0000 F20.00 
G02 X-0.7250 Y0.4500 Z-0.0320 I0.1250 J0.0000 F20.00 
G02 X-0.9750 Y0.4500 Z-0.0320 I-0.1250 J0.0000 F20.00 
G02 X-0.7250 Y0.4500 Z-0.0320 I0.1250 J0.0000 F20.00 
G01 Z0.1000 
(Bottom Drill End)
(End of all Drill Files)
(End of every bottom file)
(End of every file)
T01 
G00 Z0.5000 
M05
M02
