(.../src/pcbgcode.repo/pcb-gcode.ulp)
(Copyright 2005 - 2012 by John Johnson)
(See readme.txt for licensing terms.)
(This file generated from the board:)
(.../pcbgcode.repo/docs/examples/enabtmr.brd)
(Current profile is .../pcbgcode-work/profiles/mach.pp  )
(This file generated 1/16/14 12:19 PM)
(Settings from pcb-machine.h)
(spindle on time = 3.0000)
(  Tool Size)
(0.0070  )
(spindle speed = 30000.0000)
(tool change at 0.0000  0.0000  1.0000  )
(feed rate xy = F20    )
(feed rate z  = F10    )
(Z Axis Settings)
(  High     Up        Down     Drill)
(0.5000  	0.1000  	-0.0070 	-0.0320 )
(Settings from pcb-defaults.h)
(isolate min = 0.0010)
(isolate max = 0.0200)
(isolate step = 0.0050)
(Generated top outlines, top drill, bottom outlines, bottom drill, )
(Unit of measure: inch)
(Inch Mode)
G20
(Absolute Coordinates)
G90
S30000
G00 Z0.5000  
G00 X0.0000  Y0.0000  
M03
G04 P3.000000
G00 Z0.1000  
G00 X1.8705  Y0.8400  
G01 Z-0.0070 F10    
G01 X1.8705  Y0.6060  F20    
G01 X1.8537  Y0.5892  
G01 X1.8537  Y0.5508  
G01 X1.8808  Y0.5237  
G01 X1.9192  Y0.5237  
G01 X1.9463  Y0.5508  
G01 X1.9463  Y0.5892  
G01 X1.9295  Y0.6060  
G01 X1.9295  Y0.8452  
G01 X1.9281  Y0.8555  
G01 X1.9254  Y0.8656  
G01 X1.9215  Y0.8752  
G01 X1.9162  Y0.8843  
G01 X1.9099  Y0.8925  
G01 X1.9025  Y0.8999  
G01 X1.8943  Y0.9062  
G01 X1.8852  Y0.9115  
G01 X1.8756  Y0.9154  
G01 X1.8655  Y0.9181  
G01 X1.8552  Y0.9195  
G01 X1.6900  Y0.9195  
G01 X1.6887  Y0.9195  
G01 X1.6860  Y0.9199  
G01 X1.6834  Y0.9206  
G01 X1.6809  Y0.9216  
G01 X1.6786  Y0.9230  
G01 X1.6765  Y0.9246  
G01 X1.6746  Y0.9265  
G01 X1.6730  Y0.9286  
G01 X1.6716  Y0.9309  
G01 X1.6706  Y0.9334  
G01 X1.6699  Y0.9360  
G01 X1.6695  Y0.9387  
G01 X1.6695  Y0.9400  
G01 X1.6695  Y1.2340  
G01 X1.6863  Y1.2508  
G01 X1.6863  Y1.2892  
G01 X1.6592  Y1.3163  
G01 X1.6208  Y1.3163  
G01 X1.5937  Y1.2892  
G01 X1.5937  Y1.2508  
G01 X1.6105  Y1.2340  
G01 X1.6105  Y0.9348  
G01 X1.6119  Y0.9245  
G01 X1.6146  Y0.9144  
G01 X1.6185  Y0.9048  
G01 X1.6238  Y0.8957  
G01 X1.6301  Y0.8875  
G01 X1.6375  Y0.8801  
G01 X1.6457  Y0.8738  
G01 X1.6548  Y0.8685  
G01 X1.6644  Y0.8646  
G01 X1.6745  Y0.8619  
G01 X1.6848  Y0.8605  
G01 X1.8500  Y0.8605  
G01 X1.8513  Y0.8605  
G01 X1.8540  Y0.8601  
G01 X1.8566  Y0.8594  
G01 X1.8591  Y0.8584  
G01 X1.8614  Y0.8570  
G01 X1.8635  Y0.8554  
G01 X1.8654  Y0.8535  
G01 X1.8670  Y0.8514  
G01 X1.8684  Y0.8491  
G01 X1.8694  Y0.8466  
G01 X1.8701  Y0.8440  
G01 X1.8705  Y0.8413  
G01 X1.8705  Y0.8400  
G00 Z0.1000  
G00 X2.5395  Y0.8740  
G01 Z-0.0070 F10    
G01 X2.5563  Y0.8908  F20    
G01 X2.5563  Y0.9292  
G01 X2.5292  Y0.9563  
G01 X2.4908  Y0.9563  
G01 X2.4637  Y0.9292  
G01 X2.4637  Y0.8908  
G01 X2.4805  Y0.8740  
G01 X2.4805  Y0.4960  
G01 X2.4637  Y0.4792  
G01 X2.4637  Y0.4408  
G01 X2.4908  Y0.4137  
G01 X2.5292  Y0.4137  
G01 X2.5563  Y0.4408  
G01 X2.5563  Y0.4792  
G01 X2.5395  Y0.4960  
G01 X2.5395  Y0.8740  
G00 Z0.1000  
G00 X1.9405  Y1.5060  
G01 Z-0.0070 F10    
G01 X1.9237  Y1.4892  F20    
G01 X1.9237  Y1.4508  
G01 X1.9508  Y1.4237  
G01 X1.9892  Y1.4237  
G01 X2.0163  Y1.4508  
G01 X2.0163  Y1.4892  
G01 X1.9995  Y1.5060  
G01 X1.9995  Y1.7540  
G01 X2.0163  Y1.7708  
G01 X2.0163  Y1.8092  
G01 X1.9892  Y1.8363  
G01 X1.9508  Y1.8363  
G01 X1.9237  Y1.8092  
G01 X1.9237  Y1.7708  
G01 X1.9405  Y1.7540  
G01 X1.9405  Y1.5060  
G00 Z0.1000  
G00 X2.1805  Y1.5060  
G01 Z-0.0070 F10    
G01 X2.1637  Y1.4892  F20    
G01 X2.1637  Y1.4508  
G01 X2.1908  Y1.4237  
G01 X2.2292  Y1.4237  
G01 X2.2530  Y1.4475  
G01 X2.2530  Y1.4205  
G01 X2.2805  Y1.3930  
G01 X2.3195  Y1.3930  
G01 X2.3470  Y1.4205  
G01 X2.3470  Y1.4595  
G01 X2.3195  Y1.4870  
G01 X2.2805  Y1.4870  
G01 X2.2563  Y1.4628  
G01 X2.2563  Y1.4892  
G01 X2.2395  Y1.5060  
G01 X2.2395  Y1.7040  
G01 X2.2563  Y1.7208  
G01 X2.2563  Y1.7592  
G01 X2.2292  Y1.7863  
G01 X2.1908  Y1.7863  
G01 X2.1637  Y1.7592  
G01 X2.1637  Y1.7208  
G01 X2.1805  Y1.7040  
G01 X2.1805  Y1.5060  
G00 Z0.1000  
G00 X1.4070  Y1.8405  
G01 Z-0.0070 F10    
G01 X1.4070  Y1.8795  F20    
G01 X1.3795  Y1.9070  
G01 X1.3405  Y1.9070  
G01 X1.3130  Y1.8795  
G01 X1.3130  Y1.8405  
G01 X1.3405  Y1.8130  
G01 X1.3795  Y1.8130  
G01 X1.4070  Y1.8405  
G00 Z0.1000  
G00 X0.8070  Y1.8563  
G01 Z-0.0070 F10    
G01 X0.8070  Y1.8637  F20    
G01 X0.8058  Y1.8710  
G01 X0.8036  Y1.8780  
G01 X0.8002  Y1.8846  
G01 X0.7958  Y1.8906  
G01 X0.7906  Y1.8958  
G01 X0.7846  Y1.9002  
G01 X0.7780  Y1.9036  
G01 X0.7710  Y1.9058  
G01 X0.7637  Y1.9070  
G01 X0.7563  Y1.9070  
G01 X0.7490  Y1.9058  
G01 X0.7420  Y1.9036  
G01 X0.7354  Y1.9002  
G01 X0.7294  Y1.8958  
G01 X0.7242  Y1.8906  
G01 X0.7198  Y1.8846  
G01 X0.7164  Y1.8780  
G01 X0.7142  Y1.8710  
G01 X0.7130  Y1.8637  
G01 X0.7130  Y1.8563  
G01 X0.7142  Y1.8490  
G01 X0.7164  Y1.8420  
G01 X0.7198  Y1.8354  
G01 X0.7242  Y1.8294  
G01 X0.7294  Y1.8242  
G01 X0.7354  Y1.8198  
G01 X0.7420  Y1.8164  
G01 X0.7490  Y1.8142  
G01 X0.7563  Y1.8130  
G01 X0.7637  Y1.8130  
G01 X0.7710  Y1.8142  
G01 X0.7780  Y1.8164  
G01 X0.7846  Y1.8198  
G01 X0.7906  Y1.8242  
G01 X0.7958  Y1.8294  
G01 X0.8002  Y1.8354  
G01 X0.8036  Y1.8420  
G01 X0.8058  Y1.8490  
G01 X0.8070  Y1.8563  
G00 Z0.1000  
G00 X2.9470  Y1.4363  
G01 Z-0.0070 F10    
G01 X2.9470  Y1.4437  F20    
G01 X2.9458  Y1.4510  
G01 X2.9436  Y1.4580  
G01 X2.9402  Y1.4646  
G01 X2.9358  Y1.4706  
G01 X2.9306  Y1.4758  
G01 X2.9246  Y1.4802  
G01 X2.9180  Y1.4836  
G01 X2.9110  Y1.4858  
G01 X2.9037  Y1.4870  
G01 X2.8963  Y1.4870  
G01 X2.8890  Y1.4858  
G01 X2.8820  Y1.4836  
G01 X2.8754  Y1.4802  
G01 X2.8694  Y1.4758  
G01 X2.8642  Y1.4706  
G01 X2.8598  Y1.4646  
G01 X2.8564  Y1.4580  
G01 X2.8542  Y1.4510  
G01 X2.8530  Y1.4437  
G01 X2.8530  Y1.4363  
G01 X2.8542  Y1.4290  
G01 X2.8564  Y1.4220  
G01 X2.8598  Y1.4154  
G01 X2.8642  Y1.4094  
G01 X2.8694  Y1.4042  
G01 X2.8754  Y1.3998  
G01 X2.8820  Y1.3964  
G01 X2.8890  Y1.3942  
G01 X2.8963  Y1.3930  
G01 X2.9037  Y1.3930  
G01 X2.9110  Y1.3942  
G01 X2.9180  Y1.3964  
G01 X2.9246  Y1.3998  
G01 X2.9306  Y1.4042  
G01 X2.9358  Y1.4094  
G01 X2.9402  Y1.4154  
G01 X2.9436  Y1.4220  
G01 X2.9458  Y1.4290  
G01 X2.9470  Y1.4363  
G00 Z0.1000  
G00 X2.4825  Y1.7224  
G01 Z-0.0070 F10    
G01 X2.4825  Y1.7576  F20    
G01 X2.4576  Y1.7825  
G01 X2.4224  Y1.7825  
G01 X2.3975  Y1.7576  
G01 X2.3975  Y1.7224  
G01 X2.4224  Y1.6975  
G01 X2.4576  Y1.6975  
G01 X2.4825  Y1.7224  
G00 Z0.1000  
G00 X2.3825  Y1.7224  
G01 Z-0.0070 F10    
G01 X2.3825  Y1.7576  F20    
G01 X2.3576  Y1.7825  
G01 X2.3224  Y1.7825  
G01 X2.2975  Y1.7576  
G01 X2.2975  Y1.7224  
G01 X2.3224  Y1.6975  
G01 X2.3576  Y1.6975  
G01 X2.3825  Y1.7224  
G00 Z0.1000  
G00 X2.1825  Y0.2424  
G01 Z-0.0070 F10    
G01 X2.1825  Y0.2776  F20    
G01 X2.1576  Y0.3025  
G01 X2.1224  Y0.3025  
G01 X2.0975  Y0.2776  
G01 X2.0975  Y0.2424  
G01 X2.1224  Y0.2175  
G01 X2.1576  Y0.2175  
G01 X2.1825  Y0.2424  
G00 Z0.1000  
G00 X2.6825  Y0.2424  
G01 Z-0.0070 F10    
G01 X2.6825  Y0.2776  F20    
G01 X2.6576  Y0.3025  
G01 X2.6224  Y0.3025  
G01 X2.5975  Y0.2776  
G01 X2.5975  Y0.2424  
G01 X2.6224  Y0.2175  
G01 X2.6576  Y0.2175  
G01 X2.6825  Y0.2424  
G00 Z0.1000  
G00 X1.3625  Y0.1824  
G01 Z-0.0070 F10    
G01 X1.3625  Y0.2176  F20    
G01 X1.3376  Y0.2425  
G01 X1.3024  Y0.2425  
G01 X1.2775  Y0.2176  
G01 X1.2775  Y0.1824  
G01 X1.3024  Y0.1575  
G01 X1.3376  Y0.1575  
G01 X1.3625  Y0.1824  
G00 Z0.1000  
G00 X1.8625  Y0.1824  
G01 Z-0.0070 F10    
G01 X1.8625  Y0.2176  F20    
G01 X1.8376  Y0.2425  
G01 X1.8024  Y0.2425  
G01 X1.7775  Y0.2176  
G01 X1.7775  Y0.1824  
G01 X1.8024  Y0.1575  
G01 X1.8376  Y0.1575  
G01 X1.8625  Y0.1824  
G00 Z0.1000  
G00 X1.4725  Y0.6924  
G01 Z-0.0070 F10    
G01 X1.4725  Y0.7276  F20    
G01 X1.4476  Y0.7525  
G01 X1.4124  Y0.7525  
G01 X1.3875  Y0.7276  
G01 X1.3875  Y0.6924  
G01 X1.4124  Y0.6675  
G01 X1.4476  Y0.6675  
G01 X1.4725  Y0.6924  
G00 Z0.1000  
G00 X1.4725  Y1.1924  
G01 Z-0.0070 F10    
G01 X1.4725  Y1.2276  F20    
G01 X1.4476  Y1.2525  
G01 X1.4124  Y1.2525  
G01 X1.3875  Y1.2276  
G01 X1.3875  Y1.1924  
G01 X1.4124  Y1.1675  
G01 X1.4476  Y1.1675  
G01 X1.4725  Y1.1924  
G00 Z0.1000  
G00 X1.5425  Y1.8924  
G01 Z-0.0070 F10    
G01 X1.5425  Y1.9276  F20    
G01 X1.5176  Y1.9525  
G01 X1.4824  Y1.9525  
G01 X1.4575  Y1.9276  
G01 X1.4575  Y1.8924  
G01 X1.4824  Y1.8675  
G01 X1.5176  Y1.8675  
G01 X1.5425  Y1.8924  
G00 Z0.1000  
G00 X2.0425  Y1.8924  
G01 Z-0.0070 F10    
G01 X2.0425  Y1.9276  F20    
G01 X2.0176  Y1.9525  
G01 X1.9824  Y1.9525  
G01 X1.9575  Y1.9276  
G01 X1.9575  Y1.8924  
G01 X1.9824  Y1.8675  
G01 X2.0176  Y1.8675  
G01 X2.0425  Y1.8924  
G00 Z0.1000  
G00 X1.8125  Y1.6824  
G01 Z-0.0070 F10    
G01 X1.8125  Y1.7176  F20    
G01 X1.7876  Y1.7425  
G01 X1.7524  Y1.7425  
G01 X1.7275  Y1.7176  
G01 X1.7275  Y1.6824  
G01 X1.7524  Y1.6575  
G01 X1.7876  Y1.6575  
G01 X1.8125  Y1.6824  
G00 Z0.1000  
G00 X1.8125  Y1.1824  
G01 Z-0.0070 F10    
G01 X1.8125  Y1.2176  F20    
G01 X1.7876  Y1.2425  
G01 X1.7524  Y1.2425  
G01 X1.7275  Y1.2176  
G01 X1.7275  Y1.1824  
G01 X1.7524  Y1.1575  
G01 X1.7876  Y1.1575  
G01 X1.8125  Y1.1824  
G00 Z0.1000  
G00 X2.9925  Y1.3124  
G01 Z-0.0070 F10    
G01 X2.9925  Y1.3476  F20    
G01 X2.9676  Y1.3725  
G01 X2.9324  Y1.3725  
G01 X2.9075  Y1.3476  
G01 X2.9075  Y1.3124  
G01 X2.9324  Y1.2875  
G01 X2.9676  Y1.2875  
G01 X2.9925  Y1.3124  
G00 Z0.1000  
G00 X2.9925  Y1.1124  
G01 Z-0.0070 F10    
G01 X2.9925  Y1.1476  F20    
G01 X2.9676  Y1.1725  
G01 X2.9324  Y1.1725  
G01 X2.9075  Y1.1476  
G01 X2.9075  Y1.1124  
G01 X2.9324  Y1.0875  
G01 X2.9676  Y1.0875  
G01 X2.9925  Y1.1124  
G00 Z0.1000  
G00 X2.7125  Y1.7024  
G01 Z-0.0070 F10    
G01 X2.7125  Y1.7376  F20    
G01 X2.6876  Y1.7625  
G01 X2.6524  Y1.7625  
G01 X2.6275  Y1.7376  
G01 X2.6275  Y1.7024  
G01 X2.6524  Y1.6775  
G01 X2.6876  Y1.6775  
G01 X2.7125  Y1.7024  
G00 Z0.1000  
G00 X2.7125  Y1.8024  
G01 Z-0.0070 F10    
G01 X2.7125  Y1.8376  F20    
G01 X2.6876  Y1.8625  
G01 X2.6524  Y1.8625  
G01 X2.6275  Y1.8376  
G01 X2.6275  Y1.8024  
G01 X2.6524  Y1.7775  
G01 X2.6876  Y1.7775  
G01 X2.7125  Y1.8024  
G00 Z0.1000  
G00 X2.7125  Y1.2324  
G01 Z-0.0070 F10    
G01 X2.7125  Y1.2676  F20    
G01 X2.6876  Y1.2925  
G01 X2.6524  Y1.2925  
G01 X2.6275  Y1.2676  
G01 X2.6275  Y1.2324  
G01 X2.6524  Y1.2075  
G01 X2.6876  Y1.2075  
G01 X2.7125  Y1.2324  
G00 Z0.1000  
G00 X2.7125  Y0.7324  
G01 Z-0.0070 F10    
G01 X2.7125  Y0.7676  F20    
G01 X2.6876  Y0.7925  
G01 X2.6524  Y0.7925  
G01 X2.6275  Y0.7676  
G01 X2.6275  Y0.7324  
G01 X2.6524  Y0.7075  
G01 X2.6876  Y0.7075  
G01 X2.7125  Y0.7324  
G00 Z0.1000  
G00 X1.7925  Y0.6424  
G01 Z-0.0070 F10    
G01 X1.7925  Y0.6776  F20    
G01 X1.7676  Y0.7025  
G01 X1.7324  Y0.7025  
G01 X1.7075  Y0.6776  
G01 X1.7075  Y0.6424  
G01 X1.7324  Y0.6175  
G01 X1.7676  Y0.6175  
G01 X1.7925  Y0.6424  
G00 Z0.1000  
G00 X1.5925  Y0.6424  
G01 Z-0.0070 F10    
G01 X1.5925  Y0.6776  F20    
G01 X1.5676  Y0.7025  
G01 X1.5324  Y0.7025  
G01 X1.5075  Y0.6776  
G01 X1.5075  Y0.6424  
G01 X1.5324  Y0.6175  
G01 X1.5676  Y0.6175  
G01 X1.5925  Y0.6424  
G00 Z0.1000  
G00 X0.8225  Y0.3224  
G01 Z-0.0070 F10    
G01 X0.8225  Y0.3576  F20    
G01 X0.7976  Y0.3825  
G01 X0.7624  Y0.3825  
G01 X0.7375  Y0.3576  
G01 X0.7375  Y0.3224  
G01 X0.7624  Y0.2975  
G01 X0.7976  Y0.2975  
G01 X0.8225  Y0.3224  
G00 Z0.1000  
G00 X0.8225  Y0.5224  
G01 Z-0.0070 F10    
G01 X0.8225  Y0.5576  F20    
G01 X0.7976  Y0.5825  
G01 X0.7624  Y0.5825  
G01 X0.7375  Y0.5576  
G01 X0.7375  Y0.5224  
G01 X0.7624  Y0.4975  
G01 X0.7976  Y0.4975  
G01 X0.8225  Y0.5224  
G00 Z0.1000  
G00 X0.6025  Y0.8924  
G01 Z-0.0070 F10    
G01 X0.6025  Y0.9276  F20    
G01 X0.5776  Y0.9525  
G01 X0.5424  Y0.9525  
G01 X0.5175  Y0.9276  
G01 X0.5175  Y0.8924  
G01 X0.5424  Y0.8675  
G01 X0.5776  Y0.8675  
G01 X0.6025  Y0.8924  
G00 Z0.1000  
G00 X0.6025  Y1.0924  
G01 Z-0.0070 F10    
G01 X0.6025  Y1.1276  F20    
G01 X0.5776  Y1.1525  
G01 X0.5424  Y1.1525  
G01 X0.5175  Y1.1276  
G01 X0.5175  Y1.0924  
G01 X0.5424  Y1.0675  
G01 X0.5776  Y1.0675  
G01 X0.6025  Y1.0924  
G00 Z0.1000  
G00 X0.7625  Y1.4924  
G01 Z-0.0070 F10    
G01 X0.7625  Y1.5276  F20    
G01 X0.7376  Y1.5525  
G01 X0.7024  Y1.5525  
G01 X0.6775  Y1.5276  
G01 X0.6775  Y1.4924  
G01 X0.7024  Y1.4675  
G01 X0.7376  Y1.4675  
G01 X0.7625  Y1.4924  
G00 Z0.1000  
G00 X0.7625  Y1.2924  
G01 Z-0.0070 F10    
G01 X0.7625  Y1.3276  F20    
G01 X0.7376  Y1.3525  
G01 X0.7024  Y1.3525  
G01 X0.6775  Y1.3276  
G01 X0.6775  Y1.2924  
G01 X0.7024  Y1.2675  
G01 X0.7376  Y1.2675  
G01 X0.7625  Y1.2924  
G00 Z0.1000  
G00 X0.2722  Y1.6416  
G01 Z-0.0070 F10    
G01 X0.1278  Y1.6416  F20    
G01 X0.1200  Y1.6403  
G01 X0.1126  Y1.6379  
G01 X0.1055  Y1.6343  
G01 X0.0992  Y1.6297  
G01 X0.0936  Y1.6241  
G01 X0.0890  Y1.6178  
G01 X0.0854  Y1.6108  
G01 X0.0830  Y1.6033  
G01 X0.0818  Y1.5955  
G01 X0.0818  Y1.5876  
G01 X0.0830  Y1.5799  
G01 X0.0854  Y1.5724  
G01 X0.0890  Y1.5654  
G01 X0.0936  Y1.5590  
G01 X0.0992  Y1.5534  
G01 X0.1055  Y1.5488  
G01 X0.1126  Y1.5452  
G01 X0.1200  Y1.5428  
G01 X0.1278  Y1.5416  
G01 X0.2722  Y1.5416  
G01 X0.2800  Y1.5428  
G01 X0.2874  Y1.5452  
G01 X0.2945  Y1.5488  
G01 X0.3008  Y1.5534  
G01 X0.3064  Y1.5590  
G01 X0.3110  Y1.5654  
G01 X0.3146  Y1.5724  
G01 X0.3170  Y1.5799  
G01 X0.3182  Y1.5876  
G01 X0.3182  Y1.5955  
G01 X0.3170  Y1.6033  
G01 X0.3146  Y1.6108  
G01 X0.3110  Y1.6178  
G01 X0.3064  Y1.6241  
G01 X0.3008  Y1.6297  
G01 X0.2945  Y1.6343  
G01 X0.2874  Y1.6379  
G01 X0.2800  Y1.6403  
G01 X0.2722  Y1.6416  
G00 Z0.1000  
G00 X0.2722  Y1.8384  
G01 Z-0.0070 F10    
G01 X0.1278  Y1.8384  F20    
G01 X0.1200  Y1.8372  
G01 X0.1126  Y1.8348  
G01 X0.1055  Y1.8312  
G01 X0.0992  Y1.8266  
G01 X0.0936  Y1.8210  
G01 X0.0890  Y1.8146  
G01 X0.0854  Y1.8076  
G01 X0.0830  Y1.8001  
G01 X0.0818  Y1.7924  
G01 X0.0818  Y1.7845  
G01 X0.0830  Y1.7767  
G01 X0.0854  Y1.7692  
G01 X0.0890  Y1.7622  
G01 X0.0936  Y1.7559  
G01 X0.0992  Y1.7503  
G01 X0.1055  Y1.7457  
G01 X0.1126  Y1.7421  
G01 X0.1200  Y1.7397  
G01 X0.1278  Y1.7384  
G01 X0.2722  Y1.7384  
G01 X0.2800  Y1.7397  
G01 X0.2874  Y1.7421  
G01 X0.2945  Y1.7457  
G01 X0.3008  Y1.7503  
G01 X0.3064  Y1.7559  
G01 X0.3110  Y1.7622  
G01 X0.3146  Y1.7692  
G01 X0.3170  Y1.7767  
G01 X0.3182  Y1.7845  
G01 X0.3182  Y1.7924  
G01 X0.3170  Y1.8001  
G01 X0.3146  Y1.8076  
G01 X0.3110  Y1.8146  
G01 X0.3064  Y1.8210  
G01 X0.3008  Y1.8266  
G01 X0.2945  Y1.8312  
G01 X0.2874  Y1.8348  
G01 X0.2800  Y1.8372  
G01 X0.2722  Y1.8384  
G00 Z0.1000  
G00 X2.8478  Y0.6984  
G01 Z-0.0070 F10    
G01 X2.9922  Y0.6984  F20    
G01 X3.0000  Y0.6997  
G01 X3.0074  Y0.7021  
G01 X3.0145  Y0.7057  
G01 X3.0208  Y0.7103  
G01 X3.0264  Y0.7159  
G01 X3.0310  Y0.7222  
G01 X3.0346  Y0.7292  
G01 X3.0370  Y0.7367  
G01 X3.0382  Y0.7445  
G01 X3.0382  Y0.7524  
G01 X3.0370  Y0.7601  
G01 X3.0346  Y0.7676  
G01 X3.0310  Y0.7746  
G01 X3.0264  Y0.7810  
G01 X3.0208  Y0.7866  
G01 X3.0145  Y0.7912  
G01 X3.0074  Y0.7948  
G01 X3.0000  Y0.7972  
G01 X2.9922  Y0.7984  
G01 X2.8478  Y0.7984  
G01 X2.8400  Y0.7972  
G01 X2.8326  Y0.7948  
G01 X2.8255  Y0.7912  
G01 X2.8192  Y0.7866  
G01 X2.8136  Y0.7810  
G01 X2.8090  Y0.7746  
G01 X2.8054  Y0.7676  
G01 X2.8030  Y0.7601  
G01 X2.8018  Y0.7524  
G01 X2.8018  Y0.7445  
G01 X2.8030  Y0.7367  
G01 X2.8054  Y0.7292  
G01 X2.8090  Y0.7222  
G01 X2.8136  Y0.7159  
G01 X2.8192  Y0.7103  
G01 X2.8255  Y0.7057  
G01 X2.8326  Y0.7021  
G01 X2.8400  Y0.6997  
G01 X2.8478  Y0.6984  
G00 Z0.1000  
G00 X2.8478  Y0.5016  
G01 Z-0.0070 F10    
G01 X2.9922  Y0.5016  F20    
G01 X3.0000  Y0.5028  
G01 X3.0074  Y0.5052  
G01 X3.0145  Y0.5088  
G01 X3.0208  Y0.5134  
G01 X3.0264  Y0.5190  
G01 X3.0310  Y0.5254  
G01 X3.0346  Y0.5324  
G01 X3.0370  Y0.5399  
G01 X3.0382  Y0.5476  
G01 X3.0382  Y0.5555  
G01 X3.0370  Y0.5633  
G01 X3.0346  Y0.5708  
G01 X3.0310  Y0.5778  
G01 X3.0264  Y0.5841  
G01 X3.0208  Y0.5897  
G01 X3.0145  Y0.5943  
G01 X3.0074  Y0.5979  
G01 X3.0000  Y0.6003  
G01 X2.9922  Y0.6016  
G01 X2.8478  Y0.6016  
G01 X2.8400  Y0.6003  
G01 X2.8326  Y0.5979  
G01 X2.8255  Y0.5943  
G01 X2.8192  Y0.5897  
G01 X2.8136  Y0.5841  
G01 X2.8090  Y0.5778  
G01 X2.8054  Y0.5708  
G01 X2.8030  Y0.5633  
G01 X2.8018  Y0.5555  
G01 X2.8018  Y0.5476  
G01 X2.8030  Y0.5399  
G01 X2.8054  Y0.5324  
G01 X2.8090  Y0.5254  
G01 X2.8136  Y0.5190  
G01 X2.8192  Y0.5134  
G01 X2.8255  Y0.5088  
G01 X2.8326  Y0.5052  
G01 X2.8400  Y0.5028  
G01 X2.8478  Y0.5016  
G00 Z0.1000  
G00 X0.2722  Y0.7616  
G01 Z-0.0070 F10    
G01 X0.1278  Y0.7616  F20    
G01 X0.1200  Y0.7603  
G01 X0.1126  Y0.7579  
G01 X0.1055  Y0.7543  
G01 X0.0992  Y0.7497  
G01 X0.0936  Y0.7441  
G01 X0.0890  Y0.7378  
G01 X0.0854  Y0.7308  
G01 X0.0830  Y0.7233  
G01 X0.0818  Y0.7155  
G01 X0.0818  Y0.7076  
G01 X0.0830  Y0.6999  
G01 X0.0854  Y0.6924  
G01 X0.0890  Y0.6854  
G01 X0.0936  Y0.6790  
G01 X0.0992  Y0.6734  
G01 X0.1055  Y0.6688  
G01 X0.1126  Y0.6652  
G01 X0.1200  Y0.6628  
G01 X0.1278  Y0.6616  
G01 X0.2722  Y0.6616  
G01 X0.2800  Y0.6628  
G01 X0.2874  Y0.6652  
G01 X0.2945  Y0.6688  
G01 X0.3008  Y0.6734  
G01 X0.3064  Y0.6790  
G01 X0.3110  Y0.6854  
G01 X0.3146  Y0.6924  
G01 X0.3170  Y0.6999  
G01 X0.3182  Y0.7076  
G01 X0.3182  Y0.7155  
G01 X0.3170  Y0.7233  
G01 X0.3146  Y0.7308  
G01 X0.3110  Y0.7378  
G01 X0.3064  Y0.7441  
G01 X0.3008  Y0.7497  
G01 X0.2945  Y0.7543  
G01 X0.2874  Y0.7579  
G01 X0.2800  Y0.7603  
G01 X0.2722  Y0.7616  
G00 Z0.1000  
G00 X0.2722  Y0.9584  
G01 Z-0.0070 F10    
G01 X0.1278  Y0.9584  F20    
G01 X0.1200  Y0.9572  
G01 X0.1126  Y0.9548  
G01 X0.1055  Y0.9512  
G01 X0.0992  Y0.9466  
G01 X0.0936  Y0.9410  
G01 X0.0890  Y0.9346  
G01 X0.0854  Y0.9276  
G01 X0.0830  Y0.9201  
G01 X0.0818  Y0.9124  
G01 X0.0818  Y0.9045  
G01 X0.0830  Y0.8967  
G01 X0.0854  Y0.8892  
G01 X0.0890  Y0.8822  
G01 X0.0936  Y0.8759  
G01 X0.0992  Y0.8703  
G01 X0.1055  Y0.8657  
G01 X0.1126  Y0.8621  
G01 X0.1200  Y0.8597  
G01 X0.1278  Y0.8584  
G01 X0.2722  Y0.8584  
G01 X0.2800  Y0.8597  
G01 X0.2874  Y0.8621  
G01 X0.2945  Y0.8657  
G01 X0.3008  Y0.8703  
G01 X0.3064  Y0.8759  
G01 X0.3110  Y0.8822  
G01 X0.3146  Y0.8892  
G01 X0.3170  Y0.8967  
G01 X0.3182  Y0.9045  
G01 X0.3182  Y0.9124  
G01 X0.3170  Y0.9201  
G01 X0.3146  Y0.9276  
G01 X0.3110  Y0.9346  
G01 X0.3064  Y0.9410  
G01 X0.3008  Y0.9466  
G01 X0.2945  Y0.9512  
G01 X0.2874  Y0.9548  
G01 X0.2800  Y0.9572  
G01 X0.2722  Y0.9584  
G00 Z0.1000  
G00 X0.2722  Y1.1616  
G01 Z-0.0070 F10    
G01 X0.1278  Y1.1616  F20    
G01 X0.1200  Y1.1603  
G01 X0.1126  Y1.1579  
G01 X0.1055  Y1.1543  
G01 X0.0992  Y1.1497  
G01 X0.0936  Y1.1441  
G01 X0.0890  Y1.1378  
G01 X0.0854  Y1.1308  
G01 X0.0830  Y1.1233  
G01 X0.0818  Y1.1155  
G01 X0.0818  Y1.1076  
G01 X0.0830  Y1.0999  
G01 X0.0854  Y1.0924  
G01 X0.0890  Y1.0854  
G01 X0.0936  Y1.0790  
G01 X0.0992  Y1.0734  
G01 X0.1055  Y1.0688  
G01 X0.1126  Y1.0652  
G01 X0.1200  Y1.0628  
G01 X0.1278  Y1.0616  
G01 X0.2722  Y1.0616  
G01 X0.2800  Y1.0628  
G01 X0.2874  Y1.0652  
G01 X0.2945  Y1.0688  
G01 X0.3008  Y1.0734  
G01 X0.3064  Y1.0790  
G01 X0.3110  Y1.0854  
G01 X0.3146  Y1.0924  
G01 X0.3170  Y1.0999  
G01 X0.3182  Y1.1076  
G01 X0.3182  Y1.1155  
G01 X0.3170  Y1.1233  
G01 X0.3146  Y1.1308  
G01 X0.3110  Y1.1378  
G01 X0.3064  Y1.1441  
G01 X0.3008  Y1.1497  
G01 X0.2945  Y1.1543  
G01 X0.2874  Y1.1579  
G01 X0.2800  Y1.1603  
G01 X0.2722  Y1.1616  
G00 Z0.1000  
G00 X0.2722  Y1.3584  
G01 Z-0.0070 F10    
G01 X0.1278  Y1.3584  F20    
G01 X0.1200  Y1.3572  
G01 X0.1126  Y1.3548  
G01 X0.1055  Y1.3512  
G01 X0.0992  Y1.3466  
G01 X0.0936  Y1.3410  
G01 X0.0890  Y1.3346  
G01 X0.0854  Y1.3276  
G01 X0.0830  Y1.3201  
G01 X0.0818  Y1.3124  
G01 X0.0818  Y1.3045  
G01 X0.0830  Y1.2967  
G01 X0.0854  Y1.2892  
G01 X0.0890  Y1.2822  
G01 X0.0936  Y1.2759  
G01 X0.0992  Y1.2703  
G01 X0.1055  Y1.2657  
G01 X0.1126  Y1.2621  
G01 X0.1200  Y1.2597  
G01 X0.1278  Y1.2584  
G01 X0.2722  Y1.2584  
G01 X0.2800  Y1.2597  
G01 X0.2874  Y1.2621  
G01 X0.2945  Y1.2657  
G01 X0.3008  Y1.2703  
G01 X0.3064  Y1.2759  
G01 X0.3110  Y1.2822  
G01 X0.3146  Y1.2892  
G01 X0.3170  Y1.2967  
G01 X0.3182  Y1.3045  
G01 X0.3182  Y1.3124  
G01 X0.3170  Y1.3201  
G01 X0.3146  Y1.3276  
G01 X0.3110  Y1.3346  
G01 X0.3064  Y1.3410  
G01 X0.3008  Y1.3466  
G01 X0.2945  Y1.3512  
G01 X0.2874  Y1.3548  
G01 X0.2800  Y1.3572  
G01 X0.2722  Y1.3584  
G00 Z0.1000  
G00 X1.3103  Y1.4525  
G01 Z-0.0070 F10    
G01 X1.1897  Y1.4525  F20    
G01 X1.1830  Y1.4515  
G01 X1.1767  Y1.4494  
G01 X1.1707  Y1.4463  
G01 X1.1653  Y1.4424  
G01 X1.1606  Y1.4377  
G01 X1.1567  Y1.4323  
G01 X1.1536  Y1.4263  
G01 X1.1515  Y1.4200  
G01 X1.1505  Y1.4133  
G01 X1.1505  Y1.4067  
G01 X1.1515  Y1.4000  
G01 X1.1536  Y1.3937  
G01 X1.1567  Y1.3877  
G01 X1.1606  Y1.3823  
G01 X1.1653  Y1.3776  
G01 X1.1707  Y1.3737  
G01 X1.1767  Y1.3706  
G01 X1.1830  Y1.3685  
G01 X1.1897  Y1.3675  
G01 X1.3103  Y1.3675  
G01 X1.3170  Y1.3685  
G01 X1.3233  Y1.3706  
G01 X1.3293  Y1.3737  
G01 X1.3347  Y1.3776  
G01 X1.3394  Y1.3823  
G01 X1.3433  Y1.3877  
G01 X1.3464  Y1.3937  
G01 X1.3485  Y1.4000  
G01 X1.3495  Y1.4067  
G01 X1.3495  Y1.4133  
G01 X1.3485  Y1.4200  
G01 X1.3464  Y1.4263  
G01 X1.3433  Y1.4323  
G01 X1.3394  Y1.4377  
G01 X1.3347  Y1.4424  
G01 X1.3293  Y1.4463  
G01 X1.3233  Y1.4494  
G01 X1.3170  Y1.4515  
G01 X1.3103  Y1.4525  
G00 Z0.1000  
G00 X1.3103  Y1.3525  
G01 Z-0.0070 F10    
G01 X1.1897  Y1.3525  F20    
G01 X1.1830  Y1.3515  
G01 X1.1767  Y1.3494  
G01 X1.1707  Y1.3463  
G01 X1.1653  Y1.3424  
G01 X1.1606  Y1.3377  
G01 X1.1567  Y1.3323  
G01 X1.1536  Y1.3263  
G01 X1.1515  Y1.3200  
G01 X1.1505  Y1.3133  
G01 X1.1505  Y1.3067  
G01 X1.1515  Y1.3000  
G01 X1.1536  Y1.2937  
G01 X1.1567  Y1.2877  
G01 X1.1606  Y1.2823  
G01 X1.1653  Y1.2776  
G01 X1.1707  Y1.2737  
G01 X1.1767  Y1.2706  
G01 X1.1830  Y1.2685  
G01 X1.1897  Y1.2675  
G01 X1.3103  Y1.2675  
G01 X1.3170  Y1.2685  
G01 X1.3233  Y1.2706  
G01 X1.3293  Y1.2737  
G01 X1.3347  Y1.2776  
G01 X1.3394  Y1.2823  
G01 X1.3433  Y1.2877  
G01 X1.3464  Y1.2937  
G01 X1.3485  Y1.3000  
G01 X1.3495  Y1.3067  
G01 X1.3495  Y1.3133  
G01 X1.3485  Y1.3200  
G01 X1.3464  Y1.3263  
G01 X1.3433  Y1.3323  
G01 X1.3394  Y1.3377  
G01 X1.3347  Y1.3424  
G01 X1.3293  Y1.3463  
G01 X1.3233  Y1.3494  
G01 X1.3170  Y1.3515  
G01 X1.3103  Y1.3525  
G00 Z0.1000  
G00 X1.3103  Y1.2525  
G01 Z-0.0070 F10    
G01 X1.1897  Y1.2525  F20    
G01 X1.1830  Y1.2515  
G01 X1.1767  Y1.2494  
G01 X1.1707  Y1.2463  
G01 X1.1653  Y1.2424  
G01 X1.1606  Y1.2377  
G01 X1.1567  Y1.2323  
G01 X1.1536  Y1.2263  
G01 X1.1515  Y1.2200  
G01 X1.1505  Y1.2133  
G01 X1.1505  Y1.2067  
G01 X1.1515  Y1.2000  
G01 X1.1536  Y1.1937  
G01 X1.1567  Y1.1877  
G01 X1.1606  Y1.1823  
G01 X1.1653  Y1.1776  
G01 X1.1707  Y1.1737  
G01 X1.1767  Y1.1706  
G01 X1.1830  Y1.1685  
G01 X1.1897  Y1.1675  
G01 X1.3103  Y1.1675  
G01 X1.3170  Y1.1685  
G01 X1.3233  Y1.1706  
G01 X1.3293  Y1.1737  
G01 X1.3347  Y1.1776  
G01 X1.3394  Y1.1823  
G01 X1.3433  Y1.1877  
G01 X1.3464  Y1.1937  
G01 X1.3485  Y1.2000  
G01 X1.3495  Y1.2067  
G01 X1.3495  Y1.2133  
G01 X1.3485  Y1.2200  
G01 X1.3464  Y1.2263  
G01 X1.3433  Y1.2323  
G01 X1.3394  Y1.2377  
G01 X1.3347  Y1.2424  
G01 X1.3293  Y1.2463  
G01 X1.3233  Y1.2494  
G01 X1.3170  Y1.2515  
G01 X1.3103  Y1.2525  
G00 Z0.1000  
G00 X1.3103  Y1.1525  
G01 Z-0.0070 F10    
G01 X1.1897  Y1.1525  F20    
G01 X1.1830  Y1.1515  
G01 X1.1767  Y1.1494  
G01 X1.1707  Y1.1463  
G01 X1.1653  Y1.1424  
G01 X1.1606  Y1.1377  
G01 X1.1567  Y1.1323  
G01 X1.1536  Y1.1263  
G01 X1.1515  Y1.1200  
G01 X1.1505  Y1.1133  
G01 X1.1505  Y1.1067  
G01 X1.1515  Y1.1000  
G01 X1.1536  Y1.0937  
G01 X1.1567  Y1.0877  
G01 X1.1606  Y1.0823  
G01 X1.1653  Y1.0776  
G01 X1.1707  Y1.0737  
G01 X1.1767  Y1.0706  
G01 X1.1830  Y1.0685  
G01 X1.1897  Y1.0675  
G01 X1.3103  Y1.0675  
G01 X1.3170  Y1.0685  
G01 X1.3233  Y1.0706  
G01 X1.3293  Y1.0737  
G01 X1.3347  Y1.0776  
G01 X1.3394  Y1.0823  
G01 X1.3433  Y1.0877  
G01 X1.3464  Y1.0937  
G01 X1.3485  Y1.1000  
G01 X1.3495  Y1.1067  
G01 X1.3495  Y1.1133  
G01 X1.3485  Y1.1200  
G01 X1.3464  Y1.1263  
G01 X1.3433  Y1.1323  
G01 X1.3394  Y1.1377  
G01 X1.3347  Y1.1424  
G01 X1.3293  Y1.1463  
G01 X1.3233  Y1.1494  
G01 X1.3170  Y1.1515  
G01 X1.3103  Y1.1525  
G00 Z0.1000  
G00 X1.3103  Y1.0525  
G01 Z-0.0070 F10    
G01 X1.1897  Y1.0525  F20    
G01 X1.1830  Y1.0515  
G01 X1.1767  Y1.0494  
G01 X1.1707  Y1.0463  
G01 X1.1653  Y1.0424  
G01 X1.1606  Y1.0377  
G01 X1.1567  Y1.0323  
G01 X1.1536  Y1.0263  
G01 X1.1515  Y1.0200  
G01 X1.1505  Y1.0133  
G01 X1.1505  Y1.0067  
G01 X1.1515  Y1.0000  
G01 X1.1536  Y0.9937  
G01 X1.1567  Y0.9877  
G01 X1.1606  Y0.9823  
G01 X1.1653  Y0.9776  
G01 X1.1707  Y0.9737  
G01 X1.1767  Y0.9706  
G01 X1.1830  Y0.9685  
G01 X1.1897  Y0.9675  
G01 X1.3103  Y0.9675  
G01 X1.3170  Y0.9685  
G01 X1.3233  Y0.9706  
G01 X1.3293  Y0.9737  
G01 X1.3347  Y0.9776  
G01 X1.3394  Y0.9823  
G01 X1.3433  Y0.9877  
G01 X1.3464  Y0.9937  
G01 X1.3485  Y1.0000  
G01 X1.3495  Y1.0067  
G01 X1.3495  Y1.0133  
G01 X1.3485  Y1.0200  
G01 X1.3464  Y1.0263  
G01 X1.3433  Y1.0323  
G01 X1.3394  Y1.0377  
G01 X1.3347  Y1.0424  
G01 X1.3293  Y1.0463  
G01 X1.3233  Y1.0494  
G01 X1.3170  Y1.0515  
G01 X1.3103  Y1.0525  
G00 Z0.1000  
G00 X1.3103  Y0.9525  
G01 Z-0.0070 F10    
G01 X1.1897  Y0.9525  F20    
G01 X1.1830  Y0.9515  
G01 X1.1767  Y0.9494  
G01 X1.1707  Y0.9463  
G01 X1.1653  Y0.9424  
G01 X1.1606  Y0.9377  
G01 X1.1567  Y0.9323  
G01 X1.1536  Y0.9263  
G01 X1.1515  Y0.9200  
G01 X1.1505  Y0.9133  
G01 X1.1505  Y0.9067  
G01 X1.1515  Y0.9000  
G01 X1.1536  Y0.8937  
G01 X1.1567  Y0.8877  
G01 X1.1606  Y0.8823  
G01 X1.1653  Y0.8776  
G01 X1.1707  Y0.8737  
G01 X1.1767  Y0.8706  
G01 X1.1830  Y0.8685  
G01 X1.1897  Y0.8675  
G01 X1.3103  Y0.8675  
G01 X1.3170  Y0.8685  
G01 X1.3233  Y0.8706  
G01 X1.3293  Y0.8737  
G01 X1.3347  Y0.8776  
G01 X1.3394  Y0.8823  
G01 X1.3433  Y0.8877  
G01 X1.3464  Y0.8937  
G01 X1.3485  Y0.9000  
G01 X1.3495  Y0.9067  
G01 X1.3495  Y0.9133  
G01 X1.3485  Y0.9200  
G01 X1.3464  Y0.9263  
G01 X1.3433  Y0.9323  
G01 X1.3394  Y0.9377  
G01 X1.3347  Y0.9424  
G01 X1.3293  Y0.9463  
G01 X1.3233  Y0.9494  
G01 X1.3170  Y0.9515  
G01 X1.3103  Y0.9525  
G00 Z0.1000  
G00 X1.0103  Y1.0525  
G01 Z-0.0070 F10    
G01 X0.8897  Y1.0525  F20    
G01 X0.8830  Y1.0515  
G01 X0.8767  Y1.0494  
G01 X0.8707  Y1.0463  
G01 X0.8653  Y1.0424  
G01 X0.8606  Y1.0377  
G01 X0.8567  Y1.0323  
G01 X0.8536  Y1.0263  
G01 X0.8515  Y1.0200  
G01 X0.8505  Y1.0133  
G01 X0.8505  Y1.0067  
G01 X0.8515  Y1.0000  
G01 X0.8536  Y0.9937  
G01 X0.8567  Y0.9877  
G01 X0.8606  Y0.9823  
G01 X0.8653  Y0.9776  
G01 X0.8707  Y0.9737  
G01 X0.8767  Y0.9706  
G01 X0.8830  Y0.9685  
G01 X0.8897  Y0.9675  
G01 X1.0103  Y0.9675  
G01 X1.0170  Y0.9685  
G01 X1.0233  Y0.9706  
G01 X1.0293  Y0.9737  
G01 X1.0347  Y0.9776  
G01 X1.0394  Y0.9823  
G01 X1.0433  Y0.9877  
G01 X1.0464  Y0.9937  
G01 X1.0485  Y1.0000  
G01 X1.0495  Y1.0067  
G01 X1.0495  Y1.0133  
G01 X1.0485  Y1.0200  
G01 X1.0464  Y1.0263  
G01 X1.0433  Y1.0323  
G01 X1.0394  Y1.0377  
G01 X1.0347  Y1.0424  
G01 X1.0293  Y1.0463  
G01 X1.0233  Y1.0494  
G01 X1.0170  Y1.0515  
G01 X1.0103  Y1.0525  
G00 Z0.1000  
G00 X1.0103  Y0.9525  
G01 Z-0.0070 F10    
G01 X0.8897  Y0.9525  F20    
G01 X0.8830  Y0.9515  
G01 X0.8767  Y0.9494  
G01 X0.8707  Y0.9463  
G01 X0.8653  Y0.9424  
G01 X0.8606  Y0.9377  
G01 X0.8567  Y0.9323  
G01 X0.8536  Y0.9263  
G01 X0.8515  Y0.9200  
G01 X0.8505  Y0.9133  
G01 X0.8505  Y0.9067  
G01 X0.8515  Y0.9000  
G01 X0.8536  Y0.8937  
G01 X0.8567  Y0.8877  
G01 X0.8606  Y0.8823  
G01 X0.8653  Y0.8776  
G01 X0.8707  Y0.8737  
G01 X0.8767  Y0.8706  
G01 X0.8830  Y0.8685  
G01 X0.8897  Y0.8675  
G01 X1.0103  Y0.8675  
G01 X1.0170  Y0.8685  
G01 X1.0233  Y0.8706  
G01 X1.0293  Y0.8737  
G01 X1.0347  Y0.8776  
G01 X1.0394  Y0.8823  
G01 X1.0433  Y0.8877  
G01 X1.0464  Y0.8937  
G01 X1.0485  Y0.9000  
G01 X1.0495  Y0.9067  
G01 X1.0495  Y0.9133  
G01 X1.0485  Y0.9200  
G01 X1.0464  Y0.9263  
G01 X1.0433  Y0.9323  
G01 X1.0394  Y0.9377  
G01 X1.0347  Y0.9424  
G01 X1.0293  Y0.9463  
G01 X1.0233  Y0.9494  
G01 X1.0170  Y0.9515  
G01 X1.0103  Y0.9525  
G00 Z0.1000  
G00 X1.0103  Y1.1525  
G01 Z-0.0070 F10    
G01 X0.8897  Y1.1525  F20    
G01 X0.8830  Y1.1515  
G01 X0.8767  Y1.1494  
G01 X0.8707  Y1.1463  
G01 X0.8653  Y1.1424  
G01 X0.8606  Y1.1377  
G01 X0.8567  Y1.1323  
G01 X0.8536  Y1.1263  
G01 X0.8515  Y1.1200  
G01 X0.8505  Y1.1133  
G01 X0.8505  Y1.1067  
G01 X0.8515  Y1.1000  
G01 X0.8536  Y1.0937  
G01 X0.8567  Y1.0877  
G01 X0.8606  Y1.0823  
G01 X0.8653  Y1.0776  
G01 X0.8707  Y1.0737  
G01 X0.8767  Y1.0706  
G01 X0.8830  Y1.0685  
G01 X0.8897  Y1.0675  
G01 X1.0103  Y1.0675  
G01 X1.0170  Y1.0685  
G01 X1.0233  Y1.0706  
G01 X1.0293  Y1.0737  
G01 X1.0347  Y1.0776  
G01 X1.0394  Y1.0823  
G01 X1.0433  Y1.0877  
G01 X1.0464  Y1.0937  
G01 X1.0485  Y1.1000  
G01 X1.0495  Y1.1067  
G01 X1.0495  Y1.1133  
G01 X1.0485  Y1.1200  
G01 X1.0464  Y1.1263  
G01 X1.0433  Y1.1323  
G01 X1.0394  Y1.1377  
G01 X1.0347  Y1.1424  
G01 X1.0293  Y1.1463  
G01 X1.0233  Y1.1494  
G01 X1.0170  Y1.1515  
G01 X1.0103  Y1.1525  
G00 Z0.1000  
G00 X1.0103  Y1.2525  
G01 Z-0.0070 F10    
G01 X0.8897  Y1.2525  F20    
G01 X0.8830  Y1.2515  
G01 X0.8767  Y1.2494  
G01 X0.8707  Y1.2463  
G01 X0.8653  Y1.2424  
G01 X0.8606  Y1.2377  
G01 X0.8567  Y1.2323  
G01 X0.8536  Y1.2263  
G01 X0.8515  Y1.2200  
G01 X0.8505  Y1.2133  
G01 X0.8505  Y1.2067  
G01 X0.8515  Y1.2000  
G01 X0.8536  Y1.1937  
G01 X0.8567  Y1.1877  
G01 X0.8606  Y1.1823  
G01 X0.8653  Y1.1776  
G01 X0.8707  Y1.1737  
G01 X0.8767  Y1.1706  
G01 X0.8830  Y1.1685  
G01 X0.8897  Y1.1675  
G01 X1.0103  Y1.1675  
G01 X1.0170  Y1.1685  
G01 X1.0233  Y1.1706  
G01 X1.0293  Y1.1737  
G01 X1.0347  Y1.1776  
G01 X1.0394  Y1.1823  
G01 X1.0433  Y1.1877  
G01 X1.0464  Y1.1937  
G01 X1.0485  Y1.2000  
G01 X1.0495  Y1.2067  
G01 X1.0495  Y1.2133  
G01 X1.0485  Y1.2200  
G01 X1.0464  Y1.2263  
G01 X1.0433  Y1.2323  
G01 X1.0394  Y1.2377  
G01 X1.0347  Y1.2424  
G01 X1.0293  Y1.2463  
G01 X1.0233  Y1.2494  
G01 X1.0170  Y1.2515  
G01 X1.0103  Y1.2525  
G00 Z0.1000  
G00 X1.3103  Y0.8525  
G01 Z-0.0070 F10    
G01 X1.1897  Y0.8525  F20    
G01 X1.1830  Y0.8515  
G01 X1.1767  Y0.8494  
G01 X1.1707  Y0.8463  
G01 X1.1653  Y0.8424  
G01 X1.1606  Y0.8377  
G01 X1.1567  Y0.8323  
G01 X1.1536  Y0.8263  
G01 X1.1515  Y0.8200  
G01 X1.1505  Y0.8133  
G01 X1.1505  Y0.8067  
G01 X1.1515  Y0.8000  
G01 X1.1536  Y0.7937  
G01 X1.1567  Y0.7877  
G01 X1.1606  Y0.7823  
G01 X1.1653  Y0.7776  
G01 X1.1707  Y0.7737  
G01 X1.1767  Y0.7706  
G01 X1.1830  Y0.7685  
G01 X1.1897  Y0.7675  
G01 X1.3103  Y0.7675  
G01 X1.3170  Y0.7685  
G01 X1.3233  Y0.7706  
G01 X1.3293  Y0.7737  
G01 X1.3347  Y0.7776  
G01 X1.3394  Y0.7823  
G01 X1.3433  Y0.7877  
G01 X1.3464  Y0.7937  
G01 X1.3485  Y0.8000  
G01 X1.3495  Y0.8067  
G01 X1.3495  Y0.8133  
G01 X1.3485  Y0.8200  
G01 X1.3464  Y0.8263  
G01 X1.3433  Y0.8323  
G01 X1.3394  Y0.8377  
G01 X1.3347  Y0.8424  
G01 X1.3293  Y0.8463  
G01 X1.3233  Y0.8494  
G01 X1.3170  Y0.8515  
G01 X1.3103  Y0.8525  
G00 Z0.1000  
G00 X1.0103  Y0.8525  
G01 Z-0.0070 F10    
G01 X0.8897  Y0.8525  F20    
G01 X0.8830  Y0.8515  
G01 X0.8767  Y0.8494  
G01 X0.8707  Y0.8463  
G01 X0.8653  Y0.8424  
G01 X0.8606  Y0.8377  
G01 X0.8567  Y0.8323  
G01 X0.8536  Y0.8263  
G01 X0.8515  Y0.8200  
G01 X0.8505  Y0.8133  
G01 X0.8505  Y0.8067  
G01 X0.8515  Y0.8000  
G01 X0.8536  Y0.7937  
G01 X0.8567  Y0.7877  
G01 X0.8606  Y0.7823  
G01 X0.8653  Y0.7776  
G01 X0.8707  Y0.7737  
G01 X0.8767  Y0.7706  
G01 X0.8830  Y0.7685  
G01 X0.8897  Y0.7675  
G01 X1.0103  Y0.7675  
G01 X1.0170  Y0.7685  
G01 X1.0233  Y0.7706  
G01 X1.0293  Y0.7737  
G01 X1.0347  Y0.7776  
G01 X1.0394  Y0.7823  
G01 X1.0433  Y0.7877  
G01 X1.0464  Y0.7937  
G01 X1.0485  Y0.8000  
G01 X1.0495  Y0.8067  
G01 X1.0495  Y0.8133  
G01 X1.0485  Y0.8200  
G01 X1.0464  Y0.8263  
G01 X1.0433  Y0.8323  
G01 X1.0394  Y0.8377  
G01 X1.0347  Y0.8424  
G01 X1.0293  Y0.8463  
G01 X1.0233  Y0.8494  
G01 X1.0170  Y0.8515  
G01 X1.0103  Y0.8525  
G00 Z0.1000  
G00 X1.0103  Y1.3525  
G01 Z-0.0070 F10    
G01 X0.8897  Y1.3525  F20    
G01 X0.8830  Y1.3515  
G01 X0.8767  Y1.3494  
G01 X0.8707  Y1.3463  
G01 X0.8653  Y1.3424  
G01 X0.8606  Y1.3377  
G01 X0.8567  Y1.3323  
G01 X0.8536  Y1.3263  
G01 X0.8515  Y1.3200  
G01 X0.8505  Y1.3133  
G01 X0.8505  Y1.3067  
G01 X0.8515  Y1.3000  
G01 X0.8536  Y1.2937  
G01 X0.8567  Y1.2877  
G01 X0.8606  Y1.2823  
G01 X0.8653  Y1.2776  
G01 X0.8707  Y1.2737  
G01 X0.8767  Y1.2706  
G01 X0.8830  Y1.2685  
G01 X0.8897  Y1.2675  
G01 X1.0103  Y1.2675  
G01 X1.0170  Y1.2685  
G01 X1.0233  Y1.2706  
G01 X1.0293  Y1.2737  
G01 X1.0347  Y1.2776  
G01 X1.0394  Y1.2823  
G01 X1.0433  Y1.2877  
G01 X1.0464  Y1.2937  
G01 X1.0485  Y1.3000  
G01 X1.0495  Y1.3067  
G01 X1.0495  Y1.3133  
G01 X1.0485  Y1.3200  
G01 X1.0464  Y1.3263  
G01 X1.0433  Y1.3323  
G01 X1.0394  Y1.3377  
G01 X1.0347  Y1.3424  
G01 X1.0293  Y1.3463  
G01 X1.0233  Y1.3494  
G01 X1.0170  Y1.3515  
G01 X1.0103  Y1.3525  
G00 Z0.1000  
G00 X1.0103  Y1.4525  
G01 Z-0.0070 F10    
G01 X0.8897  Y1.4525  F20    
G01 X0.8830  Y1.4515  
G01 X0.8767  Y1.4494  
G01 X0.8707  Y1.4463  
G01 X0.8653  Y1.4424  
G01 X0.8606  Y1.4377  
G01 X0.8567  Y1.4323  
G01 X0.8536  Y1.4263  
G01 X0.8515  Y1.4200  
G01 X0.8505  Y1.4133  
G01 X0.8505  Y1.4067  
G01 X0.8515  Y1.4000  
G01 X0.8536  Y1.3937  
G01 X0.8567  Y1.3877  
G01 X0.8606  Y1.3823  
G01 X0.8653  Y1.3776  
G01 X0.8707  Y1.3737  
G01 X0.8767  Y1.3706  
G01 X0.8830  Y1.3685  
G01 X0.8897  Y1.3675  
G01 X1.0103  Y1.3675  
G01 X1.0170  Y1.3685  
G01 X1.0233  Y1.3706  
G01 X1.0293  Y1.3737  
G01 X1.0347  Y1.3776  
G01 X1.0394  Y1.3823  
G01 X1.0433  Y1.3877  
G01 X1.0464  Y1.3937  
G01 X1.0485  Y1.4000  
G01 X1.0495  Y1.4067  
G01 X1.0495  Y1.4133  
G01 X1.0485  Y1.4200  
G01 X1.0464  Y1.4263  
G01 X1.0433  Y1.4323  
G01 X1.0394  Y1.4377  
G01 X1.0347  Y1.4424  
G01 X1.0293  Y1.4463  
G01 X1.0233  Y1.4494  
G01 X1.0170  Y1.4515  
G01 X1.0103  Y1.4525  
G00 Z0.1000  
G00 X2.7025  Y1.5924  
G01 Z-0.0070 F10    
G01 X2.7025  Y1.6276  F20    
G01 X2.6776  Y1.6525  
G01 X2.6424  Y1.6525  
G01 X2.6175  Y1.6276  
G01 X2.6175  Y1.5924  
G01 X2.6424  Y1.5675  
G01 X2.6776  Y1.5675  
G01 X2.7025  Y1.5924  
G00 Z0.1000  
G00 X3.2025  Y1.5924  
G01 Z-0.0070 F10    
G01 X3.2025  Y1.6276  F20    
G01 X3.1776  Y1.6525  
G01 X3.1424  Y1.6525  
G01 X3.1175  Y1.6276  
G01 X3.1175  Y1.5924  
G01 X3.1424  Y1.5675  
G01 X3.1776  Y1.5675  
G01 X3.2025  Y1.5924  
G00 Z0.1000  
G00 X2.0585  Y0.6562  
G01 Z-0.0070 F10    
G01 X2.0585  Y0.6638  F20    
G01 X2.0573  Y0.6714  
G01 X2.0549  Y0.6786  
G01 X2.0515  Y0.6854  
G01 X2.0470  Y0.6916  
G01 X2.0416  Y0.6970  
G01 X2.0354  Y0.7015  
G01 X2.0286  Y0.7049  
G01 X2.0214  Y0.7073  
G01 X2.0138  Y0.7085  
G01 X2.0062  Y0.7085  
G01 X1.9986  Y0.7073  
G01 X1.9914  Y0.7049  
G01 X1.9846  Y0.7015  
G01 X1.9784  Y0.6970  
G01 X1.9730  Y0.6916  
G01 X1.9685  Y0.6854  
G01 X1.9651  Y0.6786  
G01 X1.9627  Y0.6714  
G01 X1.9615  Y0.6638  
G01 X1.9615  Y0.6562  
G01 X1.9627  Y0.6486  
G01 X1.9651  Y0.6414  
G01 X1.9685  Y0.6346  
G01 X1.9730  Y0.6284  
G01 X1.9784  Y0.6230  
G01 X1.9846  Y0.6185  
G01 X1.9914  Y0.6151  
G01 X1.9986  Y0.6127  
G01 X2.0062  Y0.6115  
G01 X2.0138  Y0.6115  
G01 X2.0214  Y0.6127  
G01 X2.0286  Y0.6151  
G01 X2.0354  Y0.6185  
G01 X2.0416  Y0.6230  
G01 X2.0470  Y0.6284  
G01 X2.0515  Y0.6346  
G01 X2.0549  Y0.6414  
G01 X2.0573  Y0.6486  
G01 X2.0585  Y0.6562  
G00 Z0.1000  
G00 X2.0585  Y0.2562  
G01 Z-0.0070 F10    
G01 X2.0585  Y0.2638  F20    
G01 X2.0573  Y0.2714  
G01 X2.0549  Y0.2786  
G01 X2.0515  Y0.2854  
G01 X2.0470  Y0.2916  
G01 X2.0416  Y0.2970  
G01 X2.0354  Y0.3015  
G01 X2.0286  Y0.3049  
G01 X2.0214  Y0.3073  
G01 X2.0138  Y0.3085  
G01 X2.0062  Y0.3085  
G01 X1.9986  Y0.3073  
G01 X1.9914  Y0.3049  
G01 X1.9846  Y0.3015  
G01 X1.9784  Y0.2970  
G01 X1.9730  Y0.2916  
G01 X1.9685  Y0.2854  
G01 X1.9651  Y0.2786  
G01 X1.9627  Y0.2714  
G01 X1.9615  Y0.2638  
G01 X1.9615  Y0.2562  
G01 X1.9627  Y0.2486  
G01 X1.9651  Y0.2414  
G01 X1.9685  Y0.2346  
G01 X1.9730  Y0.2284  
G01 X1.9784  Y0.2230  
G01 X1.9846  Y0.2185  
G01 X1.9914  Y0.2151  
G01 X1.9986  Y0.2127  
G01 X2.0062  Y0.2115  
G01 X2.0138  Y0.2115  
G01 X2.0214  Y0.2127  
G01 X2.0286  Y0.2151  
G01 X2.0354  Y0.2185  
G01 X2.0416  Y0.2230  
G01 X2.0470  Y0.2284  
G01 X2.0515  Y0.2346  
G01 X2.0549  Y0.2414  
G01 X2.0573  Y0.2486  
G01 X2.0585  Y0.2562  
G00 Z0.1000  
G00 X1.4685  Y0.3362  
G01 Z-0.0070 F10    
G01 X1.4685  Y0.3438  F20    
G01 X1.4673  Y0.3514  
G01 X1.4649  Y0.3586  
G01 X1.4615  Y0.3654  
G01 X1.4570  Y0.3716  
G01 X1.4516  Y0.3770  
G01 X1.4454  Y0.3815  
G01 X1.4386  Y0.3849  
G01 X1.4314  Y0.3873  
G01 X1.4238  Y0.3885  
G01 X1.4162  Y0.3885  
G01 X1.4086  Y0.3873  
G01 X1.4014  Y0.3849  
G01 X1.3946  Y0.3815  
G01 X1.3884  Y0.3770  
G01 X1.3830  Y0.3716  
G01 X1.3785  Y0.3654  
G01 X1.3751  Y0.3586  
G01 X1.3727  Y0.3514  
G01 X1.3715  Y0.3438  
G01 X1.3715  Y0.3362  
G01 X1.3727  Y0.3286  
G01 X1.3751  Y0.3214  
G01 X1.3785  Y0.3146  
G01 X1.3830  Y0.3084  
G01 X1.3884  Y0.3030  
G01 X1.3946  Y0.2985  
G01 X1.4014  Y0.2951  
G01 X1.4086  Y0.2927  
G01 X1.4162  Y0.2915  
G01 X1.4238  Y0.2915  
G01 X1.4314  Y0.2927  
G01 X1.4386  Y0.2951  
G01 X1.4454  Y0.2985  
G01 X1.4516  Y0.3030  
G01 X1.4570  Y0.3084  
G01 X1.4615  Y0.3146  
G01 X1.4649  Y0.3214  
G01 X1.4673  Y0.3286  
G01 X1.4685  Y0.3362  
G00 Z0.1000  
G00 X1.8685  Y0.3362  
G01 Z-0.0070 F10    
G01 X1.8685  Y0.3438  F20    
G01 X1.8673  Y0.3514  
G01 X1.8649  Y0.3586  
G01 X1.8615  Y0.3654  
G01 X1.8570  Y0.3716  
G01 X1.8516  Y0.3770  
G01 X1.8454  Y0.3815  
G01 X1.8386  Y0.3849  
G01 X1.8314  Y0.3873  
G01 X1.8238  Y0.3885  
G01 X1.8162  Y0.3885  
G01 X1.8086  Y0.3873  
G01 X1.8014  Y0.3849  
G01 X1.7946  Y0.3815  
G01 X1.7884  Y0.3770  
G01 X1.7830  Y0.3716  
G01 X1.7785  Y0.3654  
G01 X1.7751  Y0.3586  
G01 X1.7727  Y0.3514  
G01 X1.7715  Y0.3438  
G01 X1.7715  Y0.3362  
G01 X1.7727  Y0.3286  
G01 X1.7751  Y0.3214  
G01 X1.7785  Y0.3146  
G01 X1.7830  Y0.3084  
G01 X1.7884  Y0.3030  
G01 X1.7946  Y0.2985  
G01 X1.8014  Y0.2951  
G01 X1.8086  Y0.2927  
G01 X1.8162  Y0.2915  
G01 X1.8238  Y0.2915  
G01 X1.8314  Y0.2927  
G01 X1.8386  Y0.2951  
G01 X1.8454  Y0.2985  
G01 X1.8516  Y0.3030  
G01 X1.8570  Y0.3084  
G01 X1.8615  Y0.3146  
G01 X1.8649  Y0.3214  
G01 X1.8673  Y0.3286  
G01 X1.8685  Y0.3362  
G00 Z0.1000  
G00 X1.4685  Y0.4962  
G01 Z-0.0070 F10    
G01 X1.4685  Y0.5038  F20    
G01 X1.4673  Y0.5114  
G01 X1.4649  Y0.5186  
G01 X1.4615  Y0.5254  
G01 X1.4570  Y0.5316  
G01 X1.4516  Y0.5370  
G01 X1.4454  Y0.5415  
G01 X1.4386  Y0.5449  
G01 X1.4314  Y0.5473  
G01 X1.4238  Y0.5485  
G01 X1.4162  Y0.5485  
G01 X1.4086  Y0.5473  
G01 X1.4014  Y0.5449  
G01 X1.3946  Y0.5415  
G01 X1.3884  Y0.5370  
G01 X1.3830  Y0.5316  
G01 X1.3785  Y0.5254  
G01 X1.3751  Y0.5186  
G01 X1.3727  Y0.5114  
G01 X1.3715  Y0.5038  
G01 X1.3715  Y0.4962  
G01 X1.3727  Y0.4886  
G01 X1.3751  Y0.4814  
G01 X1.3785  Y0.4746  
G01 X1.3830  Y0.4684  
G01 X1.3884  Y0.4630  
G01 X1.3946  Y0.4585  
G01 X1.4014  Y0.4551  
G01 X1.4086  Y0.4527  
G01 X1.4162  Y0.4515  
G01 X1.4238  Y0.4515  
G01 X1.4314  Y0.4527  
G01 X1.4386  Y0.4551  
G01 X1.4454  Y0.4585  
G01 X1.4516  Y0.4630  
G01 X1.4570  Y0.4684  
G01 X1.4615  Y0.4746  
G01 X1.4649  Y0.4814  
G01 X1.4673  Y0.4886  
G01 X1.4685  Y0.4962  
G00 Z0.1000  
G00 X1.8685  Y0.4962  
G01 Z-0.0070 F10    
G01 X1.8685  Y0.5038  F20    
G01 X1.8673  Y0.5114  
G01 X1.8649  Y0.5186  
G01 X1.8615  Y0.5254  
G01 X1.8570  Y0.5316  
G01 X1.8516  Y0.5370  
G01 X1.8454  Y0.5415  
G01 X1.8386  Y0.5449  
G01 X1.8314  Y0.5473  
G01 X1.8238  Y0.5485  
G01 X1.8162  Y0.5485  
G01 X1.8086  Y0.5473  
G01 X1.8014  Y0.5449  
G01 X1.7946  Y0.5415  
G01 X1.7884  Y0.5370  
G01 X1.7830  Y0.5316  
G01 X1.7785  Y0.5254  
G01 X1.7751  Y0.5186  
G01 X1.7727  Y0.5114  
G01 X1.7715  Y0.5038  
G01 X1.7715  Y0.4962  
G01 X1.7727  Y0.4886  
G01 X1.7751  Y0.4814  
G01 X1.7785  Y0.4746  
G01 X1.7830  Y0.4684  
G01 X1.7884  Y0.4630  
G01 X1.7946  Y0.4585  
G01 X1.8014  Y0.4551  
G01 X1.8086  Y0.4527  
G01 X1.8162  Y0.4515  
G01 X1.8238  Y0.4515  
G01 X1.8314  Y0.4527  
G01 X1.8386  Y0.4551  
G01 X1.8454  Y0.4585  
G01 X1.8516  Y0.4630  
G01 X1.8570  Y0.4684  
G01 X1.8615  Y0.4746  
G01 X1.8649  Y0.4814  
G01 X1.8673  Y0.4886  
G01 X1.8685  Y0.4962  
G00 Z0.1000  
G00 X1.5485  Y1.7062  
G01 Z-0.0070 F10    
G01 X1.5485  Y1.7138  F20    
G01 X1.5473  Y1.7214  
G01 X1.5449  Y1.7286  
G01 X1.5415  Y1.7354  
G01 X1.5370  Y1.7416  
G01 X1.5316  Y1.7470  
G01 X1.5254  Y1.7515  
G01 X1.5186  Y1.7549  
G01 X1.5114  Y1.7573  
G01 X1.5038  Y1.7585  
G01 X1.4962  Y1.7585  
G01 X1.4886  Y1.7573  
G01 X1.4814  Y1.7549  
G01 X1.4746  Y1.7515  
G01 X1.4684  Y1.7470  
G01 X1.4630  Y1.7416  
G01 X1.4585  Y1.7354  
G01 X1.4551  Y1.7286  
G01 X1.4527  Y1.7214  
G01 X1.4515  Y1.7138  
G01 X1.4515  Y1.7062  
G01 X1.4527  Y1.6986  
G01 X1.4551  Y1.6914  
G01 X1.4585  Y1.6846  
G01 X1.4630  Y1.6784  
G01 X1.4684  Y1.6730  
G01 X1.4746  Y1.6685  
G01 X1.4814  Y1.6651  
G01 X1.4886  Y1.6627  
G01 X1.4962  Y1.6615  
G01 X1.5038  Y1.6615  
G01 X1.5114  Y1.6627  
G01 X1.5186  Y1.6651  
G01 X1.5254  Y1.6685  
G01 X1.5316  Y1.6730  
G01 X1.5370  Y1.6784  
G01 X1.5415  Y1.6846  
G01 X1.5449  Y1.6914  
G01 X1.5473  Y1.6986  
G01 X1.5485  Y1.7062  
G00 Z0.1000  
G00 X1.5485  Y1.3062  
G01 Z-0.0070 F10    
G01 X1.5485  Y1.3138  F20    
G01 X1.5473  Y1.3214  
G01 X1.5449  Y1.3286  
G01 X1.5415  Y1.3354  
G01 X1.5370  Y1.3416  
G01 X1.5316  Y1.3470  
G01 X1.5254  Y1.3515  
G01 X1.5186  Y1.3549  
G01 X1.5114  Y1.3573  
G01 X1.5038  Y1.3585  
G01 X1.4962  Y1.3585  
G01 X1.4886  Y1.3573  
G01 X1.4814  Y1.3549  
G01 X1.4746  Y1.3515  
G01 X1.4684  Y1.3470  
G01 X1.4630  Y1.3416  
G01 X1.4585  Y1.3354  
G01 X1.4551  Y1.3286  
G01 X1.4527  Y1.3214  
G01 X1.4515  Y1.3138  
G01 X1.4515  Y1.3062  
G01 X1.4527  Y1.2986  
G01 X1.4551  Y1.2914  
G01 X1.4585  Y1.2846  
G01 X1.4630  Y1.2784  
G01 X1.4684  Y1.2730  
G01 X1.4746  Y1.2685  
G01 X1.4814  Y1.2651  
G01 X1.4886  Y1.2627  
G01 X1.4962  Y1.2615  
G01 X1.5038  Y1.2615  
G01 X1.5114  Y1.2627  
G01 X1.5186  Y1.2651  
G01 X1.5254  Y1.2685  
G01 X1.5316  Y1.2730  
G01 X1.5370  Y1.2784  
G01 X1.5415  Y1.2846  
G01 X1.5449  Y1.2914  
G01 X1.5473  Y1.2986  
G01 X1.5485  Y1.3062  
G00 Z0.1000  
G00 X2.3203  Y1.0525  
G01 Z-0.0070 F10    
G01 X2.1997  Y1.0525  F20    
G01 X2.1930  Y1.0515  
G01 X2.1867  Y1.0494  
G01 X2.1807  Y1.0463  
G01 X2.1753  Y1.0424  
G01 X2.1706  Y1.0377  
G01 X2.1667  Y1.0323  
G01 X2.1636  Y1.0263  
G01 X2.1615  Y1.0200  
G01 X2.1605  Y1.0133  
G01 X2.1605  Y1.0067  
G01 X2.1615  Y1.0000  
G01 X2.1636  Y0.9937  
G01 X2.1667  Y0.9877  
G01 X2.1706  Y0.9823  
G01 X2.1753  Y0.9776  
G01 X2.1807  Y0.9737  
G01 X2.1867  Y0.9706  
G01 X2.1930  Y0.9685  
G01 X2.1997  Y0.9675  
G01 X2.3203  Y0.9675  
G01 X2.3270  Y0.9685  
G01 X2.3333  Y0.9706  
G01 X2.3393  Y0.9737  
G01 X2.3447  Y0.9776  
G01 X2.3494  Y0.9823  
G01 X2.3533  Y0.9877  
G01 X2.3564  Y0.9937  
G01 X2.3585  Y1.0000  
G01 X2.3595  Y1.0067  
G01 X2.3595  Y1.0133  
G01 X2.3585  Y1.0200  
G01 X2.3564  Y1.0263  
G01 X2.3533  Y1.0323  
G01 X2.3494  Y1.0377  
G01 X2.3447  Y1.0424  
G01 X2.3393  Y1.0463  
G01 X2.3333  Y1.0494  
G01 X2.3270  Y1.0515  
G01 X2.3203  Y1.0525  
G00 Z0.1000  
G00 X2.3203  Y1.1525  
G01 Z-0.0070 F10    
G01 X2.1997  Y1.1525  F20    
G01 X2.1930  Y1.1515  
G01 X2.1867  Y1.1494  
G01 X2.1807  Y1.1463  
G01 X2.1753  Y1.1424  
G01 X2.1706  Y1.1377  
G01 X2.1667  Y1.1323  
G01 X2.1636  Y1.1263  
G01 X2.1615  Y1.1200  
G01 X2.1605  Y1.1133  
G01 X2.1605  Y1.1067  
G01 X2.1615  Y1.1000  
G01 X2.1636  Y1.0937  
G01 X2.1667  Y1.0877  
G01 X2.1706  Y1.0823  
G01 X2.1753  Y1.0776  
G01 X2.1807  Y1.0737  
G01 X2.1867  Y1.0706  
G01 X2.1930  Y1.0685  
G01 X2.1997  Y1.0675  
G01 X2.3203  Y1.0675  
G01 X2.3270  Y1.0685  
G01 X2.3333  Y1.0706  
G01 X2.3393  Y1.0737  
G01 X2.3447  Y1.0776  
G01 X2.3494  Y1.0823  
G01 X2.3533  Y1.0877  
G01 X2.3564  Y1.0937  
G01 X2.3585  Y1.1000  
G01 X2.3595  Y1.1067  
G01 X2.3595  Y1.1133  
G01 X2.3585  Y1.1200  
G01 X2.3564  Y1.1263  
G01 X2.3533  Y1.1323  
G01 X2.3494  Y1.1377  
G01 X2.3447  Y1.1424  
G01 X2.3393  Y1.1463  
G01 X2.3333  Y1.1494  
G01 X2.3270  Y1.1515  
G01 X2.3203  Y1.1525  
G00 Z0.1000  
G00 X2.0203  Y1.0525  
G01 Z-0.0070 F10    
G01 X1.8997  Y1.0525  F20    
G01 X1.8930  Y1.0515  
G01 X1.8867  Y1.0494  
G01 X1.8807  Y1.0463  
G01 X1.8753  Y1.0424  
G01 X1.8706  Y1.0377  
G01 X1.8667  Y1.0323  
G01 X1.8636  Y1.0263  
G01 X1.8615  Y1.0200  
G01 X1.8605  Y1.0133  
G01 X1.8605  Y1.0067  
G01 X1.8615  Y1.0000  
G01 X1.8636  Y0.9937  
G01 X1.8667  Y0.9877  
G01 X1.8706  Y0.9823  
G01 X1.8753  Y0.9776  
G01 X1.8807  Y0.9737  
G01 X1.8867  Y0.9706  
G01 X1.8930  Y0.9685  
G01 X1.8997  Y0.9675  
G01 X2.0203  Y0.9675  
G01 X2.0270  Y0.9685  
G01 X2.0333  Y0.9706  
G01 X2.0393  Y0.9737  
G01 X2.0447  Y0.9776  
G01 X2.0494  Y0.9823  
G01 X2.0533  Y0.9877  
G01 X2.0564  Y0.9937  
G01 X2.0585  Y1.0000  
G01 X2.0595  Y1.0067  
G01 X2.0595  Y1.0133  
G01 X2.0585  Y1.0200  
G01 X2.0564  Y1.0263  
G01 X2.0533  Y1.0323  
G01 X2.0494  Y1.0377  
G01 X2.0447  Y1.0424  
G01 X2.0393  Y1.0463  
G01 X2.0333  Y1.0494  
G01 X2.0270  Y1.0515  
G01 X2.0203  Y1.0525  
G00 Z0.1000  
G00 X2.0203  Y1.1525  
G01 Z-0.0070 F10    
G01 X1.8997  Y1.1525  F20    
G01 X1.8930  Y1.1515  
G01 X1.8867  Y1.1494  
G01 X1.8807  Y1.1463  
G01 X1.8753  Y1.1424  
G01 X1.8706  Y1.1377  
G01 X1.8667  Y1.1323  
G01 X1.8636  Y1.1263  
G01 X1.8615  Y1.1200  
G01 X1.8605  Y1.1133  
G01 X1.8605  Y1.1067  
G01 X1.8615  Y1.1000  
G01 X1.8636  Y1.0937  
G01 X1.8667  Y1.0877  
G01 X1.8706  Y1.0823  
G01 X1.8753  Y1.0776  
G01 X1.8807  Y1.0737  
G01 X1.8867  Y1.0706  
G01 X1.8930  Y1.0685  
G01 X1.8997  Y1.0675  
G01 X2.0203  Y1.0675  
G01 X2.0270  Y1.0685  
G01 X2.0333  Y1.0706  
G01 X2.0393  Y1.0737  
G01 X2.0447  Y1.0776  
G01 X2.0494  Y1.0823  
G01 X2.0533  Y1.0877  
G01 X2.0564  Y1.0937  
G01 X2.0585  Y1.1000  
G01 X2.0595  Y1.1067  
G01 X2.0595  Y1.1133  
G01 X2.0585  Y1.1200  
G01 X2.0564  Y1.1263  
G01 X2.0533  Y1.1323  
G01 X2.0494  Y1.1377  
G01 X2.0447  Y1.1424  
G01 X2.0393  Y1.1463  
G01 X2.0333  Y1.1494  
G01 X2.0270  Y1.1515  
G01 X2.0203  Y1.1525  
G00 Z0.1000  
G00 X2.3203  Y1.3525  
G01 Z-0.0070 F10    
G01 X2.1997  Y1.3525  F20    
G01 X2.1930  Y1.3515  
G01 X2.1867  Y1.3494  
G01 X2.1807  Y1.3463  
G01 X2.1753  Y1.3424  
G01 X2.1706  Y1.3377  
G01 X2.1667  Y1.3323  
G01 X2.1636  Y1.3263  
G01 X2.1615  Y1.3200  
G01 X2.1605  Y1.3133  
G01 X2.1605  Y1.3067  
G01 X2.1615  Y1.3000  
G01 X2.1636  Y1.2937  
G01 X2.1667  Y1.2877  
G01 X2.1706  Y1.2823  
G01 X2.1753  Y1.2776  
G01 X2.1807  Y1.2737  
G01 X2.1867  Y1.2706  
G01 X2.1930  Y1.2685  
G01 X2.1997  Y1.2675  
G01 X2.3203  Y1.2675  
G01 X2.3270  Y1.2685  
G01 X2.3333  Y1.2706  
G01 X2.3393  Y1.2737  
G01 X2.3447  Y1.2776  
G01 X2.3494  Y1.2823  
G01 X2.3533  Y1.2877  
G01 X2.3564  Y1.2937  
G01 X2.3585  Y1.3000  
G01 X2.3595  Y1.3067  
G01 X2.3595  Y1.3133  
G01 X2.3585  Y1.3200  
G01 X2.3564  Y1.3263  
G01 X2.3533  Y1.3323  
G01 X2.3494  Y1.3377  
G01 X2.3447  Y1.3424  
G01 X2.3393  Y1.3463  
G01 X2.3333  Y1.3494  
G01 X2.3270  Y1.3515  
G01 X2.3203  Y1.3525  
G00 Z0.1000  
G00 X2.3203  Y1.2525  
G01 Z-0.0070 F10    
G01 X2.1997  Y1.2525  F20    
G01 X2.1930  Y1.2515  
G01 X2.1867  Y1.2494  
G01 X2.1807  Y1.2463  
G01 X2.1753  Y1.2424  
G01 X2.1706  Y1.2377  
G01 X2.1667  Y1.2323  
G01 X2.1636  Y1.2263  
G01 X2.1615  Y1.2200  
G01 X2.1605  Y1.2133  
G01 X2.1605  Y1.2067  
G01 X2.1615  Y1.2000  
G01 X2.1636  Y1.1937  
G01 X2.1667  Y1.1877  
G01 X2.1706  Y1.1823  
G01 X2.1753  Y1.1776  
G01 X2.1807  Y1.1737  
G01 X2.1867  Y1.1706  
G01 X2.1930  Y1.1685  
G01 X2.1997  Y1.1675  
G01 X2.3203  Y1.1675  
G01 X2.3270  Y1.1685  
G01 X2.3333  Y1.1706  
G01 X2.3393  Y1.1737  
G01 X2.3447  Y1.1776  
G01 X2.3494  Y1.1823  
G01 X2.3533  Y1.1877  
G01 X2.3564  Y1.1937  
G01 X2.3585  Y1.2000  
G01 X2.3595  Y1.2067  
G01 X2.3595  Y1.2133  
G01 X2.3585  Y1.2200  
G01 X2.3564  Y1.2263  
G01 X2.3533  Y1.2323  
G01 X2.3494  Y1.2377  
G01 X2.3447  Y1.2424  
G01 X2.3393  Y1.2463  
G01 X2.3333  Y1.2494  
G01 X2.3270  Y1.2515  
G01 X2.3203  Y1.2525  
G00 Z0.1000  
G00 X2.0203  Y1.2525  
G01 Z-0.0070 F10    
G01 X1.8997  Y1.2525  F20    
G01 X1.8930  Y1.2515  
G01 X1.8867  Y1.2494  
G01 X1.8807  Y1.2463  
G01 X1.8753  Y1.2424  
G01 X1.8706  Y1.2377  
G01 X1.8667  Y1.2323  
G01 X1.8636  Y1.2263  
G01 X1.8615  Y1.2200  
G01 X1.8605  Y1.2133  
G01 X1.8605  Y1.2067  
G01 X1.8615  Y1.2000  
G01 X1.8636  Y1.1937  
G01 X1.8667  Y1.1877  
G01 X1.8706  Y1.1823  
G01 X1.8753  Y1.1776  
G01 X1.8807  Y1.1737  
G01 X1.8867  Y1.1706  
G01 X1.8930  Y1.1685  
G01 X1.8997  Y1.1675  
G01 X2.0203  Y1.1675  
G01 X2.0270  Y1.1685  
G01 X2.0333  Y1.1706  
G01 X2.0393  Y1.1737  
G01 X2.0447  Y1.1776  
G01 X2.0494  Y1.1823  
G01 X2.0533  Y1.1877  
G01 X2.0564  Y1.1937  
G01 X2.0585  Y1.2000  
G01 X2.0595  Y1.2067  
G01 X2.0595  Y1.2133  
G01 X2.0585  Y1.2200  
G01 X2.0564  Y1.2263  
G01 X2.0533  Y1.2323  
G01 X2.0494  Y1.2377  
G01 X2.0447  Y1.2424  
G01 X2.0393  Y1.2463  
G01 X2.0333  Y1.2494  
G01 X2.0270  Y1.2515  
G01 X2.0203  Y1.2525  
G00 Z0.1000  
G00 X2.0203  Y1.3525  
G01 Z-0.0070 F10    
G01 X1.8997  Y1.3525  F20    
G01 X1.8930  Y1.3515  
G01 X1.8867  Y1.3494  
G01 X1.8807  Y1.3463  
G01 X1.8753  Y1.3424  
G01 X1.8706  Y1.3377  
G01 X1.8667  Y1.3323  
G01 X1.8636  Y1.3263  
G01 X1.8615  Y1.3200  
G01 X1.8605  Y1.3133  
G01 X1.8605  Y1.3067  
G01 X1.8615  Y1.3000  
G01 X1.8636  Y1.2937  
G01 X1.8667  Y1.2877  
G01 X1.8706  Y1.2823  
G01 X1.8753  Y1.2776  
G01 X1.8807  Y1.2737  
G01 X1.8867  Y1.2706  
G01 X1.8930  Y1.2685  
G01 X1.8997  Y1.2675  
G01 X2.0203  Y1.2675  
G01 X2.0270  Y1.2685  
G01 X2.0333  Y1.2706  
G01 X2.0393  Y1.2737  
G01 X2.0447  Y1.2776  
G01 X2.0494  Y1.2823  
G01 X2.0533  Y1.2877  
G01 X2.0564  Y1.2937  
G01 X2.0585  Y1.3000  
G01 X2.0595  Y1.3067  
G01 X2.0595  Y1.3133  
G01 X2.0585  Y1.3200  
G01 X2.0564  Y1.3263  
G01 X2.0533  Y1.3323  
G01 X2.0494  Y1.3377  
G01 X2.0447  Y1.3424  
G01 X2.0393  Y1.3463  
G01 X2.0333  Y1.3494  
G01 X2.0270  Y1.3515  
G01 X2.0203  Y1.3525  
G00 Z0.1000  
G00 X2.4325  Y1.6474  
G01 Z-0.0070 F10    
G01 X2.4325  Y1.6826  F20    
G01 X2.4076  Y1.7075  
G01 X2.3724  Y1.7075  
G01 X2.3475  Y1.6826  
G01 X2.3475  Y1.6474  
G01 X2.3724  Y1.6225  
G01 X2.4076  Y1.6225  
G01 X2.4325  Y1.6474  
G00 Z0.1000  
G00 X1.6055  Y0.9434  
G01 Z-0.0070 F10    
G01 X1.6055  Y0.9345  F20    
G01 X1.6069  Y0.9235  
G01 X1.6098  Y0.9128  
G01 X1.6141  Y0.9025  
G01 X1.6196  Y0.8930  
G01 X1.6263  Y0.8842  
G01 X1.6342  Y0.8763  
G01 X1.6430  Y0.8696  
G01 X1.6525  Y0.8641  
G01 X1.6628  Y0.8598  
G01 X1.6735  Y0.8569  
G01 X1.6845  Y0.8555  
G01 X1.8500  Y0.8555  
G01 X1.8510  Y0.8555  
G01 X1.8530  Y0.8552  
G01 X1.8550  Y0.8547  
G01 X1.8569  Y0.8539  
G01 X1.8586  Y0.8529  
G01 X1.8602  Y0.8517  
G01 X1.8617  Y0.8502  
G01 X1.8629  Y0.8486  
G01 X1.8639  Y0.8469  
G01 X1.8647  Y0.8450  
G01 X1.8652  Y0.8430  
G01 X1.8655  Y0.8410  
G01 X1.8655  Y0.8400  
G01 X1.8655  Y0.6081  
G01 X1.8487  Y0.5913  
G01 X1.8487  Y0.5487  
G01 X1.8787  Y0.5187  
G01 X1.9213  Y0.5187  
G01 X1.9513  Y0.5487  
G01 X1.9513  Y0.5913  
G01 X1.9345  Y0.6081  
G01 X1.9345  Y0.8455  
G01 X1.9331  Y0.8565  
G01 X1.9302  Y0.8672  
G01 X1.9259  Y0.8775  
G01 X1.9204  Y0.8870  
G01 X1.9137  Y0.8958  
G01 X1.9058  Y0.9037  
G01 X1.8970  Y0.9104  
G01 X1.8875  Y0.9159  
G01 X1.8772  Y0.9202  
G01 X1.8665  Y0.9231  
G01 X1.8555  Y0.9245  
G01 X1.6900  Y0.9245  
G01 X1.6890  Y0.9245  
G01 X1.6870  Y0.9248  
G01 X1.6850  Y0.9253  
G01 X1.6831  Y0.9261  
G01 X1.6814  Y0.9271  
G01 X1.6798  Y0.9283  
G01 X1.6783  Y0.9298  
G01 X1.6771  Y0.9314  
G01 X1.6761  Y0.9331  
G01 X1.6753  Y0.9350  
G01 X1.6748  Y0.9370  
G01 X1.6745  Y0.9390  
G01 X1.6745  Y0.9400  
G01 X1.6745  Y1.2319  
G01 X1.6913  Y1.2487  
G01 X1.6913  Y1.2913  
G01 X1.6613  Y1.3213  
G01 X1.6187  Y1.3213  
G01 X1.5887  Y1.2913  
G01 X1.5887  Y1.2487  
G01 X1.6055  Y1.2319  
G01 X1.6055  Y0.9434  
G00 Z0.1000  
G00 X2.5445  Y0.8719  
G01 Z-0.0070 F10    
G01 X2.5613  Y0.8887  F20    
G01 X2.5613  Y0.9313  
G01 X2.5313  Y0.9613  
G01 X2.4887  Y0.9613  
G01 X2.4587  Y0.9313  
G01 X2.4587  Y0.8887  
G01 X2.4755  Y0.8719  
G01 X2.4755  Y0.4981  
G01 X2.4587  Y0.4813  
G01 X2.4587  Y0.4387  
G01 X2.4887  Y0.4087  
G01 X2.5313  Y0.4087  
G01 X2.5613  Y0.4387  
G01 X2.5613  Y0.4813  
G01 X2.5445  Y0.4981  
G01 X2.5445  Y0.8719  
G00 Z0.1000  
G00 X1.9355  Y1.5081  
G01 Z-0.0070 F10    
G01 X1.9187  Y1.4913  F20    
G01 X1.9187  Y1.4487  
G01 X1.9487  Y1.4187  
G01 X1.9913  Y1.4187  
G01 X2.0213  Y1.4487  
G01 X2.0213  Y1.4913  
G01 X2.0045  Y1.5081  
G01 X2.0045  Y1.7519  
G01 X2.0213  Y1.7687  
G01 X2.0213  Y1.8113  
G01 X1.9913  Y1.8413  
G01 X1.9487  Y1.8413  
G01 X1.9187  Y1.8113  
G01 X1.9187  Y1.7687  
G01 X1.9355  Y1.7519  
G01 X1.9355  Y1.5081  
G00 Z0.1000  
G00 X2.1755  Y1.5081  
G01 Z-0.0070 F10    
G01 X2.1587  Y1.4913  F20    
G01 X2.1587  Y1.4487  
G01 X2.1887  Y1.4187  
G01 X2.2313  Y1.4187  
G01 X2.2480  Y1.4354  
G01 X2.2480  Y1.4185  
G01 X2.2785  Y1.3880  
G01 X2.3215  Y1.3880  
G01 X2.3520  Y1.4185  
G01 X2.3520  Y1.4615  
G01 X2.3215  Y1.4920  
G01 X2.2785  Y1.4920  
G01 X2.2613  Y1.4748  
G01 X2.2613  Y1.4913  
G01 X2.2445  Y1.5081  
G01 X2.2445  Y1.7019  
G01 X2.2613  Y1.7187  
G01 X2.2613  Y1.7613  
G01 X2.2313  Y1.7913  
G01 X2.1887  Y1.7913  
G01 X2.1587  Y1.7613  
G01 X2.1587  Y1.7187  
G01 X2.1755  Y1.7019  
G01 X2.1755  Y1.5081  
G00 Z0.1000  
G00 X1.4120  Y1.8385  
G01 Z-0.0070 F10    
G01 X1.4120  Y1.8815  F20    
G01 X1.3815  Y1.9120  
G01 X1.3385  Y1.9120  
G01 X1.3080  Y1.8815  
G01 X1.3080  Y1.8385  
G01 X1.3385  Y1.8080  
G01 X1.3815  Y1.8080  
G01 X1.4120  Y1.8385  
G00 Z0.1000  
G00 X0.8120  Y1.8559  
G01 Z-0.0070 F10    
G01 X0.8120  Y1.8641  F20    
G01 X0.8107  Y1.8722  
G01 X0.8082  Y1.8800  
G01 X0.8045  Y1.8873  
G01 X0.7997  Y1.8939  
G01 X0.7939  Y1.8997  
G01 X0.7873  Y1.9045  
G01 X0.7800  Y1.9082  
G01 X0.7722  Y1.9107  
G01 X0.7641  Y1.9120  
G01 X0.7559  Y1.9120  
G01 X0.7478  Y1.9107  
G01 X0.7400  Y1.9082  
G01 X0.7327  Y1.9045  
G01 X0.7261  Y1.8997  
G01 X0.7203  Y1.8939  
G01 X0.7155  Y1.8873  
G01 X0.7118  Y1.8800  
G01 X0.7093  Y1.8722  
G01 X0.7080  Y1.8641  
G01 X0.7080  Y1.8559  
G01 X0.7093  Y1.8478  
G01 X0.7118  Y1.8400  
G01 X0.7155  Y1.8327  
G01 X0.7203  Y1.8261  
G01 X0.7261  Y1.8203  
G01 X0.7327  Y1.8155  
G01 X0.7400  Y1.8118  
G01 X0.7478  Y1.8093  
G01 X0.7559  Y1.8080  
G01 X0.7641  Y1.8080  
G01 X0.7722  Y1.8093  
G01 X0.7800  Y1.8118  
G01 X0.7873  Y1.8155  
G01 X0.7939  Y1.8203  
G01 X0.7997  Y1.8261  
G01 X0.8045  Y1.8327  
G01 X0.8082  Y1.8400  
G01 X0.8107  Y1.8478  
G01 X0.8120  Y1.8559  
G00 Z0.1000  
G00 X2.9520  Y1.4359  
G01 Z-0.0070 F10    
G01 X2.9520  Y1.4441  F20    
G01 X2.9507  Y1.4522  
G01 X2.9482  Y1.4600  
G01 X2.9445  Y1.4673  
G01 X2.9397  Y1.4739  
G01 X2.9339  Y1.4797  
G01 X2.9273  Y1.4845  
G01 X2.9200  Y1.4882  
G01 X2.9122  Y1.4907  
G01 X2.9041  Y1.4920  
G01 X2.8959  Y1.4920  
G01 X2.8878  Y1.4907  
G01 X2.8800  Y1.4882  
G01 X2.8727  Y1.4845  
G01 X2.8661  Y1.4797  
G01 X2.8603  Y1.4739  
G01 X2.8555  Y1.4673  
G01 X2.8518  Y1.4600  
G01 X2.8493  Y1.4522  
G01 X2.8480  Y1.4441  
G01 X2.8480  Y1.4359  
G01 X2.8493  Y1.4278  
G01 X2.8518  Y1.4200  
G01 X2.8555  Y1.4127  
G01 X2.8603  Y1.4061  
G01 X2.8661  Y1.4003  
G01 X2.8727  Y1.3955  
G01 X2.8800  Y1.3918  
G01 X2.8878  Y1.3893  
G01 X2.8959  Y1.3880  
G01 X2.9041  Y1.3880  
G01 X2.9122  Y1.3893  
G01 X2.9200  Y1.3918  
G01 X2.9273  Y1.3955  
G01 X2.9339  Y1.4003  
G01 X2.9397  Y1.4061  
G01 X2.9445  Y1.4127  
G01 X2.9482  Y1.4200  
G01 X2.9507  Y1.4278  
G01 X2.9520  Y1.4359  
G00 Z0.1000  
G00 X2.3875  Y1.7203  
G01 Z-0.0070 F10    
G01 X2.3875  Y1.7597  F20    
G01 X2.3597  Y1.7875  
G01 X2.3203  Y1.7875  
G01 X2.2925  Y1.7597  
G01 X2.2925  Y1.7203  
G01 X2.3203  Y1.6925  
G01 X2.3503  Y1.6925  
G01 X2.3425  Y1.6847  
G01 X2.3425  Y1.6453  
G01 X2.3703  Y1.6175  
G01 X2.4097  Y1.6175  
G01 X2.4375  Y1.6453  
G01 X2.4375  Y1.6847  
G01 X2.4297  Y1.6925  
G01 X2.4597  Y1.6925  
G01 X2.4875  Y1.7203  
G01 X2.4875  Y1.7597  
G01 X2.4597  Y1.7875  
G01 X2.4203  Y1.7875  
G01 X2.3925  Y1.7597  
G01 X2.3925  Y1.7203  
G01 X2.4003  Y1.7125  
G01 X2.3797  Y1.7125  
G01 X2.3875  Y1.7203  
G00 Z0.1000  
G00 X2.1875  Y0.2403  
G01 Z-0.0070 F10    
G01 X2.1875  Y0.2797  F20    
G01 X2.1597  Y0.3075  
G01 X2.1203  Y0.3075  
G01 X2.0925  Y0.2797  
G01 X2.0925  Y0.2403  
G01 X2.1203  Y0.2125  
G01 X2.1597  Y0.2125  
G01 X2.1875  Y0.2403  
G00 Z0.1000  
G00 X2.6875  Y0.2403  
G01 Z-0.0070 F10    
G01 X2.6875  Y0.2797  F20    
G01 X2.6597  Y0.3075  
G01 X2.6203  Y0.3075  
G01 X2.5925  Y0.2797  
G01 X2.5925  Y0.2403  
G01 X2.6203  Y0.2125  
G01 X2.6597  Y0.2125  
G01 X2.6875  Y0.2403  
G00 Z0.1000  
G00 X1.3675  Y0.1803  
G01 Z-0.0070 F10    
G01 X1.3675  Y0.2197  F20    
G01 X1.3397  Y0.2475  
G01 X1.3003  Y0.2475  
G01 X1.2725  Y0.2197  
G01 X1.2725  Y0.1803  
G01 X1.3003  Y0.1525  
G01 X1.3397  Y0.1525  
G01 X1.3675  Y0.1803  
G00 Z0.1000  
G00 X1.8675  Y0.1803  
G01 Z-0.0070 F10    
G01 X1.8675  Y0.2197  F20    
G01 X1.8397  Y0.2475  
G01 X1.8003  Y0.2475  
G01 X1.7725  Y0.2197  
G01 X1.7725  Y0.1803  
G01 X1.8003  Y0.1525  
G01 X1.8397  Y0.1525  
G01 X1.8675  Y0.1803  
G00 Z0.1000  
G00 X1.4775  Y0.6903  
G01 Z-0.0070 F10    
G01 X1.4775  Y0.7297  F20    
G01 X1.4497  Y0.7575  
G01 X1.4103  Y0.7575  
G01 X1.3825  Y0.7297  
G01 X1.3825  Y0.6903  
G01 X1.4103  Y0.6625  
G01 X1.4497  Y0.6625  
G01 X1.4775  Y0.6903  
G00 Z0.1000  
G00 X1.4775  Y1.1903  
G01 Z-0.0070 F10    
G01 X1.4775  Y1.2297  F20    
G01 X1.4497  Y1.2575  
G01 X1.4103  Y1.2575  
G01 X1.3825  Y1.2297  
G01 X1.3825  Y1.1903  
G01 X1.4103  Y1.1625  
G01 X1.4497  Y1.1625  
G01 X1.4775  Y1.1903  
G00 Z0.1000  
G00 X1.5475  Y1.8903  
G01 Z-0.0070 F10    
G01 X1.5475  Y1.9297  F20    
G01 X1.5197  Y1.9575  
G01 X1.4803  Y1.9575  
G01 X1.4525  Y1.9297  
G01 X1.4525  Y1.8903  
G01 X1.4803  Y1.8625  
G01 X1.5197  Y1.8625  
G01 X1.5475  Y1.8903  
G00 Z0.1000  
G00 X2.0475  Y1.8903  
G01 Z-0.0070 F10    
G01 X2.0475  Y1.9297  F20    
G01 X2.0197  Y1.9575  
G01 X1.9803  Y1.9575  
G01 X1.9525  Y1.9297  
G01 X1.9525  Y1.8903  
G01 X1.9803  Y1.8625  
G01 X2.0197  Y1.8625  
G01 X2.0475  Y1.8903  
G00 Z0.1000  
G00 X1.8175  Y1.6803  
G01 Z-0.0070 F10    
G01 X1.8175  Y1.7197  F20    
G01 X1.7897  Y1.7475  
G01 X1.7503  Y1.7475  
G01 X1.7225  Y1.7197  
G01 X1.7225  Y1.6803  
G01 X1.7503  Y1.6525  
G01 X1.7897  Y1.6525  
G01 X1.8175  Y1.6803  
G00 Z0.1000  
G00 X1.8175  Y1.1803  
G01 Z-0.0070 F10    
G01 X1.8175  Y1.2197  F20    
G01 X1.7897  Y1.2475  
G01 X1.7503  Y1.2475  
G01 X1.7225  Y1.2197  
G01 X1.7225  Y1.1803  
G01 X1.7503  Y1.1525  
G01 X1.7897  Y1.1525  
G01 X1.8175  Y1.1803  
G00 Z0.1000  
G00 X2.9975  Y1.3103  
G01 Z-0.0070 F10    
G01 X2.9975  Y1.3497  F20    
G01 X2.9697  Y1.3775  
G01 X2.9303  Y1.3775  
G01 X2.9025  Y1.3497  
G01 X2.9025  Y1.3103  
G01 X2.9303  Y1.2825  
G01 X2.9697  Y1.2825  
G01 X2.9975  Y1.3103  
G00 Z0.1000  
G00 X2.9975  Y1.1103  
G01 Z-0.0070 F10    
G01 X2.9975  Y1.1497  F20    
G01 X2.9697  Y1.1775  
G01 X2.9303  Y1.1775  
G01 X2.9025  Y1.1497  
G01 X2.9025  Y1.1103  
G01 X2.9303  Y1.0825  
G01 X2.9697  Y1.0825  
G01 X2.9975  Y1.1103  
G00 Z0.1000  
G00 X2.7175  Y1.7003  
G01 Z-0.0070 F10    
G01 X2.7175  Y1.7397  F20    
G01 X2.6897  Y1.7675  
G01 X2.6503  Y1.7675  
G01 X2.6225  Y1.7397  
G01 X2.6225  Y1.7003  
G01 X2.6503  Y1.6725  
G01 X2.6897  Y1.6725  
G01 X2.7175  Y1.7003  
G00 Z0.1000  
G00 X2.7175  Y1.8003  
G01 Z-0.0070 F10    
G01 X2.7175  Y1.8397  F20    
G01 X2.6897  Y1.8675  
G01 X2.6503  Y1.8675  
G01 X2.6225  Y1.8397  
G01 X2.6225  Y1.8003  
G01 X2.6503  Y1.7725  
G01 X2.6897  Y1.7725  
G01 X2.7175  Y1.8003  
G00 Z0.1000  
G00 X2.7175  Y1.2303  
G01 Z-0.0070 F10    
G01 X2.7175  Y1.2697  F20    
G01 X2.6897  Y1.2975  
G01 X2.6503  Y1.2975  
G01 X2.6225  Y1.2697  
G01 X2.6225  Y1.2303  
G01 X2.6503  Y1.2025  
G01 X2.6897  Y1.2025  
G01 X2.7175  Y1.2303  
G00 Z0.1000  
G00 X2.7175  Y0.7303  
G01 Z-0.0070 F10    
G01 X2.7175  Y0.7697  F20    
G01 X2.6897  Y0.7975  
G01 X2.6503  Y0.7975  
G01 X2.6225  Y0.7697  
G01 X2.6225  Y0.7303  
G01 X2.6503  Y0.7025  
G01 X2.6897  Y0.7025  
G01 X2.7175  Y0.7303  
G00 Z0.1000  
G00 X1.7975  Y0.6403  
G01 Z-0.0070 F10    
G01 X1.7975  Y0.6797  F20    
G01 X1.7697  Y0.7075  
G01 X1.7303  Y0.7075  
G01 X1.7025  Y0.6797  
G01 X1.7025  Y0.6403  
G01 X1.7303  Y0.6125  
G01 X1.7697  Y0.6125  
G01 X1.7975  Y0.6403  
G00 Z0.1000  
G00 X1.5975  Y0.6403  
G01 Z-0.0070 F10    
G01 X1.5975  Y0.6797  F20    
G01 X1.5697  Y0.7075  
G01 X1.5303  Y0.7075  
G01 X1.5025  Y0.6797  
G01 X1.5025  Y0.6403  
G01 X1.5303  Y0.6125  
G01 X1.5697  Y0.6125  
G01 X1.5975  Y0.6403  
G00 Z0.1000  
G00 X0.8275  Y0.3203  
G01 Z-0.0070 F10    
G01 X0.8275  Y0.3597  F20    
G01 X0.7997  Y0.3875  
G01 X0.7603  Y0.3875  
G01 X0.7325  Y0.3597  
G01 X0.7325  Y0.3203  
G01 X0.7603  Y0.2925  
G01 X0.7997  Y0.2925  
G01 X0.8275  Y0.3203  
G00 Z0.1000  
G00 X0.8275  Y0.5203  
G01 Z-0.0070 F10    
G01 X0.8275  Y0.5597  F20    
G01 X0.7997  Y0.5875  
G01 X0.7603  Y0.5875  
G01 X0.7325  Y0.5597  
G01 X0.7325  Y0.5203  
G01 X0.7603  Y0.4925  
G01 X0.7997  Y0.4925  
G01 X0.8275  Y0.5203  
G00 Z0.1000  
G00 X0.6075  Y0.8903  
G01 Z-0.0070 F10    
G01 X0.6075  Y0.9297  F20    
G01 X0.5797  Y0.9575  
G01 X0.5403  Y0.9575  
G01 X0.5125  Y0.9297  
G01 X0.5125  Y0.8903  
G01 X0.5403  Y0.8625  
G01 X0.5797  Y0.8625  
G01 X0.6075  Y0.8903  
G00 Z0.1000  
G00 X0.6075  Y1.0903  
G01 Z-0.0070 F10    
G01 X0.6075  Y1.1297  F20    
G01 X0.5797  Y1.1575  
G01 X0.5403  Y1.1575  
G01 X0.5125  Y1.1297  
G01 X0.5125  Y1.0903  
G01 X0.5403  Y1.0625  
G01 X0.5797  Y1.0625  
G01 X0.6075  Y1.0903  
G00 Z0.1000  
G00 X0.7675  Y1.4903  
G01 Z-0.0070 F10    
G01 X0.7675  Y1.5297  F20    
G01 X0.7397  Y1.5575  
G01 X0.7003  Y1.5575  
G01 X0.6725  Y1.5297  
G01 X0.6725  Y1.4903  
G01 X0.7003  Y1.4625  
G01 X0.7397  Y1.4625  
G01 X0.7675  Y1.4903  
G00 Z0.1000  
G00 X0.7675  Y1.2903  
G01 Z-0.0070 F10    
G01 X0.7675  Y1.3297  F20    
G01 X0.7397  Y1.3575  
G01 X0.7003  Y1.3575  
G01 X0.6725  Y1.3297  
G01 X0.6725  Y1.2903  
G01 X0.7003  Y1.2625  
G01 X0.7397  Y1.2625  
G01 X0.7675  Y1.2903  
G00 Z0.1000  
G00 X0.2726  Y1.6466  
G01 Z-0.0070 F10    
G01 X0.1274  Y1.6466  F20    
G01 X0.1189  Y1.6452  
G01 X0.1106  Y1.6425  
G01 X0.1029  Y1.6386  
G01 X0.0959  Y1.6335  
G01 X0.0898  Y1.6274  
G01 X0.0847  Y1.6204  
G01 X0.0808  Y1.6127  
G01 X0.0781  Y1.6045  
G01 X0.0767  Y1.5959  
G01 X0.0767  Y1.5872  
G01 X0.0781  Y1.5787  
G01 X0.0808  Y1.5705  
G01 X0.0847  Y1.5627  
G01 X0.0898  Y1.5557  
G01 X0.0959  Y1.5496  
G01 X0.1029  Y1.5445  
G01 X0.1106  Y1.5406  
G01 X0.1189  Y1.5379  
G01 X0.1274  Y1.5366  
G01 X0.2726  Y1.5366  
G01 X0.2811  Y1.5379  
G01 X0.2894  Y1.5406  
G01 X0.2971  Y1.5445  
G01 X0.3041  Y1.5496  
G01 X0.3102  Y1.5557  
G01 X0.3153  Y1.5627  
G01 X0.3192  Y1.5705  
G01 X0.3219  Y1.5787  
G01 X0.3232  Y1.5872  
G01 X0.3232  Y1.5959  
G01 X0.3219  Y1.6045  
G01 X0.3192  Y1.6127  
G01 X0.3153  Y1.6204  
G01 X0.3102  Y1.6274  
G01 X0.3041  Y1.6335  
G01 X0.2971  Y1.6386  
G01 X0.2894  Y1.6425  
G01 X0.2811  Y1.6452  
G01 X0.2726  Y1.6466  
G00 Z0.1000  
G00 X0.2726  Y1.8434  
G01 Z-0.0070 F10    
G01 X0.1274  Y1.8434  F20    
G01 X0.1189  Y1.8421  
G01 X0.1106  Y1.8394  
G01 X0.1029  Y1.8355  
G01 X0.0959  Y1.8304  
G01 X0.0898  Y1.8243  
G01 X0.0847  Y1.8173  
G01 X0.0808  Y1.8095  
G01 X0.0781  Y1.8013  
G01 X0.0767  Y1.7928  
G01 X0.0767  Y1.7841  
G01 X0.0781  Y1.7755  
G01 X0.0808  Y1.7673  
G01 X0.0847  Y1.7596  
G01 X0.0898  Y1.7526  
G01 X0.0959  Y1.7465  
G01 X0.1029  Y1.7414  
G01 X0.1106  Y1.7375  
G01 X0.1189  Y1.7348  
G01 X0.1274  Y1.7334  
G01 X0.2726  Y1.7334  
G01 X0.2811  Y1.7348  
G01 X0.2894  Y1.7375  
G01 X0.2971  Y1.7414  
G01 X0.3041  Y1.7465  
G01 X0.3102  Y1.7526  
G01 X0.3153  Y1.7596  
G01 X0.3192  Y1.7673  
G01 X0.3219  Y1.7755  
G01 X0.3232  Y1.7841  
G01 X0.3232  Y1.7928  
G01 X0.3219  Y1.8013  
G01 X0.3192  Y1.8095  
G01 X0.3153  Y1.8173  
G01 X0.3102  Y1.8243  
G01 X0.3041  Y1.8304  
G01 X0.2971  Y1.8355  
G01 X0.2894  Y1.8394  
G01 X0.2811  Y1.8421  
G01 X0.2726  Y1.8434  
G00 Z0.1000  
G00 X2.8474  Y0.6934  
G01 Z-0.0070 F10    
G01 X2.9926  Y0.6934  F20    
G01 X3.0011  Y0.6948  
G01 X3.0094  Y0.6975  
G01 X3.0171  Y0.7014  
G01 X3.0241  Y0.7065  
G01 X3.0302  Y0.7126  
G01 X3.0353  Y0.7196  
G01 X3.0392  Y0.7273  
G01 X3.0419  Y0.7355  
G01 X3.0432  Y0.7441  
G01 X3.0432  Y0.7528  
G01 X3.0419  Y0.7613  
G01 X3.0392  Y0.7695  
G01 X3.0353  Y0.7773  
G01 X3.0302  Y0.7843  
G01 X3.0241  Y0.7904  
G01 X3.0171  Y0.7955  
G01 X3.0094  Y0.7994  
G01 X3.0011  Y0.8021  
G01 X2.9926  Y0.8034  
G01 X2.8474  Y0.8034  
G01 X2.8389  Y0.8021  
G01 X2.8306  Y0.7994  
G01 X2.8229  Y0.7955  
G01 X2.8159  Y0.7904  
G01 X2.8098  Y0.7843  
G01 X2.8047  Y0.7773  
G01 X2.8008  Y0.7695  
G01 X2.7981  Y0.7613  
G01 X2.7967  Y0.7528  
G01 X2.7967  Y0.7441  
G01 X2.7981  Y0.7355  
G01 X2.8008  Y0.7273  
G01 X2.8047  Y0.7196  
G01 X2.8098  Y0.7126  
G01 X2.8159  Y0.7065  
G01 X2.8229  Y0.7014  
G01 X2.8306  Y0.6975  
G01 X2.8389  Y0.6948  
G01 X2.8474  Y0.6934  
G00 Z0.1000  
G00 X2.8474  Y0.4966  
G01 Z-0.0070 F10    
G01 X2.9926  Y0.4966  F20    
G01 X3.0011  Y0.4979  
G01 X3.0094  Y0.5006  
G01 X3.0171  Y0.5045  
G01 X3.0241  Y0.5096  
G01 X3.0302  Y0.5157  
G01 X3.0353  Y0.5227  
G01 X3.0392  Y0.5305  
G01 X3.0419  Y0.5387  
G01 X3.0432  Y0.5472  
G01 X3.0432  Y0.5559  
G01 X3.0419  Y0.5645  
G01 X3.0392  Y0.5727  
G01 X3.0353  Y0.5804  
G01 X3.0302  Y0.5874  
G01 X3.0241  Y0.5935  
G01 X3.0171  Y0.5986  
G01 X3.0094  Y0.6025  
G01 X3.0011  Y0.6052  
G01 X2.9926  Y0.6066  
G01 X2.8474  Y0.6066  
G01 X2.8389  Y0.6052  
G01 X2.8306  Y0.6025  
G01 X2.8229  Y0.5986  
G01 X2.8159  Y0.5935  
G01 X2.8098  Y0.5874  
G01 X2.8047  Y0.5804  
G01 X2.8008  Y0.5727  
G01 X2.7981  Y0.5645  
G01 X2.7967  Y0.5559  
G01 X2.7967  Y0.5472  
G01 X2.7981  Y0.5387  
G01 X2.8008  Y0.5305  
G01 X2.8047  Y0.5227  
G01 X2.8098  Y0.5157  
G01 X2.8159  Y0.5096  
G01 X2.8229  Y0.5045  
G01 X2.8306  Y0.5006  
G01 X2.8389  Y0.4979  
G01 X2.8474  Y0.4966  
G00 Z0.1000  
G00 X0.2726  Y0.7666  
G01 Z-0.0070 F10    
G01 X0.1274  Y0.7666  F20    
G01 X0.1189  Y0.7652  
G01 X0.1106  Y0.7625  
G01 X0.1029  Y0.7586  
G01 X0.0959  Y0.7535  
G01 X0.0898  Y0.7474  
G01 X0.0847  Y0.7404  
G01 X0.0808  Y0.7327  
G01 X0.0781  Y0.7245  
G01 X0.0767  Y0.7159  
G01 X0.0767  Y0.7072  
G01 X0.0781  Y0.6987  
G01 X0.0808  Y0.6905  
G01 X0.0847  Y0.6827  
G01 X0.0898  Y0.6757  
G01 X0.0959  Y0.6696  
G01 X0.1029  Y0.6645  
G01 X0.1106  Y0.6606  
G01 X0.1189  Y0.6579  
G01 X0.1274  Y0.6566  
G01 X0.2726  Y0.6566  
G01 X0.2811  Y0.6579  
G01 X0.2894  Y0.6606  
G01 X0.2971  Y0.6645  
G01 X0.3041  Y0.6696  
G01 X0.3102  Y0.6757  
G01 X0.3153  Y0.6827  
G01 X0.3192  Y0.6905  
G01 X0.3219  Y0.6987  
G01 X0.3232  Y0.7072  
G01 X0.3232  Y0.7159  
G01 X0.3219  Y0.7245  
G01 X0.3192  Y0.7327  
G01 X0.3153  Y0.7404  
G01 X0.3102  Y0.7474  
G01 X0.3041  Y0.7535  
G01 X0.2971  Y0.7586  
G01 X0.2894  Y0.7625  
G01 X0.2811  Y0.7652  
G01 X0.2726  Y0.7666  
G00 Z0.1000  
G00 X0.2726  Y0.9634  
G01 Z-0.0070 F10    
G01 X0.1274  Y0.9634  F20    
G01 X0.1189  Y0.9621  
G01 X0.1106  Y0.9594  
G01 X0.1029  Y0.9555  
G01 X0.0959  Y0.9504  
G01 X0.0898  Y0.9443  
G01 X0.0847  Y0.9373  
G01 X0.0808  Y0.9295  
G01 X0.0781  Y0.9213  
G01 X0.0767  Y0.9128  
G01 X0.0767  Y0.9041  
G01 X0.0781  Y0.8955  
G01 X0.0808  Y0.8873  
G01 X0.0847  Y0.8796  
G01 X0.0898  Y0.8726  
G01 X0.0959  Y0.8665  
G01 X0.1029  Y0.8614  
G01 X0.1106  Y0.8575  
G01 X0.1189  Y0.8548  
G01 X0.1274  Y0.8534  
G01 X0.2726  Y0.8534  
G01 X0.2811  Y0.8548  
G01 X0.2894  Y0.8575  
G01 X0.2971  Y0.8614  
G01 X0.3041  Y0.8665  
G01 X0.3102  Y0.8726  
G01 X0.3153  Y0.8796  
G01 X0.3192  Y0.8873  
G01 X0.3219  Y0.8955  
G01 X0.3232  Y0.9041  
G01 X0.3232  Y0.9128  
G01 X0.3219  Y0.9213  
G01 X0.3192  Y0.9295  
G01 X0.3153  Y0.9373  
G01 X0.3102  Y0.9443  
G01 X0.3041  Y0.9504  
G01 X0.2971  Y0.9555  
G01 X0.2894  Y0.9594  
G01 X0.2811  Y0.9621  
G01 X0.2726  Y0.9634  
G00 Z0.1000  
G00 X0.2726  Y1.1666  
G01 Z-0.0070 F10    
G01 X0.1274  Y1.1666  F20    
G01 X0.1189  Y1.1652  
G01 X0.1106  Y1.1625  
G01 X0.1029  Y1.1586  
G01 X0.0959  Y1.1535  
G01 X0.0898  Y1.1474  
G01 X0.0847  Y1.1404  
G01 X0.0808  Y1.1327  
G01 X0.0781  Y1.1245  
G01 X0.0767  Y1.1159  
G01 X0.0767  Y1.1072  
G01 X0.0781  Y1.0987  
G01 X0.0808  Y1.0905  
G01 X0.0847  Y1.0827  
G01 X0.0898  Y1.0757  
G01 X0.0959  Y1.0696  
G01 X0.1029  Y1.0645  
G01 X0.1106  Y1.0606  
G01 X0.1189  Y1.0579  
G01 X0.1274  Y1.0566  
G01 X0.2726  Y1.0566  
G01 X0.2811  Y1.0579  
G01 X0.2894  Y1.0606  
G01 X0.2971  Y1.0645  
G01 X0.3041  Y1.0696  
G01 X0.3102  Y1.0757  
G01 X0.3153  Y1.0827  
G01 X0.3192  Y1.0905  
G01 X0.3219  Y1.0987  
G01 X0.3232  Y1.1072  
G01 X0.3232  Y1.1159  
G01 X0.3219  Y1.1245  
G01 X0.3192  Y1.1327  
G01 X0.3153  Y1.1404  
G01 X0.3102  Y1.1474  
G01 X0.3041  Y1.1535  
G01 X0.2971  Y1.1586  
G01 X0.2894  Y1.1625  
G01 X0.2811  Y1.1652  
G01 X0.2726  Y1.1666  
G00 Z0.1000  
G00 X0.2726  Y1.3634  
G01 Z-0.0070 F10    
G01 X0.1274  Y1.3634  F20    
G01 X0.1189  Y1.3621  
G01 X0.1106  Y1.3594  
G01 X0.1029  Y1.3555  
G01 X0.0959  Y1.3504  
G01 X0.0898  Y1.3443  
G01 X0.0847  Y1.3373  
G01 X0.0808  Y1.3295  
G01 X0.0781  Y1.3213  
G01 X0.0767  Y1.3128  
G01 X0.0767  Y1.3041  
G01 X0.0781  Y1.2955  
G01 X0.0808  Y1.2873  
G01 X0.0847  Y1.2796  
G01 X0.0898  Y1.2726  
G01 X0.0959  Y1.2665  
G01 X0.1029  Y1.2614  
G01 X0.1106  Y1.2575  
G01 X0.1189  Y1.2548  
G01 X0.1274  Y1.2534  
G01 X0.2726  Y1.2534  
G01 X0.2811  Y1.2548  
G01 X0.2894  Y1.2575  
G01 X0.2971  Y1.2614  
G01 X0.3041  Y1.2665  
G01 X0.3102  Y1.2726  
G01 X0.3153  Y1.2796  
G01 X0.3192  Y1.2873  
G01 X0.3219  Y1.2955  
G01 X0.3232  Y1.3041  
G01 X0.3232  Y1.3128  
G01 X0.3219  Y1.3213  
G01 X0.3192  Y1.3295  
G01 X0.3153  Y1.3373  
G01 X0.3102  Y1.3443  
G01 X0.3041  Y1.3504  
G01 X0.2971  Y1.3555  
G01 X0.2894  Y1.3594  
G01 X0.2811  Y1.3621  
G01 X0.2726  Y1.3634  
G00 Z0.1000  
G00 X1.3107  Y1.4575  
G01 Z-0.0070 F10    
G01 X1.1893  Y1.4575  F20    
G01 X1.1819  Y1.4563  
G01 X1.1748  Y1.4540  
G01 X1.1681  Y1.4506  
G01 X1.1621  Y1.4462  
G01 X1.1568  Y1.4409  
G01 X1.1524  Y1.4349  
G01 X1.1490  Y1.4282  
G01 X1.1467  Y1.4211  
G01 X1.1455  Y1.4137  
G01 X1.1455  Y1.4063  
G01 X1.1467  Y1.3989  
G01 X1.1490  Y1.3918  
G01 X1.1524  Y1.3851  
G01 X1.1568  Y1.3791  
G01 X1.1621  Y1.3738  
G01 X1.1681  Y1.3694  
G01 X1.1748  Y1.3660  
G01 X1.1819  Y1.3637  
G01 X1.1893  Y1.3625  
G01 X1.3107  Y1.3625  
G01 X1.3181  Y1.3637  
G01 X1.3252  Y1.3660  
G01 X1.3319  Y1.3694  
G01 X1.3379  Y1.3738  
G01 X1.3432  Y1.3791  
G01 X1.3476  Y1.3851  
G01 X1.3510  Y1.3918  
G01 X1.3533  Y1.3989  
G01 X1.3545  Y1.4063  
G01 X1.3545  Y1.4137  
G01 X1.3533  Y1.4211  
G01 X1.3510  Y1.4282  
G01 X1.3476  Y1.4349  
G01 X1.3432  Y1.4409  
G01 X1.3379  Y1.4462  
G01 X1.3319  Y1.4506  
G01 X1.3252  Y1.4540  
G01 X1.3181  Y1.4563  
G01 X1.3107  Y1.4575  
G00 Z0.1000  
G00 X1.3107  Y1.3575  
G01 Z-0.0070 F10    
G01 X1.1893  Y1.3575  F20    
G01 X1.1819  Y1.3563  
G01 X1.1748  Y1.3540  
G01 X1.1681  Y1.3506  
G01 X1.1621  Y1.3462  
G01 X1.1568  Y1.3409  
G01 X1.1524  Y1.3349  
G01 X1.1490  Y1.3282  
G01 X1.1467  Y1.3211  
G01 X1.1455  Y1.3137  
G01 X1.1455  Y1.3063  
G01 X1.1467  Y1.2989  
G01 X1.1490  Y1.2918  
G01 X1.1524  Y1.2851  
G01 X1.1568  Y1.2791  
G01 X1.1621  Y1.2738  
G01 X1.1681  Y1.2694  
G01 X1.1748  Y1.2660  
G01 X1.1819  Y1.2637  
G01 X1.1893  Y1.2625  
G01 X1.3107  Y1.2625  
G01 X1.3181  Y1.2637  
G01 X1.3252  Y1.2660  
G01 X1.3319  Y1.2694  
G01 X1.3379  Y1.2738  
G01 X1.3432  Y1.2791  
G01 X1.3476  Y1.2851  
G01 X1.3510  Y1.2918  
G01 X1.3533  Y1.2989  
G01 X1.3545  Y1.3063  
G01 X1.3545  Y1.3137  
G01 X1.3533  Y1.3211  
G01 X1.3510  Y1.3282  
G01 X1.3476  Y1.3349  
G01 X1.3432  Y1.3409  
G01 X1.3379  Y1.3462  
G01 X1.3319  Y1.3506  
G01 X1.3252  Y1.3540  
G01 X1.3181  Y1.3563  
G01 X1.3107  Y1.3575  
G00 Z0.1000  
G00 X1.3107  Y1.2575  
G01 Z-0.0070 F10    
G01 X1.1893  Y1.2575  F20    
G01 X1.1819  Y1.2563  
G01 X1.1748  Y1.2540  
G01 X1.1681  Y1.2506  
G01 X1.1621  Y1.2462  
G01 X1.1568  Y1.2409  
G01 X1.1524  Y1.2349  
G01 X1.1490  Y1.2282  
G01 X1.1467  Y1.2211  
G01 X1.1455  Y1.2137  
G01 X1.1455  Y1.2063  
G01 X1.1467  Y1.1989  
G01 X1.1490  Y1.1918  
G01 X1.1524  Y1.1851  
G01 X1.1568  Y1.1791  
G01 X1.1621  Y1.1738  
G01 X1.1681  Y1.1694  
G01 X1.1748  Y1.1660  
G01 X1.1819  Y1.1637  
G01 X1.1893  Y1.1625  
G01 X1.3107  Y1.1625  
G01 X1.3181  Y1.1637  
G01 X1.3252  Y1.1660  
G01 X1.3319  Y1.1694  
G01 X1.3379  Y1.1738  
G01 X1.3432  Y1.1791  
G01 X1.3476  Y1.1851  
G01 X1.3510  Y1.1918  
G01 X1.3533  Y1.1989  
G01 X1.3545  Y1.2063  
G01 X1.3545  Y1.2137  
G01 X1.3533  Y1.2211  
G01 X1.3510  Y1.2282  
G01 X1.3476  Y1.2349  
G01 X1.3432  Y1.2409  
G01 X1.3379  Y1.2462  
G01 X1.3319  Y1.2506  
G01 X1.3252  Y1.2540  
G01 X1.3181  Y1.2563  
G01 X1.3107  Y1.2575  
G00 Z0.1000  
G00 X1.3107  Y1.1575  
G01 Z-0.0070 F10    
G01 X1.1893  Y1.1575  F20    
G01 X1.1819  Y1.1563  
G01 X1.1748  Y1.1540  
G01 X1.1681  Y1.1506  
G01 X1.1621  Y1.1462  
G01 X1.1568  Y1.1409  
G01 X1.1524  Y1.1349  
G01 X1.1490  Y1.1282  
G01 X1.1467  Y1.1211  
G01 X1.1455  Y1.1137  
G01 X1.1455  Y1.1063  
G01 X1.1467  Y1.0989  
G01 X1.1490  Y1.0918  
G01 X1.1524  Y1.0851  
G01 X1.1568  Y1.0791  
G01 X1.1621  Y1.0738  
G01 X1.1681  Y1.0694  
G01 X1.1748  Y1.0660  
G01 X1.1819  Y1.0637  
G01 X1.1893  Y1.0625  
G01 X1.3107  Y1.0625  
G01 X1.3181  Y1.0637  
G01 X1.3252  Y1.0660  
G01 X1.3319  Y1.0694  
G01 X1.3379  Y1.0738  
G01 X1.3432  Y1.0791  
G01 X1.3476  Y1.0851  
G01 X1.3510  Y1.0918  
G01 X1.3533  Y1.0989  
G01 X1.3545  Y1.1063  
G01 X1.3545  Y1.1137  
G01 X1.3533  Y1.1211  
G01 X1.3510  Y1.1282  
G01 X1.3476  Y1.1349  
G01 X1.3432  Y1.1409  
G01 X1.3379  Y1.1462  
G01 X1.3319  Y1.1506  
G01 X1.3252  Y1.1540  
G01 X1.3181  Y1.1563  
G01 X1.3107  Y1.1575  
G00 Z0.1000  
G00 X1.3107  Y1.0575  
G01 Z-0.0070 F10    
G01 X1.1893  Y1.0575  F20    
G01 X1.1819  Y1.0563  
G01 X1.1748  Y1.0540  
G01 X1.1681  Y1.0506  
G01 X1.1621  Y1.0462  
G01 X1.1568  Y1.0409  
G01 X1.1524  Y1.0349  
G01 X1.1490  Y1.0282  
G01 X1.1467  Y1.0211  
G01 X1.1455  Y1.0137  
G01 X1.1455  Y1.0063  
G01 X1.1467  Y0.9989  
G01 X1.1490  Y0.9918  
G01 X1.1524  Y0.9851  
G01 X1.1568  Y0.9791  
G01 X1.1621  Y0.9738  
G01 X1.1681  Y0.9694  
G01 X1.1748  Y0.9660  
G01 X1.1819  Y0.9637  
G01 X1.1893  Y0.9625  
G01 X1.3107  Y0.9625  
G01 X1.3181  Y0.9637  
G01 X1.3252  Y0.9660  
G01 X1.3319  Y0.9694  
G01 X1.3379  Y0.9738  
G01 X1.3432  Y0.9791  
G01 X1.3476  Y0.9851  
G01 X1.3510  Y0.9918  
G01 X1.3533  Y0.9989  
G01 X1.3545  Y1.0063  
G01 X1.3545  Y1.0137  
G01 X1.3533  Y1.0211  
G01 X1.3510  Y1.0282  
G01 X1.3476  Y1.0349  
G01 X1.3432  Y1.0409  
G01 X1.3379  Y1.0462  
G01 X1.3319  Y1.0506  
G01 X1.3252  Y1.0540  
G01 X1.3181  Y1.0563  
G01 X1.3107  Y1.0575  
G00 Z0.1000  
G00 X1.3107  Y0.9575  
G01 Z-0.0070 F10    
G01 X1.1893  Y0.9575  F20    
G01 X1.1819  Y0.9563  
G01 X1.1748  Y0.9540  
G01 X1.1681  Y0.9506  
G01 X1.1621  Y0.9462  
G01 X1.1568  Y0.9409  
G01 X1.1524  Y0.9349  
G01 X1.1490  Y0.9282  
G01 X1.1467  Y0.9211  
G01 X1.1455  Y0.9137  
G01 X1.1455  Y0.9063  
G01 X1.1467  Y0.8989  
G01 X1.1490  Y0.8918  
G01 X1.1524  Y0.8851  
G01 X1.1568  Y0.8791  
G01 X1.1621  Y0.8738  
G01 X1.1681  Y0.8694  
G01 X1.1748  Y0.8660  
G01 X1.1819  Y0.8637  
G01 X1.1893  Y0.8625  
G01 X1.3107  Y0.8625  
G01 X1.3181  Y0.8637  
G01 X1.3252  Y0.8660  
G01 X1.3319  Y0.8694  
G01 X1.3379  Y0.8738  
G01 X1.3432  Y0.8791  
G01 X1.3476  Y0.8851  
G01 X1.3510  Y0.8918  
G01 X1.3533  Y0.8989  
G01 X1.3545  Y0.9063  
G01 X1.3545  Y0.9137  
G01 X1.3533  Y0.9211  
G01 X1.3510  Y0.9282  
G01 X1.3476  Y0.9349  
G01 X1.3432  Y0.9409  
G01 X1.3379  Y0.9462  
G01 X1.3319  Y0.9506  
G01 X1.3252  Y0.9540  
G01 X1.3181  Y0.9563  
G01 X1.3107  Y0.9575  
G00 Z0.1000  
G00 X1.0107  Y1.0575  
G01 Z-0.0070 F10    
G01 X0.8893  Y1.0575  F20    
G01 X0.8819  Y1.0563  
G01 X0.8748  Y1.0540  
G01 X0.8681  Y1.0506  
G01 X0.8621  Y1.0462  
G01 X0.8568  Y1.0409  
G01 X0.8524  Y1.0349  
G01 X0.8490  Y1.0282  
G01 X0.8467  Y1.0211  
G01 X0.8455  Y1.0137  
G01 X0.8455  Y1.0063  
G01 X0.8467  Y0.9989  
G01 X0.8490  Y0.9918  
G01 X0.8524  Y0.9851  
G01 X0.8568  Y0.9791  
G01 X0.8621  Y0.9738  
G01 X0.8681  Y0.9694  
G01 X0.8748  Y0.9660  
G01 X0.8819  Y0.9637  
G01 X0.8893  Y0.9625  
G01 X1.0107  Y0.9625  
G01 X1.0181  Y0.9637  
G01 X1.0252  Y0.9660  
G01 X1.0319  Y0.9694  
G01 X1.0379  Y0.9738  
G01 X1.0432  Y0.9791  
G01 X1.0476  Y0.9851  
G01 X1.0510  Y0.9918  
G01 X1.0533  Y0.9989  
G01 X1.0545  Y1.0063  
G01 X1.0545  Y1.0137  
G01 X1.0533  Y1.0211  
G01 X1.0510  Y1.0282  
G01 X1.0476  Y1.0349  
G01 X1.0432  Y1.0409  
G01 X1.0379  Y1.0462  
G01 X1.0319  Y1.0506  
G01 X1.0252  Y1.0540  
G01 X1.0181  Y1.0563  
G01 X1.0107  Y1.0575  
G00 Z0.1000  
G00 X1.0107  Y0.9575  
G01 Z-0.0070 F10    
G01 X0.8893  Y0.9575  F20    
G01 X0.8819  Y0.9563  
G01 X0.8748  Y0.9540  
G01 X0.8681  Y0.9506  
G01 X0.8621  Y0.9462  
G01 X0.8568  Y0.9409  
G01 X0.8524  Y0.9349  
G01 X0.8490  Y0.9282  
G01 X0.8467  Y0.9211  
G01 X0.8455  Y0.9137  
G01 X0.8455  Y0.9063  
G01 X0.8467  Y0.8989  
G01 X0.8490  Y0.8918  
G01 X0.8524  Y0.8851  
G01 X0.8568  Y0.8791  
G01 X0.8621  Y0.8738  
G01 X0.8681  Y0.8694  
G01 X0.8748  Y0.8660  
G01 X0.8819  Y0.8637  
G01 X0.8893  Y0.8625  
G01 X1.0107  Y0.8625  
G01 X1.0181  Y0.8637  
G01 X1.0252  Y0.8660  
G01 X1.0319  Y0.8694  
G01 X1.0379  Y0.8738  
G01 X1.0432  Y0.8791  
G01 X1.0476  Y0.8851  
G01 X1.0510  Y0.8918  
G01 X1.0533  Y0.8989  
G01 X1.0545  Y0.9063  
G01 X1.0545  Y0.9137  
G01 X1.0533  Y0.9211  
G01 X1.0510  Y0.9282  
G01 X1.0476  Y0.9349  
G01 X1.0432  Y0.9409  
G01 X1.0379  Y0.9462  
G01 X1.0319  Y0.9506  
G01 X1.0252  Y0.9540  
G01 X1.0181  Y0.9563  
G01 X1.0107  Y0.9575  
G00 Z0.1000  
G00 X1.0107  Y1.1575  
G01 Z-0.0070 F10    
G01 X0.8893  Y1.1575  F20    
G01 X0.8819  Y1.1563  
G01 X0.8748  Y1.1540  
G01 X0.8681  Y1.1506  
G01 X0.8621  Y1.1462  
G01 X0.8568  Y1.1409  
G01 X0.8524  Y1.1349  
G01 X0.8490  Y1.1282  
G01 X0.8467  Y1.1211  
G01 X0.8455  Y1.1137  
G01 X0.8455  Y1.1063  
G01 X0.8467  Y1.0989  
G01 X0.8490  Y1.0918  
G01 X0.8524  Y1.0851  
G01 X0.8568  Y1.0791  
G01 X0.8621  Y1.0738  
G01 X0.8681  Y1.0694  
G01 X0.8748  Y1.0660  
G01 X0.8819  Y1.0637  
G01 X0.8893  Y1.0625  
G01 X1.0107  Y1.0625  
G01 X1.0181  Y1.0637  
G01 X1.0252  Y1.0660  
G01 X1.0319  Y1.0694  
G01 X1.0379  Y1.0738  
G01 X1.0432  Y1.0791  
G01 X1.0476  Y1.0851  
G01 X1.0510  Y1.0918  
G01 X1.0533  Y1.0989  
G01 X1.0545  Y1.1063  
G01 X1.0545  Y1.1137  
G01 X1.0533  Y1.1211  
G01 X1.0510  Y1.1282  
G01 X1.0476  Y1.1349  
G01 X1.0432  Y1.1409  
G01 X1.0379  Y1.1462  
G01 X1.0319  Y1.1506  
G01 X1.0252  Y1.1540  
G01 X1.0181  Y1.1563  
G01 X1.0107  Y1.1575  
G00 Z0.1000  
G00 X1.0107  Y1.2575  
G01 Z-0.0070 F10    
G01 X0.8893  Y1.2575  F20    
G01 X0.8819  Y1.2563  
G01 X0.8748  Y1.2540  
G01 X0.8681  Y1.2506  
G01 X0.8621  Y1.2462  
G01 X0.8568  Y1.2409  
G01 X0.8524  Y1.2349  
G01 X0.8490  Y1.2282  
G01 X0.8467  Y1.2211  
G01 X0.8455  Y1.2137  
G01 X0.8455  Y1.2063  
G01 X0.8467  Y1.1989  
G01 X0.8490  Y1.1918  
G01 X0.8524  Y1.1851  
G01 X0.8568  Y1.1791  
G01 X0.8621  Y1.1738  
G01 X0.8681  Y1.1694  
G01 X0.8748  Y1.1660  
G01 X0.8819  Y1.1637  
G01 X0.8893  Y1.1625  
G01 X1.0107  Y1.1625  
G01 X1.0181  Y1.1637  
G01 X1.0252  Y1.1660  
G01 X1.0319  Y1.1694  
G01 X1.0379  Y1.1738  
G01 X1.0432  Y1.1791  
G01 X1.0476  Y1.1851  
G01 X1.0510  Y1.1918  
G01 X1.0533  Y1.1989  
G01 X1.0545  Y1.2063  
G01 X1.0545  Y1.2137  
G01 X1.0533  Y1.2211  
G01 X1.0510  Y1.2282  
G01 X1.0476  Y1.2349  
G01 X1.0432  Y1.2409  
G01 X1.0379  Y1.2462  
G01 X1.0319  Y1.2506  
G01 X1.0252  Y1.2540  
G01 X1.0181  Y1.2563  
G01 X1.0107  Y1.2575  
G00 Z0.1000  
G00 X1.3107  Y0.8575  
G01 Z-0.0070 F10    
G01 X1.1893  Y0.8575  F20    
G01 X1.1819  Y0.8563  
G01 X1.1748  Y0.8540  
G01 X1.1681  Y0.8506  
G01 X1.1621  Y0.8462  
G01 X1.1568  Y0.8409  
G01 X1.1524  Y0.8349  
G01 X1.1490  Y0.8282  
G01 X1.1467  Y0.8211  
G01 X1.1455  Y0.8137  
G01 X1.1455  Y0.8063  
G01 X1.1467  Y0.7989  
G01 X1.1490  Y0.7918  
G01 X1.1524  Y0.7851  
G01 X1.1568  Y0.7791  
G01 X1.1621  Y0.7738  
G01 X1.1681  Y0.7694  
G01 X1.1748  Y0.7660  
G01 X1.1819  Y0.7637  
G01 X1.1893  Y0.7625  
G01 X1.3107  Y0.7625  
G01 X1.3181  Y0.7637  
G01 X1.3252  Y0.7660  
G01 X1.3319  Y0.7694  
G01 X1.3379  Y0.7738  
G01 X1.3432  Y0.7791  
G01 X1.3476  Y0.7851  
G01 X1.3510  Y0.7918  
G01 X1.3533  Y0.7989  
G01 X1.3545  Y0.8063  
G01 X1.3545  Y0.8137  
G01 X1.3533  Y0.8211  
G01 X1.3510  Y0.8282  
G01 X1.3476  Y0.8349  
G01 X1.3432  Y0.8409  
G01 X1.3379  Y0.8462  
G01 X1.3319  Y0.8506  
G01 X1.3252  Y0.8540  
G01 X1.3181  Y0.8563  
G01 X1.3107  Y0.8575  
G00 Z0.1000  
G00 X1.0107  Y0.8575  
G01 Z-0.0070 F10    
G01 X0.8893  Y0.8575  F20    
G01 X0.8819  Y0.8563  
G01 X0.8748  Y0.8540  
G01 X0.8681  Y0.8506  
G01 X0.8621  Y0.8462  
G01 X0.8568  Y0.8409  
G01 X0.8524  Y0.8349  
G01 X0.8490  Y0.8282  
G01 X0.8467  Y0.8211  
G01 X0.8455  Y0.8137  
G01 X0.8455  Y0.8063  
G01 X0.8467  Y0.7989  
G01 X0.8490  Y0.7918  
G01 X0.8524  Y0.7851  
G01 X0.8568  Y0.7791  
G01 X0.8621  Y0.7738  
G01 X0.8681  Y0.7694  
G01 X0.8748  Y0.7660  
G01 X0.8819  Y0.7637  
G01 X0.8893  Y0.7625  
G01 X1.0107  Y0.7625  
G01 X1.0181  Y0.7637  
G01 X1.0252  Y0.7660  
G01 X1.0319  Y0.7694  
G01 X1.0379  Y0.7738  
G01 X1.0432  Y0.7791  
G01 X1.0476  Y0.7851  
G01 X1.0510  Y0.7918  
G01 X1.0533  Y0.7989  
G01 X1.0545  Y0.8063  
G01 X1.0545  Y0.8137  
G01 X1.0533  Y0.8211  
G01 X1.0510  Y0.8282  
G01 X1.0476  Y0.8349  
G01 X1.0432  Y0.8409  
G01 X1.0379  Y0.8462  
G01 X1.0319  Y0.8506  
G01 X1.0252  Y0.8540  
G01 X1.0181  Y0.8563  
G01 X1.0107  Y0.8575  
G00 Z0.1000  
G00 X1.0107  Y1.3575  
G01 Z-0.0070 F10    
G01 X0.8893  Y1.3575  F20    
G01 X0.8819  Y1.3563  
G01 X0.8748  Y1.3540  
G01 X0.8681  Y1.3506  
G01 X0.8621  Y1.3462  
G01 X0.8568  Y1.3409  
G01 X0.8524  Y1.3349  
G01 X0.8490  Y1.3282  
G01 X0.8467  Y1.3211  
G01 X0.8455  Y1.3137  
G01 X0.8455  Y1.3063  
G01 X0.8467  Y1.2989  
G01 X0.8490  Y1.2918  
G01 X0.8524  Y1.2851  
G01 X0.8568  Y1.2791  
G01 X0.8621  Y1.2738  
G01 X0.8681  Y1.2694  
G01 X0.8748  Y1.2660  
G01 X0.8819  Y1.2637  
G01 X0.8893  Y1.2625  
G01 X1.0107  Y1.2625  
G01 X1.0181  Y1.2637  
G01 X1.0252  Y1.2660  
G01 X1.0319  Y1.2694  
G01 X1.0379  Y1.2738  
G01 X1.0432  Y1.2791  
G01 X1.0476  Y1.2851  
G01 X1.0510  Y1.2918  
G01 X1.0533  Y1.2989  
G01 X1.0545  Y1.3063  
G01 X1.0545  Y1.3137  
G01 X1.0533  Y1.3211  
G01 X1.0510  Y1.3282  
G01 X1.0476  Y1.3349  
G01 X1.0432  Y1.3409  
G01 X1.0379  Y1.3462  
G01 X1.0319  Y1.3506  
G01 X1.0252  Y1.3540  
G01 X1.0181  Y1.3563  
G01 X1.0107  Y1.3575  
G00 Z0.1000  
G00 X1.0107  Y1.4575  
G01 Z-0.0070 F10    
G01 X0.8893  Y1.4575  F20    
G01 X0.8819  Y1.4563  
G01 X0.8748  Y1.4540  
G01 X0.8681  Y1.4506  
G01 X0.8621  Y1.4462  
G01 X0.8568  Y1.4409  
G01 X0.8524  Y1.4349  
G01 X0.8490  Y1.4282  
G01 X0.8467  Y1.4211  
G01 X0.8455  Y1.4137  
G01 X0.8455  Y1.4063  
G01 X0.8467  Y1.3989  
G01 X0.8490  Y1.3918  
G01 X0.8524  Y1.3851  
G01 X0.8568  Y1.3791  
G01 X0.8621  Y1.3738  
G01 X0.8681  Y1.3694  
G01 X0.8748  Y1.3660  
G01 X0.8819  Y1.3637  
G01 X0.8893  Y1.3625  
G01 X1.0107  Y1.3625  
G01 X1.0181  Y1.3637  
G01 X1.0252  Y1.3660  
G01 X1.0319  Y1.3694  
G01 X1.0379  Y1.3738  
G01 X1.0432  Y1.3791  
G01 X1.0476  Y1.3851  
G01 X1.0510  Y1.3918  
G01 X1.0533  Y1.3989  
G01 X1.0545  Y1.4063  
G01 X1.0545  Y1.4137  
G01 X1.0533  Y1.4211  
G01 X1.0510  Y1.4282  
G01 X1.0476  Y1.4349  
G01 X1.0432  Y1.4409  
G01 X1.0379  Y1.4462  
G01 X1.0319  Y1.4506  
G01 X1.0252  Y1.4540  
G01 X1.0181  Y1.4563  
G01 X1.0107  Y1.4575  
G00 Z0.1000  
G00 X2.7075  Y1.5903  
G01 Z-0.0070 F10    
G01 X2.7075  Y1.6297  F20    
G01 X2.6797  Y1.6575  
G01 X2.6403  Y1.6575  
G01 X2.6125  Y1.6297  
G01 X2.6125  Y1.5903  
G01 X2.6403  Y1.5625  
G01 X2.6797  Y1.5625  
G01 X2.7075  Y1.5903  
G00 Z0.1000  
G00 X3.2075  Y1.5903  
G01 Z-0.0070 F10    
G01 X3.2075  Y1.6297  F20    
G01 X3.1797  Y1.6575  
G01 X3.1403  Y1.6575  
G01 X3.1125  Y1.6297  
G01 X3.1125  Y1.5903  
G01 X3.1403  Y1.5625  
G01 X3.1797  Y1.5625  
G01 X3.2075  Y1.5903  
G00 Z0.1000  
G00 X2.0635  Y0.6558  
G01 Z-0.0070 F10    
G01 X2.0635  Y0.6642  F20    
G01 X2.0622  Y0.6725  
G01 X2.0596  Y0.6805  
G01 X2.0558  Y0.6880  
G01 X2.0508  Y0.6949  
G01 X2.0449  Y0.7008  
G01 X2.0380  Y0.7058  
G01 X2.0305  Y0.7096  
G01 X2.0225  Y0.7122  
G01 X2.0142  Y0.7135  
G01 X2.0058  Y0.7135  
G01 X1.9975  Y0.7122  
G01 X1.9895  Y0.7096  
G01 X1.9820  Y0.7058  
G01 X1.9751  Y0.7008  
G01 X1.9692  Y0.6949  
G01 X1.9642  Y0.6880  
G01 X1.9604  Y0.6805  
G01 X1.9578  Y0.6725  
G01 X1.9565  Y0.6642  
G01 X1.9565  Y0.6558  
G01 X1.9578  Y0.6475  
G01 X1.9604  Y0.6395  
G01 X1.9642  Y0.6320  
G01 X1.9692  Y0.6251  
G01 X1.9751  Y0.6192  
G01 X1.9820  Y0.6142  
G01 X1.9895  Y0.6104  
G01 X1.9975  Y0.6078  
G01 X2.0058  Y0.6065  
G01 X2.0142  Y0.6065  
G01 X2.0225  Y0.6078  
G01 X2.0305  Y0.6104  
G01 X2.0380  Y0.6142  
G01 X2.0449  Y0.6192  
G01 X2.0508  Y0.6251  
G01 X2.0558  Y0.6320  
G01 X2.0596  Y0.6395  
G01 X2.0622  Y0.6475  
G01 X2.0635  Y0.6558  
G00 Z0.1000  
G00 X2.0635  Y0.2558  
G01 Z-0.0070 F10    
G01 X2.0635  Y0.2642  F20    
G01 X2.0622  Y0.2725  
G01 X2.0596  Y0.2805  
G01 X2.0558  Y0.2880  
G01 X2.0508  Y0.2949  
G01 X2.0449  Y0.3008  
G01 X2.0380  Y0.3058  
G01 X2.0305  Y0.3096  
G01 X2.0225  Y0.3122  
G01 X2.0142  Y0.3135  
G01 X2.0058  Y0.3135  
G01 X1.9975  Y0.3122  
G01 X1.9895  Y0.3096  
G01 X1.9820  Y0.3058  
G01 X1.9751  Y0.3008  
G01 X1.9692  Y0.2949  
G01 X1.9642  Y0.2880  
G01 X1.9604  Y0.2805  
G01 X1.9578  Y0.2725  
G01 X1.9565  Y0.2642  
G01 X1.9565  Y0.2558  
G01 X1.9578  Y0.2475  
G01 X1.9604  Y0.2395  
G01 X1.9642  Y0.2320  
G01 X1.9692  Y0.2251  
G01 X1.9751  Y0.2192  
G01 X1.9820  Y0.2142  
G01 X1.9895  Y0.2104  
G01 X1.9975  Y0.2078  
G01 X2.0058  Y0.2065  
G01 X2.0142  Y0.2065  
G01 X2.0225  Y0.2078  
G01 X2.0305  Y0.2104  
G01 X2.0380  Y0.2142  
G01 X2.0449  Y0.2192  
G01 X2.0508  Y0.2251  
G01 X2.0558  Y0.2320  
G01 X2.0596  Y0.2395  
G01 X2.0622  Y0.2475  
G01 X2.0635  Y0.2558  
G00 Z0.1000  
G00 X1.4735  Y0.3358  
G01 Z-0.0070 F10    
G01 X1.4735  Y0.3442  F20    
G01 X1.4722  Y0.3525  
G01 X1.4696  Y0.3605  
G01 X1.4658  Y0.3680  
G01 X1.4608  Y0.3749  
G01 X1.4549  Y0.3808  
G01 X1.4480  Y0.3858  
G01 X1.4405  Y0.3896  
G01 X1.4325  Y0.3922  
G01 X1.4242  Y0.3935  
G01 X1.4158  Y0.3935  
G01 X1.4075  Y0.3922  
G01 X1.3995  Y0.3896  
G01 X1.3920  Y0.3858  
G01 X1.3851  Y0.3808  
G01 X1.3792  Y0.3749  
G01 X1.3742  Y0.3680  
G01 X1.3704  Y0.3605  
G01 X1.3678  Y0.3525  
G01 X1.3665  Y0.3442  
G01 X1.3665  Y0.3358  
G01 X1.3678  Y0.3275  
G01 X1.3704  Y0.3195  
G01 X1.3742  Y0.3120  
G01 X1.3792  Y0.3051  
G01 X1.3851  Y0.2992  
G01 X1.3920  Y0.2942  
G01 X1.3995  Y0.2904  
G01 X1.4075  Y0.2878  
G01 X1.4158  Y0.2865  
G01 X1.4242  Y0.2865  
G01 X1.4325  Y0.2878  
G01 X1.4405  Y0.2904  
G01 X1.4480  Y0.2942  
G01 X1.4549  Y0.2992  
G01 X1.4608  Y0.3051  
G01 X1.4658  Y0.3120  
G01 X1.4696  Y0.3195  
G01 X1.4722  Y0.3275  
G01 X1.4735  Y0.3358  
G00 Z0.1000  
G00 X1.8735  Y0.3358  
G01 Z-0.0070 F10    
G01 X1.8735  Y0.3442  F20    
G01 X1.8722  Y0.3525  
G01 X1.8696  Y0.3605  
G01 X1.8658  Y0.3680  
G01 X1.8608  Y0.3749  
G01 X1.8549  Y0.3808  
G01 X1.8480  Y0.3858  
G01 X1.8405  Y0.3896  
G01 X1.8325  Y0.3922  
G01 X1.8242  Y0.3935  
G01 X1.8158  Y0.3935  
G01 X1.8075  Y0.3922  
G01 X1.7995  Y0.3896  
G01 X1.7920  Y0.3858  
G01 X1.7851  Y0.3808  
G01 X1.7792  Y0.3749  
G01 X1.7742  Y0.3680  
G01 X1.7704  Y0.3605  
G01 X1.7678  Y0.3525  
G01 X1.7665  Y0.3442  
G01 X1.7665  Y0.3358  
G01 X1.7678  Y0.3275  
G01 X1.7704  Y0.3195  
G01 X1.7742  Y0.3120  
G01 X1.7792  Y0.3051  
G01 X1.7851  Y0.2992  
G01 X1.7920  Y0.2942  
G01 X1.7995  Y0.2904  
G01 X1.8075  Y0.2878  
G01 X1.8158  Y0.2865  
G01 X1.8242  Y0.2865  
G01 X1.8325  Y0.2878  
G01 X1.8405  Y0.2904  
G01 X1.8480  Y0.2942  
G01 X1.8549  Y0.2992  
G01 X1.8608  Y0.3051  
G01 X1.8658  Y0.3120  
G01 X1.8696  Y0.3195  
G01 X1.8722  Y0.3275  
G01 X1.8735  Y0.3358  
G00 Z0.1000  
G00 X1.4735  Y0.4958  
G01 Z-0.0070 F10    
G01 X1.4735  Y0.5042  F20    
G01 X1.4722  Y0.5125  
G01 X1.4696  Y0.5205  
G01 X1.4658  Y0.5280  
G01 X1.4608  Y0.5349  
G01 X1.4549  Y0.5408  
G01 X1.4480  Y0.5458  
G01 X1.4405  Y0.5496  
G01 X1.4325  Y0.5522  
G01 X1.4242  Y0.5535  
G01 X1.4158  Y0.5535  
G01 X1.4075  Y0.5522  
G01 X1.3995  Y0.5496  
G01 X1.3920  Y0.5458  
G01 X1.3851  Y0.5408  
G01 X1.3792  Y0.5349  
G01 X1.3742  Y0.5280  
G01 X1.3704  Y0.5205  
G01 X1.3678  Y0.5125  
G01 X1.3665  Y0.5042  
G01 X1.3665  Y0.4958  
G01 X1.3678  Y0.4875  
G01 X1.3704  Y0.4795  
G01 X1.3742  Y0.4720  
G01 X1.3792  Y0.4651  
G01 X1.3851  Y0.4592  
G01 X1.3920  Y0.4542  
G01 X1.3995  Y0.4504  
G01 X1.4075  Y0.4478  
G01 X1.4158  Y0.4465  
G01 X1.4242  Y0.4465  
G01 X1.4325  Y0.4478  
G01 X1.4405  Y0.4504  
G01 X1.4480  Y0.4542  
G01 X1.4549  Y0.4592  
G01 X1.4608  Y0.4651  
G01 X1.4658  Y0.4720  
G01 X1.4696  Y0.4795  
G01 X1.4722  Y0.4875  
G01 X1.4735  Y0.4958  
G00 Z0.1000  
G00 X1.8735  Y0.4958  
G01 Z-0.0070 F10    
G01 X1.8735  Y0.5042  F20    
G01 X1.8722  Y0.5125  
G01 X1.8696  Y0.5205  
G01 X1.8658  Y0.5280  
G01 X1.8608  Y0.5349  
G01 X1.8549  Y0.5408  
G01 X1.8480  Y0.5458  
G01 X1.8405  Y0.5496  
G01 X1.8325  Y0.5522  
G01 X1.8242  Y0.5535  
G01 X1.8158  Y0.5535  
G01 X1.8075  Y0.5522  
G01 X1.7995  Y0.5496  
G01 X1.7920  Y0.5458  
G01 X1.7851  Y0.5408  
G01 X1.7792  Y0.5349  
G01 X1.7742  Y0.5280  
G01 X1.7704  Y0.5205  
G01 X1.7678  Y0.5125  
G01 X1.7665  Y0.5042  
G01 X1.7665  Y0.4958  
G01 X1.7678  Y0.4875  
G01 X1.7704  Y0.4795  
G01 X1.7742  Y0.4720  
G01 X1.7792  Y0.4651  
G01 X1.7851  Y0.4592  
G01 X1.7920  Y0.4542  
G01 X1.7995  Y0.4504  
G01 X1.8075  Y0.4478  
G01 X1.8158  Y0.4465  
G01 X1.8242  Y0.4465  
G01 X1.8325  Y0.4478  
G01 X1.8405  Y0.4504  
G01 X1.8480  Y0.4542  
G01 X1.8549  Y0.4592  
G01 X1.8608  Y0.4651  
G01 X1.8658  Y0.4720  
G01 X1.8696  Y0.4795  
G01 X1.8722  Y0.4875  
G01 X1.8735  Y0.4958  
G00 Z0.1000  
G00 X1.5535  Y1.7058  
G01 Z-0.0070 F10    
G01 X1.5535  Y1.7142  F20    
G01 X1.5522  Y1.7225  
G01 X1.5496  Y1.7305  
G01 X1.5458  Y1.7380  
G01 X1.5408  Y1.7449  
G01 X1.5349  Y1.7508  
G01 X1.5280  Y1.7558  
G01 X1.5205  Y1.7596  
G01 X1.5125  Y1.7622  
G01 X1.5042  Y1.7635  
G01 X1.4958  Y1.7635  
G01 X1.4875  Y1.7622  
G01 X1.4795  Y1.7596  
G01 X1.4720  Y1.7558  
G01 X1.4651  Y1.7508  
G01 X1.4592  Y1.7449  
G01 X1.4542  Y1.7380  
G01 X1.4504  Y1.7305  
G01 X1.4478  Y1.7225  
G01 X1.4465  Y1.7142  
G01 X1.4465  Y1.7058  
G01 X1.4478  Y1.6975  
G01 X1.4504  Y1.6895  
G01 X1.4542  Y1.6820  
G01 X1.4592  Y1.6751  
G01 X1.4651  Y1.6692  
G01 X1.4720  Y1.6642  
G01 X1.4795  Y1.6604  
G01 X1.4875  Y1.6578  
G01 X1.4958  Y1.6565  
G01 X1.5042  Y1.6565  
G01 X1.5125  Y1.6578  
G01 X1.5205  Y1.6604  
G01 X1.5280  Y1.6642  
G01 X1.5349  Y1.6692  
G01 X1.5408  Y1.6751  
G01 X1.5458  Y1.6820  
G01 X1.5496  Y1.6895  
G01 X1.5522  Y1.6975  
G01 X1.5535  Y1.7058  
G00 Z0.1000  
G00 X1.5535  Y1.3058  
G01 Z-0.0070 F10    
G01 X1.5535  Y1.3142  F20    
G01 X1.5522  Y1.3225  
G01 X1.5496  Y1.3305  
G01 X1.5458  Y1.3380  
G01 X1.5408  Y1.3449  
G01 X1.5349  Y1.3508  
G01 X1.5280  Y1.3558  
G01 X1.5205  Y1.3596  
G01 X1.5125  Y1.3622  
G01 X1.5042  Y1.3635  
G01 X1.4958  Y1.3635  
G01 X1.4875  Y1.3622  
G01 X1.4795  Y1.3596  
G01 X1.4720  Y1.3558  
G01 X1.4651  Y1.3508  
G01 X1.4592  Y1.3449  
G01 X1.4542  Y1.3380  
G01 X1.4504  Y1.3305  
G01 X1.4478  Y1.3225  
G01 X1.4465  Y1.3142  
G01 X1.4465  Y1.3058  
G01 X1.4478  Y1.2975  
G01 X1.4504  Y1.2895  
G01 X1.4542  Y1.2820  
G01 X1.4592  Y1.2751  
G01 X1.4651  Y1.2692  
G01 X1.4720  Y1.2642  
G01 X1.4795  Y1.2604  
G01 X1.4875  Y1.2578  
G01 X1.4958  Y1.2565  
G01 X1.5042  Y1.2565  
G01 X1.5125  Y1.2578  
G01 X1.5205  Y1.2604  
G01 X1.5280  Y1.2642  
G01 X1.5349  Y1.2692  
G01 X1.5408  Y1.2751  
G01 X1.5458  Y1.2820  
G01 X1.5496  Y1.2895  
G01 X1.5522  Y1.2975  
G01 X1.5535  Y1.3058  
G00 Z0.1000  
G00 X2.3207  Y1.0575  
G01 Z-0.0070 F10    
G01 X2.1993  Y1.0575  F20    
G01 X2.1919  Y1.0563  
G01 X2.1848  Y1.0540  
G01 X2.1781  Y1.0506  
G01 X2.1721  Y1.0462  
G01 X2.1668  Y1.0409  
G01 X2.1624  Y1.0349  
G01 X2.1590  Y1.0282  
G01 X2.1567  Y1.0211  
G01 X2.1555  Y1.0137  
G01 X2.1555  Y1.0063  
G01 X2.1567  Y0.9989  
G01 X2.1590  Y0.9918  
G01 X2.1624  Y0.9851  
G01 X2.1668  Y0.9791  
G01 X2.1721  Y0.9738  
G01 X2.1781  Y0.9694  
G01 X2.1848  Y0.9660  
G01 X2.1919  Y0.9637  
G01 X2.1993  Y0.9625  
G01 X2.3207  Y0.9625  
G01 X2.3281  Y0.9637  
G01 X2.3352  Y0.9660  
G01 X2.3419  Y0.9694  
G01 X2.3479  Y0.9738  
G01 X2.3532  Y0.9791  
G01 X2.3576  Y0.9851  
G01 X2.3610  Y0.9918  
G01 X2.3633  Y0.9989  
G01 X2.3645  Y1.0063  
G01 X2.3645  Y1.0137  
G01 X2.3633  Y1.0211  
G01 X2.3610  Y1.0282  
G01 X2.3576  Y1.0349  
G01 X2.3532  Y1.0409  
G01 X2.3479  Y1.0462  
G01 X2.3419  Y1.0506  
G01 X2.3352  Y1.0540  
G01 X2.3281  Y1.0563  
G01 X2.3207  Y1.0575  
G00 Z0.1000  
G00 X2.3207  Y1.1575  
G01 Z-0.0070 F10    
G01 X2.1993  Y1.1575  F20    
G01 X2.1919  Y1.1563  
G01 X2.1848  Y1.1540  
G01 X2.1781  Y1.1506  
G01 X2.1721  Y1.1462  
G01 X2.1668  Y1.1409  
G01 X2.1624  Y1.1349  
G01 X2.1590  Y1.1282  
G01 X2.1567  Y1.1211  
G01 X2.1555  Y1.1137  
G01 X2.1555  Y1.1063  
G01 X2.1567  Y1.0989  
G01 X2.1590  Y1.0918  
G01 X2.1624  Y1.0851  
G01 X2.1668  Y1.0791  
G01 X2.1721  Y1.0738  
G01 X2.1781  Y1.0694  
G01 X2.1848  Y1.0660  
G01 X2.1919  Y1.0637  
G01 X2.1993  Y1.0625  
G01 X2.3207  Y1.0625  
G01 X2.3281  Y1.0637  
G01 X2.3352  Y1.0660  
G01 X2.3419  Y1.0694  
G01 X2.3479  Y1.0738  
G01 X2.3532  Y1.0791  
G01 X2.3576  Y1.0851  
G01 X2.3610  Y1.0918  
G01 X2.3633  Y1.0989  
G01 X2.3645  Y1.1063  
G01 X2.3645  Y1.1137  
G01 X2.3633  Y1.1211  
G01 X2.3610  Y1.1282  
G01 X2.3576  Y1.1349  
G01 X2.3532  Y1.1409  
G01 X2.3479  Y1.1462  
G01 X2.3419  Y1.1506  
G01 X2.3352  Y1.1540  
G01 X2.3281  Y1.1563  
G01 X2.3207  Y1.1575  
G00 Z0.1000  
G00 X2.0207  Y1.0575  
G01 Z-0.0070 F10    
G01 X1.8993  Y1.0575  F20    
G01 X1.8919  Y1.0563  
G01 X1.8848  Y1.0540  
G01 X1.8781  Y1.0506  
G01 X1.8721  Y1.0462  
G01 X1.8668  Y1.0409  
G01 X1.8624  Y1.0349  
G01 X1.8590  Y1.0282  
G01 X1.8567  Y1.0211  
G01 X1.8555  Y1.0137  
G01 X1.8555  Y1.0063  
G01 X1.8567  Y0.9989  
G01 X1.8590  Y0.9918  
G01 X1.8624  Y0.9851  
G01 X1.8668  Y0.9791  
G01 X1.8721  Y0.9738  
G01 X1.8781  Y0.9694  
G01 X1.8848  Y0.9660  
G01 X1.8919  Y0.9637  
G01 X1.8993  Y0.9625  
G01 X2.0207  Y0.9625  
G01 X2.0281  Y0.9637  
G01 X2.0352  Y0.9660  
G01 X2.0419  Y0.9694  
G01 X2.0479  Y0.9738  
G01 X2.0532  Y0.9791  
G01 X2.0576  Y0.9851  
G01 X2.0610  Y0.9918  
G01 X2.0633  Y0.9989  
G01 X2.0645  Y1.0063  
G01 X2.0645  Y1.0137  
G01 X2.0633  Y1.0211  
G01 X2.0610  Y1.0282  
G01 X2.0576  Y1.0349  
G01 X2.0532  Y1.0409  
G01 X2.0479  Y1.0462  
G01 X2.0419  Y1.0506  
G01 X2.0352  Y1.0540  
G01 X2.0281  Y1.0563  
G01 X2.0207  Y1.0575  
G00 Z0.1000  
G00 X2.0207  Y1.1575  
G01 Z-0.0070 F10    
G01 X1.8993  Y1.1575  F20    
G01 X1.8919  Y1.1563  
G01 X1.8848  Y1.1540  
G01 X1.8781  Y1.1506  
G01 X1.8721  Y1.1462  
G01 X1.8668  Y1.1409  
G01 X1.8624  Y1.1349  
G01 X1.8590  Y1.1282  
G01 X1.8567  Y1.1211  
G01 X1.8555  Y1.1137  
G01 X1.8555  Y1.1063  
G01 X1.8567  Y1.0989  
G01 X1.8590  Y1.0918  
G01 X1.8624  Y1.0851  
G01 X1.8668  Y1.0791  
G01 X1.8721  Y1.0738  
G01 X1.8781  Y1.0694  
G01 X1.8848  Y1.0660  
G01 X1.8919  Y1.0637  
G01 X1.8993  Y1.0625  
G01 X2.0207  Y1.0625  
G01 X2.0281  Y1.0637  
G01 X2.0352  Y1.0660  
G01 X2.0419  Y1.0694  
G01 X2.0479  Y1.0738  
G01 X2.0532  Y1.0791  
G01 X2.0576  Y1.0851  
G01 X2.0610  Y1.0918  
G01 X2.0633  Y1.0989  
G01 X2.0645  Y1.1063  
G01 X2.0645  Y1.1137  
G01 X2.0633  Y1.1211  
G01 X2.0610  Y1.1282  
G01 X2.0576  Y1.1349  
G01 X2.0532  Y1.1409  
G01 X2.0479  Y1.1462  
G01 X2.0419  Y1.1506  
G01 X2.0352  Y1.1540  
G01 X2.0281  Y1.1563  
G01 X2.0207  Y1.1575  
G00 Z0.1000  
G00 X2.3207  Y1.3575  
G01 Z-0.0070 F10    
G01 X2.1993  Y1.3575  F20    
G01 X2.1919  Y1.3563  
G01 X2.1848  Y1.3540  
G01 X2.1781  Y1.3506  
G01 X2.1721  Y1.3462  
G01 X2.1668  Y1.3409  
G01 X2.1624  Y1.3349  
G01 X2.1590  Y1.3282  
G01 X2.1567  Y1.3211  
G01 X2.1555  Y1.3137  
G01 X2.1555  Y1.3063  
G01 X2.1567  Y1.2989  
G01 X2.1590  Y1.2918  
G01 X2.1624  Y1.2851  
G01 X2.1668  Y1.2791  
G01 X2.1721  Y1.2738  
G01 X2.1781  Y1.2694  
G01 X2.1848  Y1.2660  
G01 X2.1919  Y1.2637  
G01 X2.1993  Y1.2625  
G01 X2.3207  Y1.2625  
G01 X2.3281  Y1.2637  
G01 X2.3352  Y1.2660  
G01 X2.3419  Y1.2694  
G01 X2.3479  Y1.2738  
G01 X2.3532  Y1.2791  
G01 X2.3576  Y1.2851  
G01 X2.3610  Y1.2918  
G01 X2.3633  Y1.2989  
G01 X2.3645  Y1.3063  
G01 X2.3645  Y1.3137  
G01 X2.3633  Y1.3211  
G01 X2.3610  Y1.3282  
G01 X2.3576  Y1.3349  
G01 X2.3532  Y1.3409  
G01 X2.3479  Y1.3462  
G01 X2.3419  Y1.3506  
G01 X2.3352  Y1.3540  
G01 X2.3281  Y1.3563  
G01 X2.3207  Y1.3575  
G00 Z0.1000  
G00 X2.3207  Y1.2575  
G01 Z-0.0070 F10    
G01 X2.1993  Y1.2575  F20    
G01 X2.1919  Y1.2563  
G01 X2.1848  Y1.2540  
G01 X2.1781  Y1.2506  
G01 X2.1721  Y1.2462  
G01 X2.1668  Y1.2409  
G01 X2.1624  Y1.2349  
G01 X2.1590  Y1.2282  
G01 X2.1567  Y1.2211  
G01 X2.1555  Y1.2137  
G01 X2.1555  Y1.2063  
G01 X2.1567  Y1.1989  
G01 X2.1590  Y1.1918  
G01 X2.1624  Y1.1851  
G01 X2.1668  Y1.1791  
G01 X2.1721  Y1.1738  
G01 X2.1781  Y1.1694  
G01 X2.1848  Y1.1660  
G01 X2.1919  Y1.1637  
G01 X2.1993  Y1.1625  
G01 X2.3207  Y1.1625  
G01 X2.3281  Y1.1637  
G01 X2.3352  Y1.1660  
G01 X2.3419  Y1.1694  
G01 X2.3479  Y1.1738  
G01 X2.3532  Y1.1791  
G01 X2.3576  Y1.1851  
G01 X2.3610  Y1.1918  
G01 X2.3633  Y1.1989  
G01 X2.3645  Y1.2063  
G01 X2.3645  Y1.2137  
G01 X2.3633  Y1.2211  
G01 X2.3610  Y1.2282  
G01 X2.3576  Y1.2349  
G01 X2.3532  Y1.2409  
G01 X2.3479  Y1.2462  
G01 X2.3419  Y1.2506  
G01 X2.3352  Y1.2540  
G01 X2.3281  Y1.2563  
G01 X2.3207  Y1.2575  
G00 Z0.1000  
G00 X2.0207  Y1.2575  
G01 Z-0.0070 F10    
G01 X1.8993  Y1.2575  F20    
G01 X1.8919  Y1.2563  
G01 X1.8848  Y1.2540  
G01 X1.8781  Y1.2506  
G01 X1.8721  Y1.2462  
G01 X1.8668  Y1.2409  
G01 X1.8624  Y1.2349  
G01 X1.8590  Y1.2282  
G01 X1.8567  Y1.2211  
G01 X1.8555  Y1.2137  
G01 X1.8555  Y1.2063  
G01 X1.8567  Y1.1989  
G01 X1.8590  Y1.1918  
G01 X1.8624  Y1.1851  
G01 X1.8668  Y1.1791  
G01 X1.8721  Y1.1738  
G01 X1.8781  Y1.1694  
G01 X1.8848  Y1.1660  
G01 X1.8919  Y1.1637  
G01 X1.8993  Y1.1625  
G01 X2.0207  Y1.1625  
G01 X2.0281  Y1.1637  
G01 X2.0352  Y1.1660  
G01 X2.0419  Y1.1694  
G01 X2.0479  Y1.1738  
G01 X2.0532  Y1.1791  
G01 X2.0576  Y1.1851  
G01 X2.0610  Y1.1918  
G01 X2.0633  Y1.1989  
G01 X2.0645  Y1.2063  
G01 X2.0645  Y1.2137  
G01 X2.0633  Y1.2211  
G01 X2.0610  Y1.2282  
G01 X2.0576  Y1.2349  
G01 X2.0532  Y1.2409  
G01 X2.0479  Y1.2462  
G01 X2.0419  Y1.2506  
G01 X2.0352  Y1.2540  
G01 X2.0281  Y1.2563  
G01 X2.0207  Y1.2575  
G00 Z0.1000  
G00 X2.0207  Y1.3575  
G01 Z-0.0070 F10    
G01 X1.8993  Y1.3575  F20    
G01 X1.8919  Y1.3563  
G01 X1.8848  Y1.3540  
G01 X1.8781  Y1.3506  
G01 X1.8721  Y1.3462  
G01 X1.8668  Y1.3409  
G01 X1.8624  Y1.3349  
