(.../src/pcbgcode.repo/pcb-gcode.ulp)
(Copyright 2005 - 2012 by John Johnson)
(See readme.txt for licensing terms.)
(This file generated from the board:)
(.../pcbgcode.repo/docs/examples/enabtmr.brd)
(Current profile is .../pcbgcode-work/profiles/mach.pp  )
(This file generated 1/16/14 12:20 PM)
(Settings from pcb-machine.h)
(spindle on time = 3.0000)
(  Tool Size)
(0.0070  )
(spindle speed = 30000.0000)
(tool change at 0.0000  0.0000  1.0000  )
(feed rate xy = F20    )
(feed rate z  = F10    )
(Z Axis Settings)
(  High     Up        Down     Drill)
(0.5000  	0.1000  	-0.0070 	-0.0320 )
(Settings from pcb-defaults.h)
(isolate min = 0.0010)
(isolate max = 0.0200)
(isolate step = 0.0050)
(Generated top outlines, top drill, bottom outlines, bottom drill, )
(Unit of measure: inch)
(Inch Mode)
G20
(Absolute Coordinates)
G90
S30000
G00 Z0.5000  
G00 X0.0000  Y0.0000  
M03
G04 P3.000000
G00 Z0.1000  
G00 X-2.4325 Y1.6474  
G01 Z-0.0070 F10    
G01 X-2.4325 Y1.6826  F20    
G01 X-2.4076 Y1.7075  
G01 X-2.3724 Y1.7075  
G01 X-2.3475 Y1.6826  
G01 X-2.3475 Y1.6474  
G01 X-2.3605 Y1.6344  
G01 X-2.3605 Y1.6300  
G01 X-2.3605 Y1.6287  
G01 X-2.3601 Y1.6260  
G01 X-2.3594 Y1.6234  
G01 X-2.3584 Y1.6209  
G01 X-2.3570 Y1.6186  
G01 X-2.3554 Y1.6165  
G01 X-2.3535 Y1.6146  
G01 X-2.3514 Y1.6130  
G01 X-2.3491 Y1.6116  
G01 X-2.3466 Y1.6106  
G01 X-2.3440 Y1.6099  
G01 X-2.3413 Y1.6095  
G01 X-2.3400 Y1.6095  
G01 X-1.8529 Y1.6095  
G01 X-1.8500 Y1.6095  
G01 X-1.8471 Y1.6095  
G01 X-1.8450 Y1.6095  
G01 X-1.8352 Y1.6081  
G01 X-1.8256 Y1.6053  
G01 X-1.8166 Y1.6012  
G01 X-1.8082 Y1.5958  
G01 X-1.8007 Y1.5893  
G01 X-1.7942 Y1.5818  
G01 X-1.7888 Y1.5734  
G01 X-1.7847 Y1.5644  
G01 X-1.7819 Y1.5548  
G01 X-1.7805 Y1.5450  
G01 X-1.7805 Y1.5429  
G01 X-1.7805 Y1.5396  
G01 X-1.7805 Y1.5371  
G01 X-1.7805 Y1.3395  
G01 X-1.5385 Y1.3395  
G01 X-1.5370 Y1.3416  
G01 X-1.5316 Y1.3470  
G01 X-1.5254 Y1.3515  
G01 X-1.5186 Y1.3549  
G01 X-1.5114 Y1.3573  
G01 X-1.5038 Y1.3585  
G01 X-1.4962 Y1.3585  
G01 X-1.4886 Y1.3573  
G01 X-1.4814 Y1.3549  
G01 X-1.4746 Y1.3515  
G01 X-1.4684 Y1.3470  
G01 X-1.4630 Y1.3416  
G01 X-1.4585 Y1.3354  
G01 X-1.4551 Y1.3286  
G01 X-1.4527 Y1.3214  
G01 X-1.4515 Y1.3138  
G01 X-1.4515 Y1.3062  
G01 X-1.4527 Y1.2986  
G01 X-1.4551 Y1.2914  
G01 X-1.4585 Y1.2846  
G01 X-1.4630 Y1.2784  
G01 X-1.4684 Y1.2730  
G01 X-1.4746 Y1.2685  
G01 X-1.4814 Y1.2651  
G01 X-1.4886 Y1.2627  
G01 X-1.4962 Y1.2615  
G01 X-1.5038 Y1.2615  
G01 X-1.5114 Y1.2627  
G01 X-1.5186 Y1.2651  
G01 X-1.5254 Y1.2685  
G01 X-1.5316 Y1.2730  
G01 X-1.5370 Y1.2784  
G01 X-1.5385 Y1.2805  
G01 X-1.5937 Y1.2805  
G01 X-1.5937 Y1.2508  
G01 X-1.6208 Y1.2237  
G01 X-1.6592 Y1.2237  
G01 X-1.6863 Y1.2508  
G01 X-1.6863 Y1.2805  
G01 X-1.7405 Y1.2805  
G01 X-1.7405 Y1.2306  
G01 X-1.7275 Y1.2176  
G01 X-1.7275 Y1.1824  
G01 X-1.7524 Y1.1575  
G01 X-1.7876 Y1.1575  
G01 X-1.8006 Y1.1705  
G01 X-1.8870 Y1.1705  
G01 X-1.8930 Y1.1685  
G01 X-1.8997 Y1.1675  
G01 X-2.0203 Y1.1675  
G01 X-2.0270 Y1.1685  
G01 X-2.0333 Y1.1706  
G01 X-2.0393 Y1.1737  
G01 X-2.0447 Y1.1776  
G01 X-2.0494 Y1.1823  
G01 X-2.0533 Y1.1877  
G01 X-2.0564 Y1.1937  
G01 X-2.0585 Y1.2000  
G01 X-2.0595 Y1.2067  
G01 X-2.0595 Y1.2133  
G01 X-2.0585 Y1.2200  
G01 X-2.0564 Y1.2263  
G01 X-2.0533 Y1.2323  
G01 X-2.0494 Y1.2377  
G01 X-2.0447 Y1.2424  
G01 X-2.0393 Y1.2463  
G01 X-2.0333 Y1.2494  
G01 X-2.0270 Y1.2515  
G01 X-2.0203 Y1.2525  
G01 X-1.8997 Y1.2525  
G01 X-1.8930 Y1.2515  
G01 X-1.8867 Y1.2494  
G01 X-1.8807 Y1.2463  
G01 X-1.8753 Y1.2424  
G01 X-1.8706 Y1.2377  
G01 X-1.8667 Y1.2323  
G01 X-1.8652 Y1.2295  
G01 X-1.8006 Y1.2295  
G01 X-1.7995 Y1.2306  
G01 X-1.7995 Y1.2805  
G01 X-1.8129 Y1.2805  
G01 X-1.8186 Y1.2816  
G01 X-1.8240 Y1.2839  
G01 X-1.8288 Y1.2871  
G01 X-1.8329 Y1.2912  
G01 X-1.8361 Y1.2960  
G01 X-1.8384 Y1.3014  
G01 X-1.8395 Y1.3071  
G01 X-1.8395 Y1.5400  
G01 X-1.8395 Y1.5407  
G01 X-1.8397 Y1.5422  
G01 X-1.8402 Y1.5437  
G01 X-1.8408 Y1.5450  
G01 X-1.8416 Y1.5463  
G01 X-1.8426 Y1.5474  
G01 X-1.8437 Y1.5484  
G01 X-1.8450 Y1.5492  
G01 X-1.8463 Y1.5498  
G01 X-1.8478 Y1.5503  
G01 X-1.8493 Y1.5505  
G01 X-1.8500 Y1.5505  
G01 X-2.3452 Y1.5505  
G01 X-2.3555 Y1.5519  
G01 X-2.3656 Y1.5546  
G01 X-2.3752 Y1.5585  
G01 X-2.3843 Y1.5638  
G01 X-2.3925 Y1.5701  
G01 X-2.3999 Y1.5775  
G01 X-2.4062 Y1.5857  
G01 X-2.4115 Y1.5948  
G01 X-2.4154 Y1.6044  
G01 X-2.4181 Y1.6145  
G01 X-2.4195 Y1.6248  
G01 X-2.4195 Y1.6344  
G01 X-2.4325 Y1.6474  
G00 Z0.1000  
G00 X-2.0203 Y1.1525  
G01 Z-0.0070 F10    
G01 X-1.8997 Y1.1525  F20    
G01 X-1.8930 Y1.1515  
G01 X-1.8867 Y1.1494  
G01 X-1.8807 Y1.1463  
G01 X-1.8753 Y1.1424  
G01 X-1.8724 Y1.1395  
G01 X-1.3376 Y1.1395  
G01 X-1.3347 Y1.1424  
G01 X-1.3293 Y1.1463  
G01 X-1.3233 Y1.1494  
G01 X-1.3170 Y1.1515  
G01 X-1.3103 Y1.1525  
G01 X-1.1897 Y1.1525  
G01 X-1.1830 Y1.1515  
G01 X-1.1767 Y1.1494  
G01 X-1.1707 Y1.1463  
G01 X-1.1653 Y1.1424  
G01 X-1.1606 Y1.1377  
G01 X-1.1567 Y1.1323  
G01 X-1.1536 Y1.1263  
G01 X-1.1515 Y1.1200  
G01 X-1.1505 Y1.1133  
G01 X-1.1505 Y1.1067  
G01 X-1.1515 Y1.1000  
G01 X-1.1536 Y1.0937  
G01 X-1.1567 Y1.0877  
G01 X-1.1606 Y1.0823  
G01 X-1.1653 Y1.0776  
G01 X-1.1707 Y1.0737  
G01 X-1.1767 Y1.0706  
G01 X-1.1830 Y1.0685  
G01 X-1.1897 Y1.0675  
G01 X-1.3103 Y1.0675  
G01 X-1.3170 Y1.0685  
G01 X-1.3233 Y1.0706  
G01 X-1.3293 Y1.0737  
G01 X-1.3347 Y1.0776  
G01 X-1.3376 Y1.0805  
G01 X-1.7805 Y1.0805  
G01 X-1.7805 Y0.8748  
G01 X-1.7819 Y0.8645  
G01 X-1.7846 Y0.8544  
G01 X-1.7885 Y0.8448  
G01 X-1.7938 Y0.8357  
G01 X-1.8001 Y0.8275  
G01 X-1.8075 Y0.8201  
G01 X-1.8157 Y0.8138  
G01 X-1.8248 Y0.8085  
G01 X-1.8344 Y0.8046  
G01 X-1.8445 Y0.8019  
G01 X-1.8548 Y0.8005  
G01 X-2.2800 Y0.8005  
G01 X-2.2813 Y0.8005  
G01 X-2.2840 Y0.8001  
G01 X-2.2866 Y0.7994  
G01 X-2.2891 Y0.7984  
G01 X-2.2914 Y0.7970  
G01 X-2.2935 Y0.7954  
G01 X-2.2954 Y0.7935  
G01 X-2.2970 Y0.7914  
G01 X-2.2984 Y0.7891  
G01 X-2.2994 Y0.7866  
G01 X-2.3001 Y0.7840  
G01 X-2.3005 Y0.7813  
G01 X-2.3005 Y0.7800  
G01 X-2.3005 Y0.7561  
G01 X-2.3017 Y0.7484  
G01 X-2.3041 Y0.7410  
G01 X-2.3077 Y0.7341  
G01 X-2.3122 Y0.7278  
G01 X-2.3178 Y0.7222  
G01 X-2.3241 Y0.7177  
G01 X-2.3310 Y0.7141  
G01 X-2.3384 Y0.7117  
G01 X-2.3461 Y0.7105  
G01 X-2.6494 Y0.7105  
G01 X-2.6524 Y0.7075  
G01 X-2.6876 Y0.7075  
G01 X-2.7006 Y0.7205  
G01 X-2.8102 Y0.7205  
G01 X-2.8136 Y0.7159  
G01 X-2.8192 Y0.7103  
G01 X-2.8255 Y0.7057  
G01 X-2.8326 Y0.7021  
G01 X-2.8400 Y0.6997  
G01 X-2.8478 Y0.6984  
G01 X-2.9922 Y0.6984  
G01 X-3.0000 Y0.6997  
G01 X-3.0074 Y0.7021  
G01 X-3.0145 Y0.7057  
G01 X-3.0208 Y0.7103  
G01 X-3.0264 Y0.7159  
G01 X-3.0310 Y0.7222  
G01 X-3.0346 Y0.7292  
G01 X-3.0370 Y0.7367  
G01 X-3.0382 Y0.7445  
G01 X-3.0382 Y0.7524  
G01 X-3.0370 Y0.7601  
G01 X-3.0346 Y0.7676  
G01 X-3.0310 Y0.7746  
G01 X-3.0264 Y0.7810  
G01 X-3.0208 Y0.7866  
G01 X-3.0145 Y0.7912  
G01 X-3.0074 Y0.7948  
G01 X-3.0000 Y0.7972  
G01 X-2.9922 Y0.7984  
G01 X-2.8478 Y0.7984  
G01 X-2.8400 Y0.7972  
G01 X-2.8326 Y0.7948  
G01 X-2.8255 Y0.7912  
G01 X-2.8192 Y0.7866  
G01 X-2.8136 Y0.7810  
G01 X-2.8125 Y0.7795  
G01 X-2.7006 Y0.7795  
G01 X-2.6876 Y0.7925  
G01 X-2.6524 Y0.7925  
G01 X-2.6294 Y0.7695  
G01 X-2.3595 Y0.7695  
G01 X-2.3595 Y0.7852  
G01 X-2.3581 Y0.7955  
G01 X-2.3554 Y0.8056  
G01 X-2.3515 Y0.8152  
G01 X-2.3462 Y0.8243  
G01 X-2.3399 Y0.8325  
G01 X-2.3325 Y0.8399  
G01 X-2.3243 Y0.8462  
G01 X-2.3152 Y0.8515  
G01 X-2.3056 Y0.8554  
G01 X-2.2955 Y0.8581  
G01 X-2.2852 Y0.8595  
G01 X-1.8600 Y0.8595  
G01 X-1.8587 Y0.8595  
G01 X-1.8560 Y0.8599  
G01 X-1.8534 Y0.8606  
G01 X-1.8509 Y0.8616  
G01 X-1.8486 Y0.8630  
G01 X-1.8465 Y0.8646  
G01 X-1.8446 Y0.8665  
G01 X-1.8430 Y0.8686  
G01 X-1.8416 Y0.8709  
G01 X-1.8406 Y0.8734  
G01 X-1.8399 Y0.8760  
G01 X-1.8395 Y0.8787  
G01 X-1.8395 Y0.8800  
G01 X-1.8395 Y1.0805  
G01 X-1.8724 Y1.0805  
G01 X-1.8753 Y1.0776  
G01 X-1.8807 Y1.0737  
G01 X-1.8867 Y1.0706  
G01 X-1.8930 Y1.0685  
G01 X-1.8997 Y1.0675  
G01 X-2.0203 Y1.0675  
G01 X-2.0270 Y1.0685  
G01 X-2.0333 Y1.0706  
G01 X-2.0393 Y1.0737  
G01 X-2.0447 Y1.0776  
G01 X-2.0494 Y1.0823  
G01 X-2.0533 Y1.0877  
G01 X-2.0564 Y1.0937  
G01 X-2.0585 Y1.1000  
G01 X-2.0595 Y1.1067  
G01 X-2.0595 Y1.1133  
G01 X-2.0585 Y1.1200  
G01 X-2.0564 Y1.1263  
G01 X-2.0533 Y1.1323  
G01 X-2.0494 Y1.1377  
G01 X-2.0447 Y1.1424  
G01 X-2.0393 Y1.1463  
G01 X-2.0333 Y1.1494  
G01 X-2.0270 Y1.1515  
G01 X-2.0203 Y1.1525  
G00 Z0.1000  
G00 X-1.5485 Y1.7062  
G01 Z-0.0070 F10    
G01 X-1.5485 Y1.7138  F20    
G01 X-1.5473 Y1.7214  
G01 X-1.5449 Y1.7286  
G01 X-1.5415 Y1.7354  
G01 X-1.5370 Y1.7416  
G01 X-1.5316 Y1.7470  
G01 X-1.5295 Y1.7485  
G01 X-1.5295 Y1.8794  
G01 X-1.5425 Y1.8924  
G01 X-1.5425 Y1.9276  
G01 X-1.5176 Y1.9525  
G01 X-1.4824 Y1.9525  
G01 X-1.4575 Y1.9276  
G01 X-1.4575 Y1.8924  
G01 X-1.4705 Y1.8794  
G01 X-1.4705 Y1.7485  
G01 X-1.4684 Y1.7470  
G01 X-1.4630 Y1.7416  
G01 X-1.4585 Y1.7354  
G01 X-1.4551 Y1.7286  
G01 X-1.4527 Y1.7214  
G01 X-1.4515 Y1.7138  
G01 X-1.4515 Y1.7062  
G01 X-1.4526 Y1.6995  
G01 X-1.4516 Y1.6995  
G01 X-1.4504 Y1.6996  
G01 X-1.4487 Y1.6995  
G01 X-0.7648 Y1.6995  
G01 X-0.7545 Y1.6981  
G01 X-0.7444 Y1.6954  
G01 X-0.7348 Y1.6915  
G01 X-0.7257 Y1.6862  
G01 X-0.7175 Y1.6799  
G01 X-0.7101 Y1.6725  
G01 X-0.7038 Y1.6643  
G01 X-0.6985 Y1.6552  
G01 X-0.6946 Y1.6456  
G01 X-0.6919 Y1.6355  
G01 X-0.6905 Y1.6252  
G01 X-0.6905 Y1.5406  
G01 X-0.6775 Y1.5276  
G01 X-0.6775 Y1.4924  
G01 X-0.7024 Y1.4675  
G01 X-0.7376 Y1.4675  
G01 X-0.7625 Y1.4924  
G01 X-0.7625 Y1.5276  
G01 X-0.7495 Y1.5406  
G01 X-0.7495 Y1.6200  
G01 X-0.7495 Y1.6213  
G01 X-0.7499 Y1.6240  
G01 X-0.7506 Y1.6266  
G01 X-0.7516 Y1.6291  
G01 X-0.7530 Y1.6314  
G01 X-0.7546 Y1.6335  
G01 X-0.7565 Y1.6354  
G01 X-0.7586 Y1.6370  
G01 X-0.7609 Y1.6384  
G01 X-0.7634 Y1.6394  
G01 X-0.7660 Y1.6401  
G01 X-0.7687 Y1.6405  
G01 X-0.7700 Y1.6405  
G01 X-1.4484 Y1.6405  
G01 X-1.4521 Y1.6401  
G01 X-1.4627 Y1.6404  
G01 X-1.4733 Y1.6423  
G01 X-1.4834 Y1.6456  
G01 X-1.4930 Y1.6504  
G01 X-1.5018 Y1.6565  
G01 X-1.5080 Y1.6622  
G01 X-1.5114 Y1.6627  
G01 X-1.5186 Y1.6651  
G01 X-1.5254 Y1.6685  
G01 X-1.5316 Y1.6730  
G01 X-1.5370 Y1.6784  
G01 X-1.5415 Y1.6846  
G01 X-1.5449 Y1.6914  
G01 X-1.5473 Y1.6986  
G01 X-1.5485 Y1.7062  
G00 Z0.1000  
G00 X-1.8570 Y0.5316  
G01 Z-0.0070 F10    
G01 X-1.8516 Y0.5370  F20    
G01 X-1.8454 Y0.5415  
G01 X-1.8386 Y0.5449  
G01 X-1.8314 Y0.5473  
G01 X-1.8238 Y0.5485  
G01 X-1.8162 Y0.5485  
G01 X-1.8086 Y0.5473  
G01 X-1.8014 Y0.5449  
G01 X-1.7946 Y0.5415  
G01 X-1.7884 Y0.5370  
G01 X-1.7830 Y0.5316  
G01 X-1.7785 Y0.5254  
G01 X-1.7751 Y0.5186  
G01 X-1.7727 Y0.5114  
G01 X-1.7715 Y0.5038  
G01 X-1.7715 Y0.4962  
G01 X-1.7727 Y0.4886  
G01 X-1.7751 Y0.4814  
G01 X-1.7785 Y0.4746  
G01 X-1.7830 Y0.4684  
G01 X-1.7884 Y0.4630  
G01 X-1.7905 Y0.4615  
G01 X-1.7905 Y0.3785  
G01 X-1.7884 Y0.3770  
G01 X-1.7830 Y0.3716  
G01 X-1.7785 Y0.3654  
G01 X-1.7751 Y0.3586  
G01 X-1.7727 Y0.3514  
G01 X-1.7715 Y0.3438  
G01 X-1.7715 Y0.3362  
G01 X-1.7727 Y0.3286  
G01 X-1.7751 Y0.3214  
G01 X-1.7785 Y0.3146  
G01 X-1.7830 Y0.3084  
G01 X-1.7884 Y0.3030  
G01 X-1.7946 Y0.2985  
G01 X-1.8014 Y0.2951  
G01 X-1.8086 Y0.2927  
G01 X-1.8162 Y0.2915  
G01 X-1.8238 Y0.2915  
G01 X-1.8314 Y0.2927  
G01 X-1.8386 Y0.2951  
G01 X-1.8454 Y0.2985  
G01 X-1.8516 Y0.3030  
G01 X-1.8570 Y0.3084  
G01 X-1.8585 Y0.3105  
G01 X-1.9600 Y0.3105  
G01 X-1.9613 Y0.3105  
G01 X-1.9640 Y0.3101  
G01 X-1.9666 Y0.3094  
G01 X-1.9691 Y0.3084  
G01 X-1.9714 Y0.3070  
G01 X-1.9735 Y0.3054  
G01 X-1.9754 Y0.3035  
G01 X-1.9770 Y0.3014  
G01 X-1.9784 Y0.2991  
G01 X-1.9791 Y0.2975  
G01 X-1.9784 Y0.2970  
G01 X-1.9730 Y0.2916  
G01 X-1.9685 Y0.2854  
G01 X-1.9651 Y0.2786  
G01 X-1.9627 Y0.2714  
G01 X-1.9615 Y0.2638  
G01 X-1.9615 Y0.2562  
G01 X-1.9627 Y0.2486  
G01 X-1.9651 Y0.2414  
G01 X-1.9685 Y0.2346  
G01 X-1.9730 Y0.2284  
G01 X-1.9784 Y0.2230  
G01 X-1.9846 Y0.2185  
G01 X-1.9914 Y0.2151  
G01 X-1.9986 Y0.2127  
G01 X-2.0062 Y0.2115  
G01 X-2.0138 Y0.2115  
G01 X-2.0214 Y0.2127  
G01 X-2.0286 Y0.2151  
G01 X-2.0354 Y0.2185  
G01 X-2.0416 Y0.2230  
G01 X-2.0470 Y0.2284  
G01 X-2.0515 Y0.2346  
G01 X-2.0549 Y0.2414  
G01 X-2.0573 Y0.2486  
G01 X-2.0585 Y0.2562  
G01 X-2.0585 Y0.2638  
G01 X-2.0573 Y0.2714  
G01 X-2.0549 Y0.2786  
G01 X-2.0515 Y0.2854  
G01 X-2.0470 Y0.2916  
G01 X-2.0416 Y0.2970  
G01 X-2.0390 Y0.2989  
G01 X-2.0381 Y0.3055  
G01 X-2.0354 Y0.3156  
G01 X-2.0315 Y0.3252  
G01 X-2.0262 Y0.3343  
G01 X-2.0199 Y0.3425  
G01 X-2.0125 Y0.3499  
G01 X-2.0043 Y0.3562  
G01 X-1.9952 Y0.3615  
G01 X-1.9856 Y0.3654  
G01 X-1.9755 Y0.3681  
G01 X-1.9652 Y0.3695  
G01 X-1.8585 Y0.3695  
G01 X-1.8570 Y0.3716  
G01 X-1.8516 Y0.3770  
G01 X-1.8495 Y0.3785  
G01 X-1.8495 Y0.4615  
G01 X-1.8516 Y0.4630  
G01 X-1.8570 Y0.4684  
G01 X-1.8589 Y0.4710  
G01 X-1.8655 Y0.4719  
G01 X-1.8756 Y0.4746  
G01 X-1.8852 Y0.4785  
G01 X-1.8943 Y0.4838  
G01 X-1.9025 Y0.4901  
G01 X-1.9099 Y0.4975  
G01 X-1.9162 Y0.5057  
G01 X-1.9215 Y0.5148  
G01 X-1.9254 Y0.5244  
G01 X-1.9275 Y0.5320  
G01 X-1.9463 Y0.5508  
G01 X-1.9463 Y0.5892  
G01 X-1.9192 Y0.6163  
G01 X-1.8808 Y0.6163  
G01 X-1.8537 Y0.5892  
G01 X-1.8537 Y0.5508  
G01 X-1.8665 Y0.5380  
G01 X-1.8654 Y0.5365  
G01 X-1.8635 Y0.5346  
G01 X-1.8614 Y0.5330  
G01 X-1.8591 Y0.5316  
G01 X-1.8575 Y0.5309  
G01 X-1.8570 Y0.5316  
G00 Z0.1000  
G00 X-3.2025 Y1.5924  
G01 Z-0.0070 F10    
G01 X-3.2025 Y1.6276  F20    
G01 X-3.1895 Y1.6406  
G01 X-3.1895 Y1.6952  
G01 X-3.1881 Y1.7055  
G01 X-3.1854 Y1.7156  
G01 X-3.1815 Y1.7252  
G01 X-3.1762 Y1.7343  
G01 X-3.1699 Y1.7425  
G01 X-3.1625 Y1.7499  
G01 X-3.1543 Y1.7562  
G01 X-3.1452 Y1.7615  
G01 X-3.1356 Y1.7654  
G01 X-3.1255 Y1.7681  
G01 X-3.1152 Y1.7695  
G01 X-2.9900 Y1.7695  
G01 X-2.9893 Y1.7695  
G01 X-2.9878 Y1.7697  
G01 X-2.9863 Y1.7702  
G01 X-2.9850 Y1.7708  
G01 X-2.9837 Y1.7716  
G01 X-2.9826 Y1.7726  
G01 X-2.9816 Y1.7737  
G01 X-2.9808 Y1.7750  
G01 X-2.9802 Y1.7763  
G01 X-2.9797 Y1.7778  
G01 X-2.9795 Y1.7793  
G01 X-2.9795 Y1.7800  
G01 X-2.9795 Y1.8652  
G01 X-2.9781 Y1.8755  
G01 X-2.9754 Y1.8856  
G01 X-2.9715 Y1.8952  
G01 X-2.9662 Y1.9043  
G01 X-2.9599 Y1.9125  
G01 X-2.9525 Y1.9199  
G01 X-2.9443 Y1.9262  
G01 X-2.9352 Y1.9315  
G01 X-2.9256 Y1.9354  
G01 X-2.9155 Y1.9381  
G01 X-2.9052 Y1.9395  
G01 X-2.0306 Y1.9395  
G01 X-2.0176 Y1.9525  
G01 X-1.9824 Y1.9525  
G01 X-1.9694 Y1.9395  
G01 X-1.7700 Y1.9395  
G01 X-1.7687 Y1.9395  
G01 X-1.7660 Y1.9399  
G01 X-1.7634 Y1.9406  
G01 X-1.7609 Y1.9416  
G01 X-1.7586 Y1.9430  
G01 X-1.7565 Y1.9446  
G01 X-1.7546 Y1.9465  
G01 X-1.7530 Y1.9486  
G01 X-1.7516 Y1.9509  
G01 X-1.7506 Y1.9534  
G01 X-1.7499 Y1.9560  
G01 X-1.7495 Y1.9587  
G01 X-1.7495 Y1.9600  
G01 X-1.7495 Y2.0652  
G01 X-1.7481 Y2.0755  
G01 X-1.7454 Y2.0856  
G01 X-1.7415 Y2.0952  
G01 X-1.7362 Y2.1043  
G01 X-1.7299 Y2.1125  
G01 X-1.7225 Y2.1199  
G01 X-1.7143 Y2.1262  
G01 X-1.7052 Y2.1315  
G01 X-1.6956 Y2.1354  
G01 X-1.6855 Y2.1381  
G01 X-1.6752 Y2.1395  
G01 X-1.2548 Y2.1395  
G01 X-1.2445 Y2.1381  
G01 X-1.2344 Y2.1354  
G01 X-1.2248 Y2.1315  
G01 X-1.2157 Y2.1262  
G01 X-1.2075 Y2.1199  
G01 X-1.2001 Y2.1125  
G01 X-1.1938 Y2.1043  
G01 X-1.1885 Y2.0952  
G01 X-1.1846 Y2.0856  
G01 X-1.1819 Y2.0755  
G01 X-1.1805 Y2.0652  
G01 X-1.1805 Y1.9100  
G01 X-1.1805 Y1.9087  
G01 X-1.1801 Y1.9060  
G01 X-1.1794 Y1.9034  
G01 X-1.1784 Y1.9009  
G01 X-1.1770 Y1.8986  
G01 X-1.1754 Y1.8965  
G01 X-1.1735 Y1.8946  
G01 X-1.1714 Y1.8930  
G01 X-1.1691 Y1.8916  
G01 X-1.1666 Y1.8906  
G01 X-1.1640 Y1.8899  
G01 X-1.1613 Y1.8895  
G01 X-1.1600 Y1.8895  
G01 X-0.7967 Y1.8895  
G01 X-0.7958 Y1.8906  
G01 X-0.7906 Y1.8958  
G01 X-0.7846 Y1.9002  
G01 X-0.7780 Y1.9036  
G01 X-0.7710 Y1.9058  
G01 X-0.7637 Y1.9070  
G01 X-0.7563 Y1.9070  
G01 X-0.7490 Y1.9058  
G01 X-0.7420 Y1.9036  
G01 X-0.7354 Y1.9002  
G01 X-0.7294 Y1.8958  
G01 X-0.7242 Y1.8906  
G01 X-0.7233 Y1.8895  
G01 X-0.2745 Y1.8895  
G01 X-0.2721 Y1.8895  
G01 X-0.2687 Y1.8895  
G01 X-0.2655 Y1.8895  
G01 X-0.2533 Y1.8880  
G01 X-0.2414 Y1.8851  
G01 X-0.2300 Y1.8808  
G01 X-0.2192 Y1.8751  
G01 X-0.2091 Y1.8681  
G01 X-0.2000 Y1.8600  
G01 X-0.1919 Y1.8509  
G01 X-0.1849 Y1.8408  
G01 X-0.1837 Y1.8384  
G01 X-0.1278 Y1.8384  
G01 X-0.1200 Y1.8372  
G01 X-0.1126 Y1.8348  
G01 X-0.1055 Y1.8312  
G01 X-0.0992 Y1.8266  
G01 X-0.0936 Y1.8210  
G01 X-0.0890 Y1.8146  
G01 X-0.0854 Y1.8076  
G01 X-0.0830 Y1.8001  
G01 X-0.0818 Y1.7924  
G01 X-0.0818 Y1.7845  
G01 X-0.0830 Y1.7767  
G01 X-0.0854 Y1.7692  
G01 X-0.0890 Y1.7622  
G01 X-0.0936 Y1.7559  
G01 X-0.0992 Y1.7503  
G01 X-0.1055 Y1.7457  
G01 X-0.1126 Y1.7421  
G01 X-0.1200 Y1.7397  
G01 X-0.1278 Y1.7384  
G01 X-0.2722 Y1.7384  
G01 X-0.2800 Y1.7397  
G01 X-0.2874 Y1.7421  
G01 X-0.2945 Y1.7457  
G01 X-0.3008 Y1.7503  
G01 X-0.3064 Y1.7559  
G01 X-0.3110 Y1.7622  
G01 X-0.3146 Y1.7692  
G01 X-0.3170 Y1.7767  
G01 X-0.3182 Y1.7845  
G01 X-0.3182 Y1.7924  
G01 X-0.3170 Y1.8001  
G01 X-0.3146 Y1.8076  
G01 X-0.3110 Y1.8146  
G01 X-0.3064 Y1.8210  
G01 X-0.3008 Y1.8266  
G01 X-0.2954 Y1.8305  
G01 X-0.7233 Y1.8305  
G01 X-0.7242 Y1.8294  
G01 X-0.7294 Y1.8242  
G01 X-0.7354 Y1.8198  
G01 X-0.7420 Y1.8164  
G01 X-0.7490 Y1.8142  
G01 X-0.7563 Y1.8130  
G01 X-0.7637 Y1.8130  
G01 X-0.7710 Y1.8142  
G01 X-0.7780 Y1.8164  
G01 X-0.7846 Y1.8198  
G01 X-0.7906 Y1.8242  
G01 X-0.7958 Y1.8294  
G01 X-0.7967 Y1.8305  
G01 X-1.1652 Y1.8305  
G01 X-1.1755 Y1.8319  
G01 X-1.1856 Y1.8346  
G01 X-1.1952 Y1.8385  
G01 X-1.2043 Y1.8438  
G01 X-1.2125 Y1.8501  
G01 X-1.2199 Y1.8575  
G01 X-1.2262 Y1.8657  
G01 X-1.2315 Y1.8748  
G01 X-1.2354 Y1.8844  
G01 X-1.2381 Y1.8945  
G01 X-1.2395 Y1.9048  
G01 X-1.2395 Y2.0600  
G01 X-1.2395 Y2.0613  
G01 X-1.2399 Y2.0640  
G01 X-1.2406 Y2.0666  
G01 X-1.2416 Y2.0691  
G01 X-1.2430 Y2.0714  
G01 X-1.2446 Y2.0735  
G01 X-1.2465 Y2.0754  
G01 X-1.2486 Y2.0770  
G01 X-1.2509 Y2.0784  
G01 X-1.2534 Y2.0794  
G01 X-1.2560 Y2.0801  
G01 X-1.2587 Y2.0805  
G01 X-1.2600 Y2.0805  
G01 X-1.6700 Y2.0805  
G01 X-1.6713 Y2.0805  
G01 X-1.6740 Y2.0801  
G01 X-1.6766 Y2.0794  
G01 X-1.6791 Y2.0784  
G01 X-1.6814 Y2.0770  
G01 X-1.6835 Y2.0754  
G01 X-1.6854 Y2.0735  
G01 X-1.6870 Y2.0714  
G01 X-1.6884 Y2.0691  
G01 X-1.6894 Y2.0666  
G01 X-1.6901 Y2.0640  
G01 X-1.6905 Y2.0613  
G01 X-1.6905 Y2.0600  
G01 X-1.6905 Y1.9548  
G01 X-1.6919 Y1.9445  
G01 X-1.6946 Y1.9344  
G01 X-1.6985 Y1.9248  
G01 X-1.7038 Y1.9157  
G01 X-1.7101 Y1.9075  
G01 X-1.7175 Y1.9001  
G01 X-1.7257 Y1.8938  
G01 X-1.7348 Y1.8885  
G01 X-1.7444 Y1.8846  
G01 X-1.7545 Y1.8819  
G01 X-1.7648 Y1.8805  
G01 X-1.9694 Y1.8805  
G01 X-1.9824 Y1.8675  
G01 X-2.0176 Y1.8675  
G01 X-2.0306 Y1.8805  
G01 X-2.0605 Y1.8805  
G01 X-2.0605 Y1.7500  
G01 X-2.0605 Y1.7487  
G01 X-2.0601 Y1.7460  
G01 X-2.0594 Y1.7434  
G01 X-2.0584 Y1.7409  
G01 X-2.0570 Y1.7386  
G01 X-2.0554 Y1.7365  
G01 X-2.0535 Y1.7346  
G01 X-2.0514 Y1.7330  
G01 X-2.0491 Y1.7316  
G01 X-2.0466 Y1.7306  
G01 X-2.0440 Y1.7299  
G01 X-2.0413 Y1.7295  
G01 X-2.0400 Y1.7295  
G01 X-1.8006 Y1.7295  
G01 X-1.7876 Y1.7425  
G01 X-1.7524 Y1.7425  
G01 X-1.7394 Y1.7295  
G01 X-1.7353 Y1.7295  
G01 X-1.7261 Y1.7280  
G01 X-1.7172 Y1.7251  
G01 X-1.7088 Y1.7209  
G01 X-1.7012 Y1.7154  
G01 X-1.6946 Y1.7088  
G01 X-1.6891 Y1.7012  
G01 X-1.6849 Y1.6928  
G01 X-1.6820 Y1.6839  
G01 X-1.6805 Y1.6747  
G01 X-1.6805 Y1.5100  
G01 X-1.6805 Y1.5087  
G01 X-1.6801 Y1.5060  
G01 X-1.6794 Y1.5034  
G01 X-1.6784 Y1.5009  
G01 X-1.6770 Y1.4986  
G01 X-1.6754 Y1.4965  
G01 X-1.6735 Y1.4946  
G01 X-1.6714 Y1.4930  
G01 X-1.6691 Y1.4916  
G01 X-1.6666 Y1.4906  
G01 X-1.6640 Y1.4899  
G01 X-1.6613 Y1.4895  
G01 X-1.6600 Y1.4895  
G01 X-1.4548 Y1.4895  
G01 X-1.4445 Y1.4881  
G01 X-1.4344 Y1.4854  
G01 X-1.4248 Y1.4815  
G01 X-1.4157 Y1.4762  
G01 X-1.4075 Y1.4699  
G01 X-1.4001 Y1.4625  
G01 X-1.3938 Y1.4543  
G01 X-1.3885 Y1.4452  
G01 X-1.3846 Y1.4357  
G01 X-1.3755 Y1.4381  
G01 X-1.3652 Y1.4395  
G01 X-1.3376 Y1.4395  
G01 X-1.3347 Y1.4424  
G01 X-1.3293 Y1.4463  
G01 X-1.3233 Y1.4494  
G01 X-1.3170 Y1.4515  
G01 X-1.3103 Y1.4525  
G01 X-1.1897 Y1.4525  
G01 X-1.1830 Y1.4515  
G01 X-1.1767 Y1.4494  
G01 X-1.1707 Y1.4463  
G01 X-1.1653 Y1.4424  
G01 X-1.1606 Y1.4377  
G01 X-1.1567 Y1.4323  
G01 X-1.1536 Y1.4263  
G01 X-1.1515 Y1.4200  
G01 X-1.1505 Y1.4133  
G01 X-1.1505 Y1.4067  
G01 X-1.1515 Y1.4000  
G01 X-1.1536 Y1.3937  
G01 X-1.1567 Y1.3877  
G01 X-1.1606 Y1.3823  
G01 X-1.1653 Y1.3776  
G01 X-1.1707 Y1.3737  
G01 X-1.1767 Y1.3706  
G01 X-1.1830 Y1.3685  
G01 X-1.1897 Y1.3675  
G01 X-1.3103 Y1.3675  
G01 X-1.3170 Y1.3685  
G01 X-1.3233 Y1.3706  
G01 X-1.3293 Y1.3737  
G01 X-1.3347 Y1.3776  
G01 X-1.3376 Y1.3805  
G01 X-1.3600 Y1.3805  
G01 X-1.3613 Y1.3805  
G01 X-1.3640 Y1.3801  
G01 X-1.3666 Y1.3794  
G01 X-1.3691 Y1.3784  
G01 X-1.3714 Y1.3770  
G01 X-1.3735 Y1.3754  
G01 X-1.3754 Y1.3735  
G01 X-1.3770 Y1.3714  
G01 X-1.3784 Y1.3691  
G01 X-1.3794 Y1.3666  
G01 X-1.3801 Y1.3640  
G01 X-1.3805 Y1.3613  
G01 X-1.3805 Y1.3600  
G01 X-1.3805 Y1.2497  
G01 X-1.3805 Y1.2455  
G01 X-1.3819 Y1.2352  
G01 X-1.3846 Y1.2251  
G01 X-1.3875 Y1.2180  
G01 X-1.3875 Y1.1924  
G01 X-1.4124 Y1.1675  
G01 X-1.4476 Y1.1675  
G01 X-1.4725 Y1.1924  
G01 X-1.4725 Y1.2276  
G01 X-1.4476 Y1.2525  
G01 X-1.4395 Y1.2525  
G01 X-1.4395 Y1.2536  
G01 X-1.4395 Y1.4100  
G01 X-1.4395 Y1.4113  
G01 X-1.4399 Y1.4140  
G01 X-1.4406 Y1.4166  
G01 X-1.4416 Y1.4191  
G01 X-1.4430 Y1.4214  
G01 X-1.4446 Y1.4235  
G01 X-1.4465 Y1.4254  
G01 X-1.4486 Y1.4270  
G01 X-1.4509 Y1.4284  
G01 X-1.4534 Y1.4294  
G01 X-1.4560 Y1.4301  
G01 X-1.4587 Y1.4305  
G01 X-1.4600 Y1.4305  
G01 X-1.6652 Y1.4305  
G01 X-1.6755 Y1.4319  
G01 X-1.6856 Y1.4346  
G01 X-1.6952 Y1.4385  
G01 X-1.7043 Y1.4438  
G01 X-1.7125 Y1.4501  
G01 X-1.7199 Y1.4575  
G01 X-1.7262 Y1.4657  
G01 X-1.7315 Y1.4748  
G01 X-1.7354 Y1.4844  
G01 X-1.7381 Y1.4945  
G01 X-1.7395 Y1.5048  
G01 X-1.7395 Y1.6700  
G01 X-1.7395 Y1.6701  
G01 X-1.7396 Y1.6703  
G01 X-1.7524 Y1.6575  
G01 X-1.7876 Y1.6575  
G01 X-1.8006 Y1.6705  
G01 X-2.0452 Y1.6705  
G01 X-2.0555 Y1.6719  
G01 X-2.0656 Y1.6746  
G01 X-2.0752 Y1.6785  
G01 X-2.0843 Y1.6838  
G01 X-2.0925 Y1.6901  
G01 X-2.0999 Y1.6975  
G01 X-2.1062 Y1.7057  
G01 X-2.1115 Y1.7148  
G01 X-2.1154 Y1.7244  
G01 X-2.1181 Y1.7345  
G01 X-2.1195 Y1.7448  
G01 X-2.1195 Y1.8805  
G01 X-2.9000 Y1.8805  
G01 X-2.9013 Y1.8805  
G01 X-2.9040 Y1.8801  
G01 X-2.9066 Y1.8794  
G01 X-2.9091 Y1.8784  
G01 X-2.9114 Y1.8770  
G01 X-2.9135 Y1.8754  
G01 X-2.9154 Y1.8735  
G01 X-2.9170 Y1.8714  
G01 X-2.9184 Y1.8691  
G01 X-2.9194 Y1.8666  
G01 X-2.9201 Y1.8640  
G01 X-2.9205 Y1.8613  
G01 X-2.9205 Y1.8600  
G01 X-2.9205 Y1.7750  
G01 X-2.9219 Y1.7652  
G01 X-2.9247 Y1.7557  
G01 X-2.9288 Y1.7466  
G01 X-2.9342 Y1.7382  
G01 X-2.9407 Y1.7307  
G01 X-2.9482 Y1.7242  
G01 X-2.9566 Y1.7188  
G01 X-2.9657 Y1.7147  
G01 X-2.9752 Y1.7119  
G01 X-2.9850 Y1.7105  
G01 X-3.1100 Y1.7105  
G01 X-3.1113 Y1.7105  
G01 X-3.1140 Y1.7101  
G01 X-3.1166 Y1.7094  
G01 X-3.1191 Y1.7084  
G01 X-3.1214 Y1.7070  
G01 X-3.1235 Y1.7054  
G01 X-3.1254 Y1.7035  
G01 X-3.1270 Y1.7014  
G01 X-3.1284 Y1.6991  
G01 X-3.1294 Y1.6966  
G01 X-3.1301 Y1.6940  
G01 X-3.1305 Y1.6913  
G01 X-3.1305 Y1.6900  
G01 X-3.1305 Y1.6406  
G01 X-3.1175 Y1.6276  
G01 X-3.1175 Y1.5924  
G01 X-3.1305 Y1.5794  
G01 X-3.1305 Y0.9600  
G01 X-3.1305 Y0.9587  
G01 X-3.1301 Y0.9560  
G01 X-3.1294 Y0.9534  
G01 X-3.1284 Y0.9509  
G01 X-3.1270 Y0.9486  
G01 X-3.1254 Y0.9465  
G01 X-3.1235 Y0.9446  
G01 X-3.1214 Y0.9430  
G01 X-3.1191 Y0.9416  
G01 X-3.1166 Y0.9406  
G01 X-3.1140 Y0.9399  
G01 X-3.1113 Y0.9395  
G01 X-3.1100 Y0.9395  
G01 X-2.5460 Y0.9395  
G01 X-2.5292 Y0.9563  
G01 X-2.4908 Y0.9563  
G01 X-2.4740 Y0.9395  
G01 X-2.1600 Y0.9395  
G01 X-2.1587 Y0.9395  
G01 X-2.1560 Y0.9399  
G01 X-2.1534 Y0.9406  
G01 X-2.1509 Y0.9416  
G01 X-2.1486 Y0.9430  
G01 X-2.1465 Y0.9446  
G01 X-2.1446 Y0.9465  
G01 X-2.1430 Y0.9486  
G01 X-2.1416 Y0.9509  
G01 X-2.1406 Y0.9534  
G01 X-2.1399 Y0.9560  
G01 X-2.1395 Y0.9587  
G01 X-2.1395 Y0.9600  
G01 X-2.1395 Y1.2778  
G01 X-2.1422 Y1.2805  
G01 X-2.1724 Y1.2805  
G01 X-2.1753 Y1.2776  
G01 X-2.1807 Y1.2737  
G01 X-2.1867 Y1.2706  
G01 X-2.1930 Y1.2685  
G01 X-2.1997 Y1.2675  
G01 X-2.3203 Y1.2675  
G01 X-2.3270 Y1.2685  
G01 X-2.3333 Y1.2706  
G01 X-2.3393 Y1.2737  
G01 X-2.3447 Y1.2776  
G01 X-2.3494 Y1.2823  
G01 X-2.3533 Y1.2877  
G01 X-2.3564 Y1.2937  
G01 X-2.3585 Y1.3000  
G01 X-2.3595 Y1.3067  
G01 X-2.3595 Y1.3133  
G01 X-2.3585 Y1.3200  
G01 X-2.3564 Y1.3263  
G01 X-2.3533 Y1.3323  
G01 X-2.3494 Y1.3377  
G01 X-2.3447 Y1.3424  
G01 X-2.3393 Y1.3463  
G01 X-2.3333 Y1.3494  
G01 X-2.3270 Y1.3515  
G01 X-2.3203 Y1.3525  
G01 X-2.1997 Y1.3525  
G01 X-2.1930 Y1.3515  
G01 X-2.1867 Y1.3494  
G01 X-2.1807 Y1.3463  
G01 X-2.1753 Y1.3424  
G01 X-2.1724 Y1.3395  
G01 X-2.1261 Y1.3395  
G01 X-2.1184 Y1.3383  
G01 X-2.1110 Y1.3359  
G01 X-2.1041 Y1.3323  
G01 X-2.0978 Y1.3278  
G01 X-2.0922 Y1.3222  
G01 X-2.0877 Y1.3159  
G01 X-2.0841 Y1.3090  
G01 X-2.0817 Y1.3016  
G01 X-2.0805 Y1.2939  
G01 X-2.0805 Y1.0522  
G01 X-2.0678 Y1.0395  
G01 X-2.0476 Y1.0395  
G01 X-2.0447 Y1.0424  
G01 X-2.0393 Y1.0463  
G01 X-2.0333 Y1.0494  
G01 X-2.0270 Y1.0515  
G01 X-2.0203 Y1.0525  
G01 X-1.8997 Y1.0525  
G01 X-1.8930 Y1.0515  
G01 X-1.8867 Y1.0494  
G01 X-1.8807 Y1.0463  
G01 X-1.8753 Y1.0424  
G01 X-1.8706 Y1.0377  
G01 X-1.8667 Y1.0323  
G01 X-1.8636 Y1.0263  
G01 X-1.8615 Y1.0200  
G01 X-1.8605 Y1.0133  
G01 X-1.8605 Y1.0067  
G01 X-1.8615 Y1.0000  
G01 X-1.8636 Y0.9937  
G01 X-1.8667 Y0.9877  
G01 X-1.8706 Y0.9823  
G01 X-1.8753 Y0.9776  
G01 X-1.8807 Y0.9737  
G01 X-1.8867 Y0.9706  
G01 X-1.8930 Y0.9685  
G01 X-1.8997 Y0.9675  
G01 X-2.0203 Y0.9675  
G01 X-2.0270 Y0.9685  
G01 X-2.0333 Y0.9706  
G01 X-2.0393 Y0.9737  
G01 X-2.0447 Y0.9776  
G01 X-2.0476 Y0.9805  
G01 X-2.0805 Y0.9805  
G01 X-2.0805 Y0.9548  
G01 X-2.0819 Y0.9445  
G01 X-2.0846 Y0.9344  
G01 X-2.0885 Y0.9248  
G01 X-2.0938 Y0.9157  
G01 X-2.1001 Y0.9075  
G01 X-2.1075 Y0.9001  
G01 X-2.1157 Y0.8938  
G01 X-2.1248 Y0.8885  
G01 X-2.1344 Y0.8846  
G01 X-2.1445 Y0.8819  
G01 X-2.1548 Y0.8805  
G01 X-2.4740 Y0.8805  
G01 X-2.4908 Y0.8637  
G01 X-2.5292 Y0.8637  
G01 X-2.5460 Y0.8805  
G01 X-3.1152 Y0.8805  
G01 X-3.1255 Y0.8819  
G01 X-3.1356 Y0.8846  
G01 X-3.1452 Y0.8885  
G01 X-3.1543 Y0.8938  
G01 X-3.1625 Y0.9001  
G01 X-3.1699 Y0.9075  
G01 X-3.1762 Y0.9157  
G01 X-3.1815 Y0.9248  
G01 X-3.1854 Y0.9344  
G01 X-3.1881 Y0.9445  
G01 X-3.1895 Y0.9548  
G01 X-3.1895 Y1.5794  
G01 X-3.2025 Y1.5924  
G00 Z0.1000  
G00 X-1.3103 Y0.8525  
G01 Z-0.0070 F10    
G01 X-1.1897 Y0.8525  F20    
G01 X-1.1830 Y0.8515  
G01 X-1.1767 Y0.8494  
G01 X-1.1707 Y0.8463  
G01 X-1.1653 Y0.8424  
G01 X-1.1606 Y0.8377  
G01 X-1.1567 Y0.8323  
G01 X-1.1536 Y0.8263  
G01 X-1.1515 Y0.8200  
G01 X-1.1505 Y0.8133  
G01 X-1.1505 Y0.8067  
G01 X-1.1515 Y0.8000  
G01 X-1.1536 Y0.7937  
G01 X-1.1567 Y0.7877  
G01 X-1.1606 Y0.7823  
G01 X-1.1653 Y0.7776  
G01 X-1.1707 Y0.7737  
G01 X-1.1767 Y0.7706  
G01 X-1.1830 Y0.7685  
G01 X-1.1897 Y0.7675  
G01 X-1.3103 Y0.7675  
G01 X-1.3170 Y0.7685  
G01 X-1.3233 Y0.7706  
G01 X-1.3293 Y0.7737  
G01 X-1.3347 Y0.7776  
G01 X-1.3376 Y0.7805  
G01 X-1.5000 Y0.7805  
G01 X-1.5013 Y0.7805  
G01 X-1.5040 Y0.7801  
G01 X-1.5066 Y0.7794  
G01 X-1.5091 Y0.7784  
G01 X-1.5114 Y0.7770  
G01 X-1.5135 Y0.7754  
G01 X-1.5154 Y0.7735  
G01 X-1.5170 Y0.7714  
G01 X-1.5184 Y0.7691  
G01 X-1.5194 Y0.7666  
G01 X-1.5201 Y0.7640  
G01 X-1.5205 Y0.7613  
G01 X-1.5205 Y0.7600  
G01 X-1.5205 Y0.6906  
G01 X-1.5075 Y0.6776  
G01 X-1.5075 Y0.6424  
G01 X-1.5324 Y0.6175  
G01 X-1.5676 Y0.6175  
G01 X-1.5925 Y0.6424  
G01 X-1.5925 Y0.6776  
G01 X-1.5795 Y0.6906  
G01 X-1.5795 Y0.7652  
G01 X-1.5781 Y0.7755  
G01 X-1.5754 Y0.7856  
G01 X-1.5715 Y0.7952  
G01 X-1.5662 Y0.8043  
G01 X-1.5599 Y0.8125  
G01 X-1.5525 Y0.8199  
G01 X-1.5443 Y0.8262  
G01 X-1.5352 Y0.8315  
G01 X-1.5256 Y0.8354  
G01 X-1.5155 Y0.8381  
G01 X-1.5052 Y0.8395  
G01 X-1.3376 Y0.8395  
G01 X-1.3347 Y0.8424  
G01 X-1.3293 Y0.8463  
G01 X-1.3233 Y0.8494  
G01 X-1.3170 Y0.8515  
G01 X-1.3103 Y0.8525  
G00 Z0.1000  
G00 X-1.0103 Y1.2525  
G01 Z-0.0070 F10    
G01 X-0.8897 Y1.2525  F20    
G01 X-0.8830 Y1.2515  
G01 X-0.8767 Y1.2494  
G01 X-0.8707 Y1.2463  
G01 X-0.8653 Y1.2424  
G01 X-0.8624 Y1.2395  
G01 X-0.4350 Y1.2395  
G01 X-0.4252 Y1.2381  
G01 X-0.4157 Y1.2353  
G01 X-0.4066 Y1.2312  
G01 X-0.3982 Y1.2258  
G01 X-0.3907 Y1.2193  
G01 X-0.3842 Y1.2118  
G01 X-0.3788 Y1.2034  
G01 X-0.3747 Y1.1943  
G01 X-0.3719 Y1.1848  
G01 X-0.3705 Y1.1750  
G01 X-0.3705 Y1.1616  
G01 X-0.3705 Y1.1602  
G01 X-0.3701 Y1.1576  
G01 X-0.3694 Y1.1550  
G01 X-0.3684 Y1.1525  
G01 X-0.3670 Y1.1502  
G01 X-0.3654 Y1.1481  
G01 X-0.3635 Y1.1462  
G01 X-0.3614 Y1.1445  
G01 X-0.3591 Y1.1432  
G01 X-0.3566 Y1.1422  
G01 X-0.3540 Y1.1415  
G01 X-0.3513 Y1.1411  
G01 X-0.3500 Y1.1411  
G01 X-0.3086 Y1.1411  
G01 X-0.3064 Y1.1441  
G01 X-0.3008 Y1.1497  
G01 X-0.2945 Y1.1543  
G01 X-0.2874 Y1.1579  
G01 X-0.2800 Y1.1603  
G01 X-0.2722 Y1.1616  
G01 X-0.1278 Y1.1616  
G01 X-0.1200 Y1.1603  
G01 X-0.1126 Y1.1579  
G01 X-0.1055 Y1.1543  
G01 X-0.0992 Y1.1497  
G01 X-0.0936 Y1.1441  
G01 X-0.0890 Y1.1378  
G01 X-0.0854 Y1.1308  
G01 X-0.0830 Y1.1233  
G01 X-0.0818 Y1.1155  
G01 X-0.0818 Y1.1076  
G01 X-0.0830 Y1.0999  
G01 X-0.0854 Y1.0924  
G01 X-0.0890 Y1.0854  
G01 X-0.0936 Y1.0790  
G01 X-0.0992 Y1.0734  
G01 X-0.1055 Y1.0688  
G01 X-0.1126 Y1.0652  
G01 X-0.1200 Y1.0628  
G01 X-0.1278 Y1.0616  
G01 X-0.2722 Y1.0616  
G01 X-0.2800 Y1.0628  
G01 X-0.2874 Y1.0652  
G01 X-0.2945 Y1.0688  
G01 X-0.3008 Y1.0734  
G01 X-0.3064 Y1.0790  
G01 X-0.3086 Y1.0821  
G01 X-0.3552 Y1.0821  
G01 X-0.3655 Y1.0834  
G01 X-0.3756 Y1.0861  
G01 X-0.3852 Y1.0901  
G01 X-0.3943 Y1.0953  
G01 X-0.4025 Y1.1017  
G01 X-0.4099 Y1.1090  
G01 X-0.4162 Y1.1173  
G01 X-0.4215 Y1.1263  
G01 X-0.4254 Y1.1360  
G01 X-0.4281 Y1.1460  
G01 X-0.4295 Y1.1564  
G01 X-0.4295 Y1.1700  
G01 X-0.4295 Y1.1707  
G01 X-0.4297 Y1.1722  
G01 X-0.4302 Y1.1737  
G01 X-0.4308 Y1.1750  
G01 X-0.4316 Y1.1763  
G01 X-0.4326 Y1.1774  
G01 X-0.4337 Y1.1784  
G01 X-0.4350 Y1.1792  
G01 X-0.4363 Y1.1798  
G01 X-0.4378 Y1.1803  
G01 X-0.4393 Y1.1805  
G01 X-0.4400 Y1.1805  
G01 X-0.8624 Y1.1805  
G01 X-0.8653 Y1.1776  
G01 X-0.8707 Y1.1737  
G01 X-0.8767 Y1.1706  
G01 X-0.8830 Y1.1685  
G01 X-0.8897 Y1.1675  
G01 X-1.0103 Y1.1675  
G01 X-1.0170 Y1.1685  
G01 X-1.0233 Y1.1706  
G01 X-1.0293 Y1.1737  
G01 X-1.0347 Y1.1776  
G01 X-1.0394 Y1.1823  
G01 X-1.0433 Y1.1877  
G01 X-1.0464 Y1.1937  
G01 X-1.0485 Y1.2000  
G01 X-1.0495 Y1.2067  
G01 X-1.0495 Y1.2133  
G01 X-1.0485 Y1.2200  
G01 X-1.0464 Y1.2263  
G01 X-1.0433 Y1.2323  
G01 X-1.0394 Y1.2377  
G01 X-1.0347 Y1.2424  
G01 X-1.0293 Y1.2463  
G01 X-1.0233 Y1.2494  
G01 X-1.0170 Y1.2515  
G01 X-1.0103 Y1.2525  
G00 Z0.1000  
G00 X-1.0103 Y1.1525  
G01 Z-0.0070 F10    
G01 X-0.8897 Y1.1525  F20    
G01 X-0.8830 Y1.1515  
G01 X-0.8767 Y1.1494  
G01 X-0.8707 Y1.1463  
G01 X-0.8653 Y1.1424  
G01 X-0.8624 Y1.1395  
G01 X-0.5906 Y1.1395  
G01 X-0.5776 Y1.1525  
G01 X-0.5424 Y1.1525  
G01 X-0.5175 Y1.1276  
G01 X-0.5175 Y1.0924  
G01 X-0.5424 Y1.0675  
G01 X-0.5776 Y1.0675  
G01 X-0.5906 Y1.0805  
G01 X-0.8624 Y1.0805  
G01 X-0.8653 Y1.0776  
G01 X-0.8707 Y1.0737  
G01 X-0.8767 Y1.0706  
G01 X-0.8830 Y1.0685  
G01 X-0.8897 Y1.0675  
G01 X-1.0103 Y1.0675  
G01 X-1.0170 Y1.0685  
G01 X-1.0233 Y1.0706  
G01 X-1.0293 Y1.0737  
G01 X-1.0347 Y1.0776  
G01 X-1.0394 Y1.0823  
G01 X-1.0433 Y1.0877  
G01 X-1.0464 Y1.0937  
G01 X-1.0485 Y1.1000  
G01 X-1.0495 Y1.1067  
G01 X-1.0495 Y1.1133  
G01 X-1.0485 Y1.1200  
G01 X-1.0464 Y1.1263  
G01 X-1.0433 Y1.1323  
G01 X-1.0394 Y1.1377  
G01 X-1.0347 Y1.1424  
G01 X-1.0293 Y1.1463  
G01 X-1.0233 Y1.1494  
G01 X-1.0170 Y1.1515  
G01 X-1.0103 Y1.1525  
G00 Z0.1000  
G00 X-1.3103 Y0.9525  
G01 Z-0.0070 F10    
G01 X-1.1897 Y0.9525  F20    
G01 X-1.1830 Y0.9515  
G01 X-1.1767 Y0.9494  
G01 X-1.1707 Y0.9463  
G01 X-1.1653 Y0.9424  
G01 X-1.1606 Y0.9377  
G01 X-1.1567 Y0.9323  
G01 X-1.1536 Y0.9263  
G01 X-1.1515 Y0.9200  
G01 X-1.1505 Y0.9133  
G01 X-1.1505 Y0.9067  
G01 X-1.1515 Y0.9000  
G01 X-1.1536 Y0.8937  
G01 X-1.1567 Y0.8877  
G01 X-1.1606 Y0.8823  
G01 X-1.1653 Y0.8776  
G01 X-1.1707 Y0.8737  
G01 X-1.1767 Y0.8706  
G01 X-1.1830 Y0.8685  
G01 X-1.1897 Y0.8675  
G01 X-1.3103 Y0.8675  
G01 X-1.3170 Y0.8685  
G01 X-1.3233 Y0.8706  
G01 X-1.3293 Y0.8737  
G01 X-1.3347 Y0.8776  
G01 X-1.3376 Y0.8805  
G01 X-1.6000 Y0.8805  
G01 X-1.6013 Y0.8805  
G01 X-1.6040 Y0.8801  
G01 X-1.6066 Y0.8794  
G01 X-1.6091 Y0.8784  
G01 X-1.6114 Y0.8770  
G01 X-1.6135 Y0.8754  
G01 X-1.6154 Y0.8735  
G01 X-1.6170 Y0.8714  
G01 X-1.6184 Y0.8691  
G01 X-1.6194 Y0.8666  
G01 X-1.6201 Y0.8640  
G01 X-1.6205 Y0.8613  
G01 X-1.6205 Y0.8600  
G01 X-1.6205 Y0.1500  
G01 X-1.6205 Y0.1487  
G01 X-1.6201 Y0.1460  
G01 X-1.6194 Y0.1434  
G01 X-1.6184 Y0.1409  
G01 X-1.6170 Y0.1386  
G01 X-1.6154 Y0.1365  
G01 X-1.6135 Y0.1346  
G01 X-1.6114 Y0.1330  
G01 X-1.6091 Y0.1316  
G01 X-1.6066 Y0.1306  
G01 X-1.6040 Y0.1299  
G01 X-1.6013 Y0.1295  
G01 X-1.6000 Y0.1295  
G01 X-1.1400 Y0.1295  
G01 X-1.1387 Y0.1295  
G01 X-1.1360 Y0.1299  
G01 X-1.1334 Y0.1306  
G01 X-1.1309 Y0.1316  
G01 X-1.1286 Y0.1330  
G01 X-1.1265 Y0.1346  
G01 X-1.1246 Y0.1365  
G01 X-1.1230 Y0.1386  
G01 X-1.1216 Y0.1409  
G01 X-1.1206 Y0.1434  
G01 X-1.1199 Y0.1460  
G01 X-1.1195 Y0.1487  
G01 X-1.1195 Y0.1500  
G01 X-1.1195 Y0.2052  
G01 X-1.1181 Y0.2155  
G01 X-1.1154 Y0.2256  
G01 X-1.1115 Y0.2352  
G01 X-1.1062 Y0.2443  
G01 X-1.0999 Y0.2525  
G01 X-1.0925 Y0.2599  
G01 X-1.0843 Y0.2662  
G01 X-1.0752 Y0.2715  
G01 X-1.0656 Y0.2754  
G01 X-1.0555 Y0.2781  
G01 X-1.0452 Y0.2795  
G01 X-0.5100 Y0.2795  
G01 X-0.5087 Y0.2795  
G01 X-0.5060 Y0.2799  
G01 X-0.5034 Y0.2806  
G01 X-0.5009 Y0.2816  
G01 X-0.4986 Y0.2830  
G01 X-0.4965 Y0.2846  
G01 X-0.4946 Y0.2865  
G01 X-0.4930 Y0.2886  
G01 X-0.4916 Y0.2909  
G01 X-0.4906 Y0.2934  
G01 X-0.4899 Y0.2960  
G01 X-0.4895 Y0.2987  
G01 X-0.4895 Y0.3000  
G01 X-0.4895 Y0.6652  
G01 X-0.4881 Y0.6755  
G01 X-0.4854 Y0.6856  
G01 X-0.4815 Y0.6952  
G01 X-0.4762 Y0.7043  
G01 X-0.4699 Y0.7125  
G01 X-0.4625 Y0.7199  
G01 X-0.4543 Y0.7262  
G01 X-0.4452 Y0.7315  
G01 X-0.4356 Y0.7354  
G01 X-0.4255 Y0.7381  
G01 X-0.4152 Y0.7395  
G01 X-0.3098 Y0.7395  
G01 X-0.3064 Y0.7441  
G01 X-0.3008 Y0.7497  
G01 X-0.2945 Y0.7543  
G01 X-0.2874 Y0.7579  
G01 X-0.2800 Y0.7603  
G01 X-0.2722 Y0.7616  
G01 X-0.1278 Y0.7616  
G01 X-0.1200 Y0.7603  
G01 X-0.1126 Y0.7579  
G01 X-0.1055 Y0.7543  
G01 X-0.0992 Y0.7497  
G01 X-0.0936 Y0.7441  
G01 X-0.0890 Y0.7378  
G01 X-0.0854 Y0.7308  
G01 X-0.0830 Y0.7233  
G01 X-0.0818 Y0.7155  
G01 X-0.0818 Y0.7076  
G01 X-0.0830 Y0.6999  
G01 X-0.0854 Y0.6924  
G01 X-0.0890 Y0.6854  
G01 X-0.0936 Y0.6790  
G01 X-0.0992 Y0.6734  
G01 X-0.1055 Y0.6688  
G01 X-0.1126 Y0.6652  
G01 X-0.1200 Y0.6628  
G01 X-0.1278 Y0.6616  
G01 X-0.2722 Y0.6616  
G01 X-0.2800 Y0.6628  
G01 X-0.2874 Y0.6652  
G01 X-0.2945 Y0.6688  
G01 X-0.3008 Y0.6734  
G01 X-0.3064 Y0.6790  
G01 X-0.3075 Y0.6805  
G01 X-0.4100 Y0.6805  
G01 X-0.4113 Y0.6805  
G01 X-0.4140 Y0.6801  
G01 X-0.4166 Y0.6794  
G01 X-0.4191 Y0.6784  
G01 X-0.4214 Y0.6770  
G01 X-0.4235 Y0.6754  
G01 X-0.4254 Y0.6735  
G01 X-0.4270 Y0.6714  
G01 X-0.4284 Y0.6691  
G01 X-0.4294 Y0.6666  
G01 X-0.4301 Y0.6640  
G01 X-0.4305 Y0.6613  
G01 X-0.4305 Y0.6600  
G01 X-0.4305 Y0.2948  
G01 X-0.4319 Y0.2845  
G01 X-0.4346 Y0.2744  
G01 X-0.4385 Y0.2648  
G01 X-0.4438 Y0.2557  
G01 X-0.4501 Y0.2475  
G01 X-0.4575 Y0.2401  
G01 X-0.4657 Y0.2338  
G01 X-0.4748 Y0.2285  
G01 X-0.4844 Y0.2246  
G01 X-0.4945 Y0.2219  
G01 X-0.5048 Y0.2205  
G01 X-1.0400 Y0.2205  
G01 X-1.0413 Y0.2205  
G01 X-1.0440 Y0.2201  
G01 X-1.0466 Y0.2194  
G01 X-1.0491 Y0.2184  
G01 X-1.0514 Y0.2170  
G01 X-1.0535 Y0.2154  
G01 X-1.0554 Y0.2135  
G01 X-1.0570 Y0.2114  
G01 X-1.0584 Y0.2091  
G01 X-1.0594 Y0.2066  
G01 X-1.0601 Y0.2040  
G01 X-1.0605 Y0.2013  
G01 X-1.0605 Y0.2000  
G01 X-1.0605 Y0.1448  
G01 X-1.0619 Y0.1345  
G01 X-1.0646 Y0.1244  
G01 X-1.0685 Y0.1148  
G01 X-1.0738 Y0.1057  
G01 X-1.0801 Y0.0975  
G01 X-1.0875 Y0.0901  
G01 X-1.0957 Y0.0838  
G01 X-1.1048 Y0.0785  
G01 X-1.1144 Y0.0746  
G01 X-1.1245 Y0.0719  
G01 X-1.1348 Y0.0705  
G01 X-1.6052 Y0.0705  
G01 X-1.6155 Y0.0719  
G01 X-1.6256 Y0.0746  
G01 X-1.6352 Y0.0785  
G01 X-1.6443 Y0.0838  
G01 X-1.6525 Y0.0901  
G01 X-1.6599 Y0.0975  
G01 X-1.6662 Y0.1057  
G01 X-1.6715 Y0.1148  
G01 X-1.6754 Y0.1244  
G01 X-1.6781 Y0.1345  
G01 X-1.6795 Y0.1448  
G01 X-1.6795 Y0.8652  
G01 X-1.6781 Y0.8755  
G01 X-1.6754 Y0.8856  
G01 X-1.6715 Y0.8952  
G01 X-1.6662 Y0.9043  
G01 X-1.6599 Y0.9125  
G01 X-1.6525 Y0.9199  
G01 X-1.6443 Y0.9262  
G01 X-1.6352 Y0.9315  
G01 X-1.6256 Y0.9354  
G01 X-1.6155 Y0.9381  
G01 X-1.6052 Y0.9395  
G01 X-1.3376 Y0.9395  
G01 X-1.3347 Y0.9424  
G01 X-1.3293 Y0.9463  
G01 X-1.3233 Y0.9494  
G01 X-1.3170 Y0.9515  
G01 X-1.3103 Y0.9525  
G00 Z0.1000  
G00 X-1.3103 Y1.2525  
G01 Z-0.0070 F10    
G01 X-1.1897 Y1.2525  F20    
G01 X-1.1830 Y1.2515  
G01 X-1.1767 Y1.2494  
G01 X-1.1707 Y1.2463  
G01 X-1.1653 Y1.2424  
G01 X-1.1606 Y1.2377  
G01 X-1.1567 Y1.2323  
G01 X-1.1536 Y1.2263  
G01 X-1.1515 Y1.2200  
G01 X-1.1505 Y1.2133  
G01 X-1.1505 Y1.2067  
G01 X-1.1515 Y1.2000  
G01 X-1.1536 Y1.1937  
G01 X-1.1567 Y1.1877  
G01 X-1.1606 Y1.1823  
G01 X-1.1653 Y1.1776  
G01 X-1.1707 Y1.1737  
G01 X-1.1767 Y1.1706  
G01 X-1.1830 Y1.1685  
G01 X-1.1897 Y1.1675  
G01 X-1.3103 Y1.1675  
G01 X-1.3170 Y1.1685  
G01 X-1.3233 Y1.1706  
G01 X-1.3293 Y1.1737  
G01 X-1.3347 Y1.1776  
G01 X-1.3394 Y1.1823  
G01 X-1.3433 Y1.1877  
G01 X-1.3464 Y1.1937  
G01 X-1.3485 Y1.2000  
G01 X-1.3495 Y1.2067  
G01 X-1.3495 Y1.2133  
G01 X-1.3485 Y1.2200  
G01 X-1.3464 Y1.2263  
G01 X-1.3433 Y1.2323  
G01 X-1.3394 Y1.2377  
G01 X-1.3347 Y1.2424  
G01 X-1.3293 Y1.2463  
G01 X-1.3233 Y1.2494  
G01 X-1.3170 Y1.2515  
G01 X-1.3103 Y1.2525  
G00 Z0.1000  
G00 X-1.3103 Y1.3525  
G01 Z-0.0070 F10    
G01 X-1.1897 Y1.3525  F20    
G01 X-1.1830 Y1.3515  
G01 X-1.1767 Y1.3494  
G01 X-1.1707 Y1.3463  
G01 X-1.1653 Y1.3424  
G01 X-1.1606 Y1.3377  
G01 X-1.1567 Y1.3323  
G01 X-1.1536 Y1.3263  
G01 X-1.1515 Y1.3200  
G01 X-1.1505 Y1.3133  
G01 X-1.1505 Y1.3067  
G01 X-1.1515 Y1.3000  
G01 X-1.1536 Y1.2937  
G01 X-1.1567 Y1.2877  
G01 X-1.1606 Y1.2823  
G01 X-1.1653 Y1.2776  
G01 X-1.1707 Y1.2737  
G01 X-1.1767 Y1.2706  
G01 X-1.1830 Y1.2685  
G01 X-1.1897 Y1.2675  
G01 X-1.3103 Y1.2675  
G01 X-1.3170 Y1.2685  
G01 X-1.3233 Y1.2706  
G01 X-1.3293 Y1.2737  
G01 X-1.3347 Y1.2776  
G01 X-1.3394 Y1.2823  
G01 X-1.3433 Y1.2877  
G01 X-1.3464 Y1.2937  
G01 X-1.3485 Y1.3000  
G01 X-1.3495 Y1.3067  
G01 X-1.3495 Y1.3133  
G01 X-1.3485 Y1.3200  
G01 X-1.3464 Y1.3263  
G01 X-1.3433 Y1.3323  
G01 X-1.3394 Y1.3377  
G01 X-1.3347 Y1.3424  
G01 X-1.3293 Y1.3463  
G01 X-1.3233 Y1.3494  
G01 X-1.3170 Y1.3515  
G01 X-1.3103 Y1.3525  
G00 Z0.1000  
G00 X-0.2722 Y1.3584  
G01 Z-0.0070 F10    
G01 X-0.1278 Y1.3584  F20    
G01 X-0.1200 Y1.3572  
G01 X-0.1126 Y1.3548  
G01 X-0.1055 Y1.3512  
G01 X-0.0992 Y1.3466  
G01 X-0.0936 Y1.3410  
G01 X-0.0890 Y1.3346  
G01 X-0.0854 Y1.3276  
G01 X-0.0830 Y1.3201  
G01 X-0.0818 Y1.3124  
G01 X-0.0818 Y1.3045  
G01 X-0.0830 Y1.2967  
G01 X-0.0854 Y1.2892  
G01 X-0.0890 Y1.2822  
G01 X-0.0936 Y1.2759  
G01 X-0.0992 Y1.2703  
G01 X-0.1055 Y1.2657  
G01 X-0.1126 Y1.2621  
G01 X-0.1200 Y1.2597  
G01 X-0.1278 Y1.2584  
G01 X-0.2722 Y1.2584  
G01 X-0.2800 Y1.2597  
G01 X-0.2874 Y1.2621  
G01 X-0.2945 Y1.2657  
G01 X-0.3008 Y1.2703  
G01 X-0.3064 Y1.2759  
G01 X-0.3086 Y1.2789  
G01 X-0.4952 Y1.2789  
G01 X-0.5055 Y1.2803  
G01 X-0.5156 Y1.2830  
G01 X-0.5252 Y1.2870  
G01 X-0.5343 Y1.2922  
G01 X-0.5425 Y1.2985  
G01 X-0.5499 Y1.3059  
G01 X-0.5562 Y1.3142  
G01 X-0.5615 Y1.3232  
G01 X-0.5654 Y1.3328  
G01 X-0.5681 Y1.3429  
G01 X-0.5695 Y1.3532  
G01 X-0.5695 Y1.3600  
G01 X-0.5695 Y1.3613  
G01 X-0.5699 Y1.3640  
G01 X-0.5706 Y1.3666  
G01 X-0.5716 Y1.3691  
G01 X-0.5730 Y1.3714  
G01 X-0.5746 Y1.3735  
G01 X-0.5765 Y1.3754  
G01 X-0.5786 Y1.3770  
G01 X-0.5809 Y1.3784  
G01 X-0.5834 Y1.3794  
G01 X-0.5860 Y1.3801  
G01 X-0.5887 Y1.3805  
G01 X-0.5900 Y1.3805  
G01 X-0.8624 Y1.3805  
G01 X-0.8653 Y1.3776  
G01 X-0.8707 Y1.3737  
G01 X-0.8767 Y1.3706  
G01 X-0.8830 Y1.3685  
G01 X-0.8897 Y1.3675  
G01 X-1.0103 Y1.3675  
G01 X-1.0170 Y1.3685  
G01 X-1.0233 Y1.3706  
G01 X-1.0293 Y1.3737  
G01 X-1.0347 Y1.3776  
G01 X-1.0394 Y1.3823  
G01 X-1.0433 Y1.3877  
G01 X-1.0464 Y1.3937  
G01 X-1.0485 Y1.4000  
G01 X-1.0495 Y1.4067  
G01 X-1.0495 Y1.4133  
G01 X-1.0485 Y1.4200  
G01 X-1.0464 Y1.4263  
G01 X-1.0433 Y1.4323  
G01 X-1.0394 Y1.4377  
G01 X-1.0347 Y1.4424  
G01 X-1.0293 Y1.4463  
G01 X-1.0233 Y1.4494  
G01 X-1.0170 Y1.4515  
G01 X-1.0103 Y1.4525  
G01 X-0.8897 Y1.4525  
G01 X-0.8830 Y1.4515  
G01 X-0.8767 Y1.4494  
G01 X-0.8707 Y1.4463  
G01 X-0.8653 Y1.4424  
G01 X-0.8624 Y1.4395  
G01 X-0.5848 Y1.4395  
G01 X-0.5745 Y1.4381  
G01 X-0.5644 Y1.4354  
G01 X-0.5548 Y1.4315  
G01 X-0.5457 Y1.4262  
G01 X-0.5375 Y1.4199  
G01 X-0.5301 Y1.4125  
G01 X-0.5238 Y1.4043  
G01 X-0.5185 Y1.3952  
G01 X-0.5146 Y1.3856  
G01 X-0.5119 Y1.3755  
G01 X-0.5105 Y1.3652  
G01 X-0.5105 Y1.3584  
G01 X-0.5105 Y1.3571  
G01 X-0.5101 Y1.3544  
G01 X-0.5094 Y1.3518  
G01 X-0.5084 Y1.3494  
G01 X-0.5070 Y1.3470  
G01 X-0.5054 Y1.3449  
G01 X-0.5035 Y1.3430  
G01 X-0.5014 Y1.3414  
G01 X-0.4991 Y1.3400  
G01 X-0.4966 Y1.3390  
G01 X-0.4940 Y1.3383  
G01 X-0.4913 Y1.3380  
G01 X-0.4900 Y1.3379  
G01 X-0.3086 Y1.3379  
G01 X-0.3064 Y1.3410  
G01 X-0.3008 Y1.3466  
G01 X-0.2945 Y1.3512  
G01 X-0.2874 Y1.3548  
G01 X-0.2800 Y1.3572  
G01 X-0.2722 Y1.3584  
G00 Z0.1000  
G00 X-0.2722 Y0.9584  
G01 Z-0.0070 F10    
G01 X-0.1278 Y0.9584  F20    
G01 X-0.1200 Y0.9572  
G01 X-0.1126 Y0.9548  
G01 X-0.1055 Y0.9512  
G01 X-0.0992 Y0.9466  
G01 X-0.0936 Y0.9410  
G01 X-0.0890 Y0.9346  
G01 X-0.0854 Y0.9276  
G01 X-0.0830 Y0.9201  
G01 X-0.0818 Y0.9124  
G01 X-0.0818 Y0.9045  
G01 X-0.0830 Y0.8967  
G01 X-0.0854 Y0.8892  
G01 X-0.0890 Y0.8822  
G01 X-0.0936 Y0.8759  
G01 X-0.0992 Y0.8703  
G01 X-0.1055 Y0.8657  
G01 X-0.1126 Y0.8621  
G01 X-0.1200 Y0.8597  
G01 X-0.1278 Y0.8584  
G01 X-0.2722 Y0.8584  
G01 X-0.2800 Y0.8597  
G01 X-0.2874 Y0.8621  
G01 X-0.2945 Y0.8657  
G01 X-0.3008 Y0.8703  
G01 X-0.3064 Y0.8759  
G01 X-0.3098 Y0.8805  
G01 X-0.3950 Y0.8805  
G01 X-0.4048 Y0.8819  
G01 X-0.4143 Y0.8847  
G01 X-0.4234 Y0.8888  
G01 X-0.4318 Y0.8942  
G01 X-0.4393 Y0.9007  
G01 X-0.4458 Y0.9082  
G01 X-0.4512 Y0.9166  
G01 X-0.4553 Y0.9257  
G01 X-0.4581 Y0.9352  
G01 X-0.4595 Y0.9450  
G01 X-0.4595 Y0.9600  
G01 X-0.4595 Y0.9613  
G01 X-0.4599 Y0.9640  
G01 X-0.4606 Y0.9666  
G01 X-0.4616 Y0.9691  
G01 X-0.4630 Y0.9714  
G01 X-0.4646 Y0.9735  
G01 X-0.4665 Y0.9754  
G01 X-0.4686 Y0.9770  
G01 X-0.4709 Y0.9784  
G01 X-0.4734 Y0.9794  
G01 X-0.4760 Y0.9801  
G01 X-0.4787 Y0.9805  
G01 X-0.4800 Y0.9805  
G01 X-0.8624 Y0.9805  
G01 X-0.8653 Y0.9776  
G01 X-0.8707 Y0.9737  
G01 X-0.8767 Y0.9706  
G01 X-0.8830 Y0.9685  
G01 X-0.8897 Y0.9675  
G01 X-1.0103 Y0.9675  
G01 X-1.0170 Y0.9685  
G01 X-1.0233 Y0.9706  
G01 X-1.0293 Y0.9737  
G01 X-1.0347 Y0.9776  
G01 X-1.0394 Y0.9823  
G01 X-1.0433 Y0.9877  
G01 X-1.0464 Y0.9937  
G01 X-1.0485 Y1.0000  
G01 X-1.0495 Y1.0067  
G01 X-1.0495 Y1.0133  
G01 X-1.0485 Y1.0200  
G01 X-1.0464 Y1.0263  
G01 X-1.0433 Y1.0323  
G01 X-1.0394 Y1.0377  
G01 X-1.0347 Y1.0424  
G01 X-1.0293 Y1.0463  
G01 X-1.0233 Y1.0494  
G01 X-1.0170 Y1.0515  
G01 X-1.0103 Y1.0525  
G01 X-0.8897 Y1.0525  
G01 X-0.8830 Y1.0515  
G01 X-0.8767 Y1.0494  
G01 X-0.8707 Y1.0463  
G01 X-0.8653 Y1.0424  
G01 X-0.8624 Y1.0395  
G01 X-0.4748 Y1.0395  
G01 X-0.4645 Y1.0381  
G01 X-0.4544 Y1.0354  
G01 X-0.4448 Y1.0315  
G01 X-0.4357 Y1.0262  
G01 X-0.4275 Y1.0199  
G01 X-0.4201 Y1.0125  
G01 X-0.4138 Y1.0043  
G01 X-0.4085 Y0.9952  
G01 X-0.4046 Y0.9856  
G01 X-0.4019 Y0.9755  
G01 X-0.4005 Y0.9652  
G01 X-0.4005 Y0.9500  
G01 X-0.4005 Y0.9493  
G01 X-0.4003 Y0.9478  
G01 X-0.3998 Y0.9463  
G01 X-0.3992 Y0.9450  
G01 X-0.3984 Y0.9437  
G01 X-0.3974 Y0.9426  
G01 X-0.3963 Y0.9416  
G01 X-0.3950 Y0.9408  
G01 X-0.3937 Y0.9402  
G01 X-0.3922 Y0.9397  
G01 X-0.3907 Y0.9395  
G01 X-0.3900 Y0.9395  
G01 X-0.3075 Y0.9395  
G01 X-0.3064 Y0.9410  
G01 X-0.3008 Y0.9466  
G01 X-0.2945 Y0.9512  
G01 X-0.2874 Y0.9548  
G01 X-0.2800 Y0.9572  
G01 X-0.2722 Y0.9584  
G00 Z0.1000  
G00 X-2.8478 Y0.5016  
G01 Z-0.0070 F10    
G01 X-2.9922 Y0.5016  F20    
G01 X-3.0000 Y0.5028  
G01 X-3.0074 Y0.5052  
G01 X-3.0145 Y0.5088  
G01 X-3.0208 Y0.5134  
G01 X-3.0264 Y0.5190  
G01 X-3.0310 Y0.5254  
G01 X-3.0346 Y0.5324  
G01 X-3.0370 Y0.5399  
G01 X-3.0382 Y0.5476  
G01 X-3.0382 Y0.5555  
G01 X-3.0370 Y0.5633  
G01 X-3.0346 Y0.5708  
G01 X-3.0310 Y0.5778  
G01 X-3.0264 Y0.5841  
G01 X-3.0208 Y0.5897  
G01 X-3.0145 Y0.5943  
G01 X-3.0074 Y0.5979  
G01 X-3.0000 Y0.6003  
G01 X-2.9922 Y0.6016  
G01 X-2.8478 Y0.6016  
G01 X-2.8400 Y0.6003  
G01 X-2.8326 Y0.5979  
G01 X-2.8255 Y0.5943  
G01 X-2.8192 Y0.5897  
G01 X-2.8136 Y0.5841  
G01 X-2.8102 Y0.5795  
G01 X-2.2700 Y0.5795  
G01 X-2.2693 Y0.5795  
G01 X-2.2678 Y0.5797  
G01 X-2.2663 Y0.5802  
G01 X-2.2650 Y0.5808  
G01 X-2.2637 Y0.5816  
G01 X-2.2626 Y0.5826  
G01 X-2.2616 Y0.5837  
G01 X-2.2608 Y0.5850  
G01 X-2.2602 Y0.5863  
G01 X-2.2597 Y0.5878  
G01 X-2.2595 Y0.5893  
G01 X-2.2595 Y0.5900  
G01 X-2.2595 Y0.7150  
G01 X-2.2581 Y0.7248  
G01 X-2.2553 Y0.7343  
G01 X-2.2512 Y0.7434  
G01 X-2.2458 Y0.7518  
G01 X-2.2393 Y0.7593  
G01 X-2.2318 Y0.7658  
G01 X-2.2234 Y0.7712  
G01 X-2.2143 Y0.7753  
G01 X-2.2048 Y0.7781  
G01 X-2.1950 Y0.7795  
G01 X-1.7800 Y0.7795  
G01 X-1.7787 Y0.7795  
G01 X-1.7760 Y0.7799  
G01 X-1.7734 Y0.7806  
G01 X-1.7709 Y0.7816  
G01 X-1.7686 Y0.7830  
G01 X-1.7665 Y0.7846  
G01 X-1.7646 Y0.7865  
G01 X-1.7630 Y0.7886  
G01 X-1.7616 Y0.7909  
G01 X-1.7606 Y0.7934  
G01 X-1.7599 Y0.7960  
G01 X-1.7595 Y0.7987  
G01 X-1.7595 Y0.8000  
G01 X-1.7595 Y0.9750  
G01 X-1.7581 Y0.9848  
G01 X-1.7553 Y0.9943  
G01 X-1.7512 Y1.0034  
G01 X-1.7458 Y1.0118  
G01 X-1.7393 Y1.0193  
G01 X-1.7318 Y1.0258  
G01 X-1.7234 Y1.0312  
G01 X-1.7143 Y1.0353  
G01 X-1.7048 Y1.0381  
G01 X-1.6950 Y1.0395  
G01 X-1.3376 Y1.0395  
G01 X-1.3347 Y1.0424  
G01 X-1.3293 Y1.0463  
G01 X-1.3233 Y1.0494  
G01 X-1.3170 Y1.0515  
G01 X-1.3103 Y1.0525  
G01 X-1.1897 Y1.0525  
G01 X-1.1830 Y1.0515  
G01 X-1.1767 Y1.0494  
G01 X-1.1707 Y1.0463  
G01 X-1.1653 Y1.0424  
G01 X-1.1606 Y1.0377  
G01 X-1.1567 Y1.0323  
G01 X-1.1536 Y1.0263  
G01 X-1.1515 Y1.0200  
G01 X-1.1505 Y1.0133  
G01 X-1.1505 Y1.0067  
G01 X-1.1515 Y1.0000  
G01 X-1.1536 Y0.9937  
G01 X-1.1567 Y0.9877  
G01 X-1.1606 Y0.9823  
G01 X-1.1653 Y0.9776  
G01 X-1.1707 Y0.9737  
G01 X-1.1767 Y0.9706  
G01 X-1.1830 Y0.9685  
G01 X-1.1897 Y0.9675  
G01 X-1.3103 Y0.9675  
G01 X-1.3170 Y0.9685  
G01 X-1.3233 Y0.9706  
G01 X-1.3293 Y0.9737  
G01 X-1.3347 Y0.9776  
G01 X-1.3376 Y0.9805  
G01 X-1.6900 Y0.9805  
G01 X-1.6907 Y0.9805  
G01 X-1.6922 Y0.9803  
G01 X-1.6937 Y0.9798  
G01 X-1.6950 Y0.9792  
G01 X-1.6963 Y0.9784  
G01 X-1.6974 Y0.9774  
G01 X-1.6984 Y0.9763  
G01 X-1.6992 Y0.9750  
G01 X-1.6998 Y0.9737  
G01 X-1.7003 Y0.9722  
G01 X-1.7005 Y0.9707  
G01 X-1.7005 Y0.9700  
G01 X-1.7005 Y0.7948  
G01 X-1.7019 Y0.7845  
G01 X-1.7046 Y0.7744  
G01 X-1.7085 Y0.7648  
G01 X-1.7138 Y0.7557  
G01 X-1.7201 Y0.7475  
G01 X-1.7275 Y0.7401  
G01 X-1.7357 Y0.7338  
G01 X-1.7448 Y0.7285  
G01 X-1.7544 Y0.7246  
G01 X-1.7645 Y0.7219  
G01 X-1.7748 Y0.7205  
G01 X-2.1900 Y0.7205  
G01 X-2.1907 Y0.7205  
G01 X-2.1922 Y0.7203  
G01 X-2.1937 Y0.7198  
G01 X-2.1950 Y0.7192  
G01 X-2.1963 Y0.7184  
G01 X-2.1974 Y0.7174  
G01 X-2.1984 Y0.7163  
G01 X-2.1992 Y0.7150  
G01 X-2.1998 Y0.7137  
G01 X-2.2003 Y0.7122  
G01 X-2.2005 Y0.7107  
G01 X-2.2005 Y0.7100  
G01 X-2.2005 Y0.5850  
G01 X-2.2019 Y0.5752  
G01 X-2.2047 Y0.5657  
G01 X-2.2088 Y0.5566  
G01 X-2.2142 Y0.5482  
G01 X-2.2207 Y0.5407  
G01 X-2.2282 Y0.5342  
G01 X-2.2366 Y0.5288  
G01 X-2.2457 Y0.5247  
G01 X-2.2552 Y0.5219  
G01 X-2.2650 Y0.5205  
G01 X-2.8125 Y0.5205  
G01 X-2.8136 Y0.5190  
G01 X-2.8192 Y0.5134  
G01 X-2.8255 Y0.5088  
G01 X-2.8326 Y0.5052  
G01 X-2.8400 Y0.5028  
G01 X-2.8478 Y0.5016  
G00 Z0.1000  
G00 X-0.2722 Y1.6416  
G01 Z-0.0070 F10    
G01 X-0.1278 Y1.6416  F20    
G01 X-0.1200 Y1.6403  
G01 X-0.1126 Y1.6379  
G01 X-0.1055 Y1.6343  
G01 X-0.0992 Y1.6297  
G01 X-0.0936 Y1.6241  
G01 X-0.0890 Y1.6178  
G01 X-0.0854 Y1.6108  
G01 X-0.0830 Y1.6033  
G01 X-0.0818 Y1.5955  
G01 X-0.0818 Y1.5876  
G01 X-0.0830 Y1.5799  
G01 X-0.0854 Y1.5724  
G01 X-0.0890 Y1.5654  
G01 X-0.0936 Y1.5590  
G01 X-0.0992 Y1.5534  
G01 X-0.1055 Y1.5488  
G01 X-0.1126 Y1.5452  
G01 X-0.1200 Y1.5428  
G01 X-0.1278 Y1.5416  
G01 X-0.2722 Y1.5416  
G01 X-0.2800 Y1.5428  
G01 X-0.2874 Y1.5452  
G01 X-0.2945 Y1.5488  
G01 X-0.3008 Y1.5534  
G01 X-0.3064 Y1.5590  
G01 X-0.3110 Y1.5654  
G01 X-0.3136 Y1.5705  
G01 X-0.5752 Y1.5705  
G01 X-0.5855 Y1.5719  
G01 X-0.5956 Y1.5746  
G01 X-0.6052 Y1.5785  
G01 X-0.6143 Y1.5838  
G01 X-0.6225 Y1.5901  
G01 X-0.6299 Y1.5975  
G01 X-0.6362 Y1.6057  
G01 X-0.6415 Y1.6148  
G01 X-0.6454 Y1.6244  
G01 X-0.6481 Y1.6345  
G01 X-0.6495 Y1.6448  
G01 X-0.6495 Y1.7200  
G01 X-0.6495 Y1.7207  
G01 X-0.6497 Y1.7222  
G01 X-0.6502 Y1.7237  
G01 X-0.6508 Y1.7250  
G01 X-0.6516 Y1.7263  
G01 X-0.6526 Y1.7274  
G01 X-0.6537 Y1.7284  
G01 X-0.6550 Y1.7292  
G01 X-0.6563 Y1.7298  
G01 X-0.6578 Y1.7303  
G01 X-0.6593 Y1.7305  
G01 X-0.6600 Y1.7305  
G01 X-1.3152 Y1.7305  
G01 X-1.3255 Y1.7319  
G01 X-1.3356 Y1.7346  
G01 X-1.3452 Y1.7385  
G01 X-1.3543 Y1.7438  
G01 X-1.3625 Y1.7501  
G01 X-1.3699 Y1.7575  
G01 X-1.3762 Y1.7657  
G01 X-1.3815 Y1.7748  
G01 X-1.3854 Y1.7844  
G01 X-1.3881 Y1.7945  
G01 X-1.3895 Y1.8048  
G01 X-1.3895 Y1.8230  
G01 X-1.4070 Y1.8405  
G01 X-1.4070 Y1.8795  
G01 X-1.3895 Y1.8970  
G01 X-1.3895 Y1.9600  
G01 X-1.3895 Y1.9613  
G01 X-1.3899 Y1.9640  
G01 X-1.3906 Y1.9666  
G01 X-1.3916 Y1.9691  
G01 X-1.3930 Y1.9714  
G01 X-1.3946 Y1.9735  
G01 X-1.3965 Y1.9754  
G01 X-1.3986 Y1.9770  
G01 X-1.4009 Y1.9784  
G01 X-1.4034 Y1.9794  
G01 X-1.4060 Y1.9801  
G01 X-1.4087 Y1.9805  
G01 X-1.4100 Y1.9805  
G01 X-1.5700 Y1.9805  
G01 X-1.5713 Y1.9805  
G01 X-1.5740 Y1.9801  
G01 X-1.5766 Y1.9794  
G01 X-1.5791 Y1.9784  
G01 X-1.5814 Y1.9770  
G01 X-1.5835 Y1.9754  
G01 X-1.5854 Y1.9735  
G01 X-1.5870 Y1.9714  
G01 X-1.5884 Y1.9691  
G01 X-1.5894 Y1.9666  
G01 X-1.5901 Y1.9640  
G01 X-1.5905 Y1.9613  
G01 X-1.5905 Y1.9600  
G01 X-1.5905 Y1.6300  
G01 X-1.5905 Y1.6287  
G01 X-1.5901 Y1.6260  
G01 X-1.5894 Y1.6234  
G01 X-1.5884 Y1.6209  
G01 X-1.5870 Y1.6186  
G01 X-1.5854 Y1.6165  
G01 X-1.5835 Y1.6146  
G01 X-1.5814 Y1.6130  
G01 X-1.5791 Y1.6116  
G01 X-1.5766 Y1.6106  
G01 X-1.5740 Y1.6099  
G01 X-1.5713 Y1.6095  
G01 X-1.5700 Y1.6095  
G01 X-1.1448 Y1.6095  
G01 X-1.1345 Y1.6081  
G01 X-1.1244 Y1.6054  
G01 X-1.1148 Y1.6015  
G01 X-1.1057 Y1.5962  
G01 X-1.0975 Y1.5899  
G01 X-1.0901 Y1.5825  
G01 X-1.0838 Y1.5743  
G01 X-1.0785 Y1.5652  
G01 X-1.0746 Y1.5556  
G01 X-1.0719 Y1.5455  
G01 X-1.0705 Y1.5352  
G01 X-1.0705 Y0.8600  
G01 X-1.0705 Y0.8587  
G01 X-1.0701 Y0.8560  
G01 X-1.0694 Y0.8534  
G01 X-1.0684 Y0.8509  
G01 X-1.0670 Y0.8486  
G01 X-1.0654 Y0.8465  
G01 X-1.0635 Y0.8446  
G01 X-1.0614 Y0.8430  
G01 X-1.0591 Y0.8416  
G01 X-1.0566 Y0.8406  
G01 X-1.0540 Y0.8399  
G01 X-1.0513 Y0.8395  
G01 X-1.0500 Y0.8395  
G01 X-1.0376 Y0.8395  
G01 X-1.0347 Y0.8424  
G01 X-1.0293 Y0.8463  
G01 X-1.0233 Y0.8494  
G01 X-1.0170 Y0.8515  
G01 X-1.0103 Y0.8525  
G01 X-0.8897 Y0.8525  
G01 X-0.8830 Y0.8515  
G01 X-0.8767 Y0.8494  
G01 X-0.8707 Y0.8463  
G01 X-0.8653 Y0.8424  
G01 X-0.8606 Y0.8377  
G01 X-0.8567 Y0.8323  
G01 X-0.8536 Y0.8263  
G01 X-0.8515 Y0.8200  
G01 X-0.8505 Y0.8133  
G01 X-0.8505 Y0.8067  
G01 X-0.8515 Y0.8000  
G01 X-0.8536 Y0.7937  
G01 X-0.8567 Y0.7877  
G01 X-0.8606 Y0.7823  
G01 X-0.8653 Y0.7776  
G01 X-0.8707 Y0.7737  
G01 X-0.8767 Y0.7706  
G01 X-0.8830 Y0.7685  
G01 X-0.8897 Y0.7675  
G01 X-1.0103 Y0.7675  
G01 X-1.0170 Y0.7685  
G01 X-1.0233 Y0.7706  
G01 X-1.0293 Y0.7737  
G01 X-1.0347 Y0.7776  
G01 X-1.0376 Y0.7805  
G01 X-1.0552 Y0.7805  
G01 X-1.0655 Y0.7819  
G01 X-1.0756 Y0.7846  
G01 X-1.0852 Y0.7885  
G01 X-1.0943 Y0.7938  
G01 X-1.1025 Y0.8001  
G01 X-1.1099 Y0.8075  
G01 X-1.1162 Y0.8157  
G01 X-1.1215 Y0.8248  
G01 X-1.1254 Y0.8344  
G01 X-1.1281 Y0.8445  
G01 X-1.1295 Y0.8548  
G01 X-1.1295 Y1.5300  
G01 X-1.1295 Y1.5313  
G01 X-1.1299 Y1.5340  
G01 X-1.1306 Y1.5366  
G01 X-1.1316 Y1.5391  
G01 X-1.1330 Y1.5414  
G01 X-1.1346 Y1.5435  
G01 X-1.1365 Y1.5454  
G01 X-1.1386 Y1.5470  
G01 X-1.1409 Y1.5484  
G01 X-1.1434 Y1.5494  
G01 X-1.1460 Y1.5501  
G01 X-1.1487 Y1.5505  
G01 X-1.1500 Y1.5505  
G01 X-1.5752 Y1.5505  
G01 X-1.5855 Y1.5519  
G01 X-1.5956 Y1.5546  
G01 X-1.6052 Y1.5585  
G01 X-1.6143 Y1.5638  
G01 X-1.6225 Y1.5701  
G01 X-1.6299 Y1.5775  
G01 X-1.6362 Y1.5857  
G01 X-1.6415 Y1.5948  
G01 X-1.6454 Y1.6044  
G01 X-1.6481 Y1.6145  
G01 X-1.6495 Y1.6248  
G01 X-1.6495 Y1.7605  
G01 X-1.9340 Y1.7605  
G01 X-1.9508 Y1.7437  
G01 X-1.9892 Y1.7437  
G01 X-2.0163 Y1.7708  
G01 X-2.0163 Y1.8092  
G01 X-1.9892 Y1.8363  
G01 X-1.9508 Y1.8363  
G01 X-1.9340 Y1.8195  
G01 X-1.6495 Y1.8195  
G01 X-1.6495 Y1.9652  
G01 X-1.6481 Y1.9755  
G01 X-1.6454 Y1.9856  
G01 X-1.6415 Y1.9952  
G01 X-1.6362 Y2.0043  
G01 X-1.6299 Y2.0125  
G01 X-1.6225 Y2.0199  
G01 X-1.6143 Y2.0262  
G01 X-1.6052 Y2.0315  
G01 X-1.5956 Y2.0354  
G01 X-1.5855 Y2.0381  
G01 X-1.5752 Y2.0395  
G01 X-1.4048 Y2.0395  
G01 X-1.3945 Y2.0381  
G01 X-1.3844 Y2.0354  
G01 X-1.3748 Y2.0315  
G01 X-1.3657 Y2.0262  
G01 X-1.3575 Y2.0199  
G01 X-1.3501 Y2.0125  
G01 X-1.3438 Y2.0043  
G01 X-1.3385 Y1.9952  
G01 X-1.3346 Y1.9856  
G01 X-1.3319 Y1.9755  
G01 X-1.3305 Y1.9652  
G01 X-1.3305 Y1.8970  
G01 X-1.3130 Y1.8795  
G01 X-1.3130 Y1.8405  
G01 X-1.3305 Y1.8230  
G01 X-1.3305 Y1.8100  
G01 X-1.3305 Y1.8087  
G01 X-1.3301 Y1.8060  
G01 X-1.3294 Y1.8034  
G01 X-1.3284 Y1.8009  
G01 X-1.3270 Y1.7986  
G01 X-1.3254 Y1.7965  
G01 X-1.3235 Y1.7946  
G01 X-1.3214 Y1.7930  
G01 X-1.3191 Y1.7916  
G01 X-1.3166 Y1.7906  
G01 X-1.3140 Y1.7899  
G01 X-1.3113 Y1.7895  
G01 X-1.3100 Y1.7895  
G01 X-0.6550 Y1.7895  
G01 X-0.6452 Y1.7881  
G01 X-0.6357 Y1.7853  
G01 X-0.6266 Y1.7812  
G01 X-0.6182 Y1.7758  
G01 X-0.6107 Y1.7693  
G01 X-0.6042 Y1.7618  
G01 X-0.5988 Y1.7534  
G01 X-0.5947 Y1.7443  
G01 X-0.5919 Y1.7348  
G01 X-0.5905 Y1.7250  
G01 X-0.5905 Y1.6500  
G01 X-0.5905 Y1.6487  
G01 X-0.5901 Y1.6460  
G01 X-0.5894 Y1.6434  
G01 X-0.5884 Y1.6409  
G01 X-0.5870 Y1.6386  
G01 X-0.5854 Y1.6365  
G01 X-0.5835 Y1.6346  
G01 X-0.5814 Y1.6330  
G01 X-0.5791 Y1.6316  
G01 X-0.5766 Y1.6306  
G01 X-0.5740 Y1.6299  
G01 X-0.5713 Y1.6295  
G01 X-0.5700 Y1.6295  
G01 X-0.3010 Y1.6295  
G01 X-0.3008 Y1.6297  
G01 X-0.2945 Y1.6343  
G01 X-0.2874 Y1.6379  
G01 X-0.2800 Y1.6403  
G01 X-0.2722 Y1.6416  
G00 Z0.1000  
G00 X-0.7376 Y1.3525  
G01 Z-0.0070 F10    
G01 X-0.7024 Y1.3525  F20    
G01 X-0.6775 Y1.3276  
G01 X-0.6775 Y1.2924  
G01 X-0.7024 Y1.2675  
G01 X-0.7376 Y1.2675  
G01 X-0.7506 Y1.2805  
G01 X-0.8624 Y1.2805  
G01 X-0.8653 Y1.2776  
G01 X-0.8707 Y1.2737  
G01 X-0.8767 Y1.2706  
G01 X-0.8830 Y1.2685  
G01 X-0.8897 Y1.2675  
G01 X-1.0103 Y1.2675  
G01 X-1.0170 Y1.2685  
G01 X-1.0233 Y1.2706  
G01 X-1.0293 Y1.2737  
G01 X-1.0347 Y1.2776  
G01 X-1.0394 Y1.2823  
G01 X-1.0433 Y1.2877  
G01 X-1.0464 Y1.2937  
G01 X-1.0485 Y1.3000  
G01 X-1.0495 Y1.3067  
G01 X-1.0495 Y1.3133  
G01 X-1.0485 Y1.3200  
G01 X-1.0464 Y1.3263  
G01 X-1.0433 Y1.3323  
G01 X-1.0394 Y1.3377  
G01 X-1.0347 Y1.3424  
G01 X-1.0293 Y1.3463  
G01 X-1.0233 Y1.3494  
G01 X-1.0170 Y1.3515  
G01 X-1.0103 Y1.3525  
G01 X-0.8897 Y1.3525  
G01 X-0.8830 Y1.3515  
G01 X-0.8767 Y1.3494  
G01 X-0.8707 Y1.3463  
G01 X-0.8653 Y1.3424  
G01 X-0.8624 Y1.3395  
G01 X-0.7506 Y1.3395  
G01 X-0.7376 Y1.3525  
G00 Z0.1000  
G00 X-0.8225 Y0.5224  
G01 Z-0.0070 F10    
G01 X-0.8225 Y0.5576  F20    
G01 X-0.8095 Y0.5706  
G01 X-0.8095 Y0.8600  
G01 X-0.8095 Y0.8613  
G01 X-0.8099 Y0.8640  
G01 X-0.8106 Y0.8666  
G01 X-0.8116 Y0.8691  
G01 X-0.8130 Y0.8714  
G01 X-0.8146 Y0.8735  
G01 X-0.8165 Y0.8754  
G01 X-0.8186 Y0.8770  
G01 X-0.8209 Y0.8784  
G01 X-0.8234 Y0.8794  
G01 X-0.8260 Y0.8801  
G01 X-0.8287 Y0.8805  
G01 X-0.8300 Y0.8805  
G01 X-0.8624 Y0.8805  
G01 X-0.8653 Y0.8776  
G01 X-0.8707 Y0.8737  
G01 X-0.8767 Y0.8706  
G01 X-0.8830 Y0.8685  
G01 X-0.8897 Y0.8675  
G01 X-1.0103 Y0.8675  
G01 X-1.0170 Y0.8685  
G01 X-1.0233 Y0.8706  
G01 X-1.0293 Y0.8737  
G01 X-1.0347 Y0.8776  
G01 X-1.0394 Y0.8823  
G01 X-1.0433 Y0.8877  
G01 X-1.0464 Y0.8937  
G01 X-1.0485 Y0.9000  
G01 X-1.0495 Y0.9067  
G01 X-1.0495 Y0.9133  
G01 X-1.0485 Y0.9200  
G01 X-1.0464 Y0.9263  
G01 X-1.0433 Y0.9323  
G01 X-1.0394 Y0.9377  
G01 X-1.0347 Y0.9424  
G01 X-1.0293 Y0.9463  
G01 X-1.0233 Y0.9494  
G01 X-1.0170 Y0.9515  
G01 X-1.0103 Y0.9525  
G01 X-0.8897 Y0.9525  
G01 X-0.8830 Y0.9515  
G01 X-0.8767 Y0.9494  
G01 X-0.8707 Y0.9463  
G01 X-0.8653 Y0.9424  
G01 X-0.8624 Y0.9395  
G01 X-0.8248 Y0.9395  
G01 X-0.8145 Y0.9381  
G01 X-0.8044 Y0.9354  
G01 X-0.7948 Y0.9315  
G01 X-0.7857 Y0.9262  
G01 X-0.7775 Y0.9199  
G01 X-0.7701 Y0.9125  
G01 X-0.7638 Y0.9043  
G01 X-0.7585 Y0.8952  
G01 X-0.7546 Y0.8856  
G01 X-0.7519 Y0.8755  
G01 X-0.7505 Y0.8652  
G01 X-0.7505 Y0.5706  
G01 X-0.7375 Y0.5576  
G01 X-0.7375 Y0.5224  
G01 X-0.7624 Y0.4975  
G01 X-0.7976 Y0.4975  
G01 X-0.8225 Y0.5224  
G00 Z0.1000  
G00 X-0.7976 Y0.3825  
G01 Z-0.0070 F10    
G01 X-0.7624 Y0.3825  F20    
G01 X-0.7375 Y0.3576  
G01 X-0.7375 Y0.3224  
G01 X-0.7624 Y0.2975  
G01 X-0.7976 Y0.2975  
G01 X-0.8106 Y0.3105  
G01 X-1.2805 Y0.3105  
G01 X-1.2805 Y0.2206  
G01 X-1.2775 Y0.2176  
G01 X-1.2775 Y0.1824  
G01 X-1.3024 Y0.1575  
G01 X-1.3376 Y0.1575  
G01 X-1.3625 Y0.1824  
G01 X-1.3625 Y0.2176  
G01 X-1.3395 Y0.2406  
G01 X-1.3395 Y0.3105  
G01 X-1.3815 Y0.3105  
G01 X-1.3830 Y0.3084  
G01 X-1.3884 Y0.3030  
G01 X-1.3946 Y0.2985  
G01 X-1.4014 Y0.2951  
G01 X-1.4086 Y0.2927  
G01 X-1.4162 Y0.2915  
G01 X-1.4238 Y0.2915  
G01 X-1.4314 Y0.2927  
G01 X-1.4386 Y0.2951  
G01 X-1.4454 Y0.2985  
G01 X-1.4516 Y0.3030  
G01 X-1.4570 Y0.3084  
G01 X-1.4615 Y0.3146  
G01 X-1.4649 Y0.3214  
G01 X-1.4673 Y0.3286  
G01 X-1.4685 Y0.3362  
G01 X-1.4685 Y0.3438  
G01 X-1.4673 Y0.3514  
G01 X-1.4649 Y0.3586  
G01 X-1.4615 Y0.3654  
G01 X-1.4570 Y0.3716  
G01 X-1.4516 Y0.3770  
G01 X-1.4454 Y0.3815  
G01 X-1.4386 Y0.3849  
G01 X-1.4314 Y0.3873  
G01 X-1.4238 Y0.3885  
G01 X-1.4162 Y0.3885  
G01 X-1.4086 Y0.3873  
G01 X-1.4014 Y0.3849  
G01 X-1.3946 Y0.3815  
G01 X-1.3884 Y0.3770  
G01 X-1.3830 Y0.3716  
G01 X-1.3815 Y0.3695  
G01 X-0.8106 Y0.3695  
G01 X-0.7976 Y0.3825  
G00 Z0.1000  
G00 X-2.6876 Y1.8625  
G01 Z-0.0070 F10    
G01 X-2.6524 Y1.8625  F20    
G01 X-2.6275 Y1.8376  
G01 X-2.6275 Y1.8024  
G01 X-2.6524 Y1.7775  
G01 X-2.6876 Y1.7775  
G01 X-2.7006 Y1.7905  
G01 X-2.8200 Y1.7905  
G01 X-2.8213 Y1.7905  
G01 X-2.8240 Y1.7901  
G01 X-2.8266 Y1.7894  
G01 X-2.8291 Y1.7884  
G01 X-2.8314 Y1.7870  
G01 X-2.8335 Y1.7854  
G01 X-2.8354 Y1.7835  
G01 X-2.8370 Y1.7814  
G01 X-2.8384 Y1.7791  
G01 X-2.8394 Y1.7766  
G01 X-2.8401 Y1.7740  
G01 X-2.8405 Y1.7713  
G01 X-2.8405 Y1.7700  
G01 X-2.8405 Y1.6753  
G01 X-2.8420 Y1.6661  
G01 X-2.8449 Y1.6572  
G01 X-2.8491 Y1.6488  
G01 X-2.8546 Y1.6412  
G01 X-2.8612 Y1.6346  
G01 X-2.8688 Y1.6291  
G01 X-2.8772 Y1.6249  
G01 X-2.8861 Y1.6220  
G01 X-2.8953 Y1.6205  
G01 X-3.0200 Y1.6205  
G01 X-3.0213 Y1.6205  
G01 X-3.0240 Y1.6201  
G01 X-3.0266 Y1.6194  
G01 X-3.0291 Y1.6184  
G01 X-3.0314 Y1.6170  
G01 X-3.0335 Y1.6154  
G01 X-3.0354 Y1.6135  
G01 X-3.0370 Y1.6114  
G01 X-3.0384 Y1.6091  
G01 X-3.0394 Y1.6066  
G01 X-3.0401 Y1.6040  
G01 X-3.0405 Y1.6013  
G01 X-3.0405 Y1.6000  
G01 X-3.0405 Y1.2900  
G01 X-3.0405 Y1.2887  
G01 X-3.0401 Y1.2860  
G01 X-3.0394 Y1.2834  
G01 X-3.0384 Y1.2809  
G01 X-3.0370 Y1.2786  
G01 X-3.0354 Y1.2765  
G01 X-3.0335 Y1.2746  
G01 X-3.0314 Y1.2730  
G01 X-3.0291 Y1.2716  
G01 X-3.0266 Y1.2706  
G01 X-3.0240 Y1.2699  
G01 X-3.0213 Y1.2695  
G01 X-3.0200 Y1.2695  
G01 X-2.7200 Y1.2695  
G01 X-2.7171 Y1.2695  
G01 X-2.7143 Y1.2689  
G01 X-2.7117 Y1.2684  
G01 X-2.6876 Y1.2925  
G01 X-2.6524 Y1.2925  
G01 X-2.6275 Y1.2676  
G01 X-2.6275 Y1.2324  
G01 X-2.6524 Y1.2075  
G01 X-2.6800 Y1.2075  
G01 X-2.6871 Y1.2056  
G01 X-2.6964 Y1.2044  
G01 X-2.7058 Y1.2045  
G01 X-2.7150 Y1.2060  
G01 X-2.7240 Y1.2088  
G01 X-2.7275 Y1.2105  
G01 X-3.0252 Y1.2105  
G01 X-3.0355 Y1.2119  
G01 X-3.0456 Y1.2146  
G01 X-3.0552 Y1.2185  
G01 X-3.0643 Y1.2238  
G01 X-3.0725 Y1.2301  
G01 X-3.0799 Y1.2375  
G01 X-3.0862 Y1.2457  
G01 X-3.0915 Y1.2548  
G01 X-3.0954 Y1.2644  
G01 X-3.0981 Y1.2745  
G01 X-3.0995 Y1.2848  
G01 X-3.0995 Y1.6052  
G01 X-3.0981 Y1.6155  
G01 X-3.0954 Y1.6256  
G01 X-3.0915 Y1.6352  
G01 X-3.0862 Y1.6443  
G01 X-3.0799 Y1.6525  
G01 X-3.0725 Y1.6599  
G01 X-3.0643 Y1.6662  
G01 X-3.0552 Y1.6715  
G01 X-3.0456 Y1.6754  
G01 X-3.0355 Y1.6781  
G01 X-3.0252 Y1.6795  
G01 X-2.9000 Y1.6795  
G01 X-2.8999 Y1.6795  
G01 X-2.8997 Y1.6796  
G01 X-2.8996 Y1.6797  
G01 X-2.8995 Y1.6798  
G01 X-2.8995 Y1.6800  
G01 X-2.8995 Y1.7752  
G01 X-2.8981 Y1.7855  
G01 X-2.8954 Y1.7956  
G01 X-2.8915 Y1.8052  
G01 X-2.8862 Y1.8143  
G01 X-2.8799 Y1.8225  
G01 X-2.8725 Y1.8299  
G01 X-2.8643 Y1.8362  
G01 X-2.8552 Y1.8415  
G01 X-2.8456 Y1.8454  
G01 X-2.8355 Y1.8481  
G01 X-2.8252 Y1.8495  
G01 X-2.7006 Y1.8495  
G01 X-2.6876 Y1.8625  
G00 Z0.1000  
G00 X-2.9925 Y1.1124  
G01 Z-0.0070 F10    
G01 X-2.9925 Y1.1476  F20    
G01 X-2.9676 Y1.1725  
G01 X-2.9324 Y1.1725  
G01 X-2.9075 Y1.1476  
G01 X-2.9075 Y1.1124  
G01 X-2.9205 Y1.0994  
G01 X-2.9205 Y1.0600  
G01 X-2.9205 Y1.0587  
G01 X-2.9201 Y1.0560  
G01 X-2.9194 Y1.0534  
G01 X-2.9184 Y1.0509  
G01 X-2.9170 Y1.0486  
G01 X-2.9154 Y1.0465  
G01 X-2.9135 Y1.0446  
G01 X-2.9114 Y1.0430  
G01 X-2.9091 Y1.0416  
G01 X-2.9066 Y1.0406  
G01 X-2.9040 Y1.0399  
G01 X-2.9013 Y1.0395  
G01 X-2.9000 Y1.0395  
G01 X-2.3476 Y1.0395  
G01 X-2.3447 Y1.0424  
G01 X-2.3393 Y1.0463  
G01 X-2.3333 Y1.0494  
G01 X-2.3270 Y1.0515  
G01 X-2.3203 Y1.0525  
G01 X-2.1997 Y1.0525  
G01 X-2.1930 Y1.0515  
G01 X-2.1867 Y1.0494  
G01 X-2.1807 Y1.0463  
G01 X-2.1753 Y1.0424  
G01 X-2.1706 Y1.0377  
G01 X-2.1667 Y1.0323  
G01 X-2.1636 Y1.0263  
G01 X-2.1615 Y1.0200  
G01 X-2.1605 Y1.0133  
G01 X-2.1605 Y1.0067  
G01 X-2.1615 Y1.0000  
G01 X-2.1636 Y0.9937  
G01 X-2.1667 Y0.9877  
G01 X-2.1706 Y0.9823  
G01 X-2.1753 Y0.9776  
G01 X-2.1807 Y0.9737  
G01 X-2.1867 Y0.9706  
G01 X-2.1930 Y0.9685  
G01 X-2.1997 Y0.9675  
G01 X-2.3203 Y0.9675  
G01 X-2.3270 Y0.9685  
G01 X-2.3333 Y0.9706  
G01 X-2.3393 Y0.9737  
G01 X-2.3447 Y0.9776  
G01 X-2.3476 Y0.9805  
G01 X-2.9052 Y0.9805  
G01 X-2.9155 Y0.9819  
G01 X-2.9256 Y0.9846  
G01 X-2.9352 Y0.9885  
G01 X-2.9443 Y0.9938  
G01 X-2.9525 Y1.0001  
G01 X-2.9599 Y1.0075  
G01 X-2.9662 Y1.0157  
G01 X-2.9715 Y1.0248  
G01 X-2.9754 Y1.0344  
G01 X-2.9781 Y1.0445  
G01 X-2.9795 Y1.0548  
G01 X-2.9795 Y1.0994  
G01 X-2.9925 Y1.1124  
G00 Z0.1000  
G00 X-1.8625 Y0.1827  
G01 Z-0.0070 F10    
G01 X-1.8625 Y0.2176  F20    
G01 X-1.8376 Y0.2425  
G01 X-1.8024 Y0.2425  
G01 X-1.7775 Y0.2176  
G01 X-1.7775 Y0.1824  
G01 X-1.7812 Y0.1787  
G01 X-1.7818 Y0.1738  
G01 X-1.7844 Y0.1633  
G01 X-1.7882 Y0.1532  
G01 X-1.7933 Y0.1436  
G01 X-1.7994 Y0.1347  
G01 X-1.8066 Y0.1266  
G01 X-1.8147 Y0.1194  
G01 X-1.8236 Y0.1133  
G01 X-1.8332 Y0.1082  
G01 X-1.8433 Y0.1044  
G01 X-1.8538 Y0.1018  
G01 X-1.8646 Y0.1005  
G01 X-2.4654 Y0.1005  
G01 X-2.4762 Y0.1018  
G01 X-2.4867 Y0.1044  
G01 X-2.4968 Y0.1082  
G01 X-2.5064 Y0.1133  
G01 X-2.5153 Y0.1194  
G01 X-2.5234 Y0.1266  
G01 X-2.5306 Y0.1347  
G01 X-2.5367 Y0.1436  
G01 X-2.5418 Y0.1532  
G01 X-2.5456 Y0.1633  
G01 X-2.5482 Y0.1738  
G01 X-2.5495 Y0.1846  
G01 X-2.5495 Y0.2305  
G01 X-2.6094 Y0.2305  
G01 X-2.6224 Y0.2175  
G01 X-2.6576 Y0.2175  
G01 X-2.6825 Y0.2424  
G01 X-2.6825 Y0.2776  
G01 X-2.6576 Y0.3025  
G01 X-2.6224 Y0.3025  
G01 X-2.6094 Y0.2895  
G01 X-2.5495 Y0.2895  
G01 X-2.5495 Y0.4340  
G01 X-2.5563 Y0.4408  
G01 X-2.5563 Y0.4792  
G01 X-2.5292 Y0.5063  
G01 X-2.4908 Y0.5063  
G01 X-2.4637 Y0.4792  
G01 X-2.4637 Y0.4408  
G01 X-2.4705 Y0.4340  
G01 X-2.4705 Y0.1900  
G01 X-2.4705 Y0.1894  
G01 X-2.4703 Y0.1881  
G01 X-2.4700 Y0.1869  
G01 X-2.4696 Y0.1857  
G01 X-2.4690 Y0.1846  
G01 X-2.4683 Y0.1835  
G01 X-2.4674 Y0.1826  
G01 X-2.4665 Y0.1817  
G01 X-2.4654 Y0.1810  
G01 X-2.4643 Y0.1804  
G01 X-2.4631 Y0.1800  
G01 X-2.4619 Y0.1797  
G01 X-2.4606 Y0.1795  
G01 X-2.4600 Y0.1795  
G01 X-1.8700 Y0.1795  
G01 X-1.8694 Y0.1795  
G01 X-1.8681 Y0.1797  
G01 X-1.8669 Y0.1800  
G01 X-1.8657 Y0.1804  
G01 X-1.8646 Y0.1810  
G01 X-1.8635 Y0.1817  
G01 X-1.8626 Y0.1826  
G00 Z0.1000  
G00 X-2.1825 Y0.2424  
G01 Z-0.0070 F10    
G01 X-2.1825 Y0.2776  F20    
G01 X-2.1695 Y0.2906  
G01 X-2.1695 Y0.6152  
G01 X-2.1681 Y0.6255  
G01 X-2.1654 Y0.6356  
G01 X-2.1615 Y0.6452  
G01 X-2.1562 Y0.6543  
G01 X-2.1499 Y0.6625  
G01 X-2.1425 Y0.6699  
G01 X-2.1343 Y0.6762  
G01 X-2.1252 Y0.6815  
G01 X-2.1156 Y0.6854  
G01 X-2.1055 Y0.6881  
G01 X-2.0952 Y0.6895  
G01 X-2.0485 Y0.6895  
G01 X-2.0470 Y0.6916  
G01 X-2.0416 Y0.6970  
G01 X-2.0354 Y0.7015  
G01 X-2.0286 Y0.7049  
G01 X-2.0214 Y0.7073  
G01 X-2.0138 Y0.7085  
G01 X-2.0062 Y0.7085  
G01 X-1.9986 Y0.7073  
G01 X-1.9914 Y0.7049  
G01 X-1.9846 Y0.7015  
G01 X-1.9784 Y0.6970  
G01 X-1.9730 Y0.6916  
G01 X-1.9715 Y0.6895  
G01 X-1.7806 Y0.6895  
G01 X-1.7676 Y0.7025  
G01 X-1.7324 Y0.7025  
G01 X-1.7075 Y0.6776  
G01 X-1.7075 Y0.6424  
G01 X-1.7324 Y0.6175  
G01 X-1.7676 Y0.6175  
G01 X-1.7806 Y0.6305  
G01 X-1.9715 Y0.6305  
G01 X-1.9730 Y0.6284  
G01 X-1.9784 Y0.6230  
G01 X-1.9846 Y0.6185  
G01 X-1.9914 Y0.6151  
G01 X-1.9986 Y0.6127  
G01 X-2.0062 Y0.6115  
G01 X-2.0138 Y0.6115  
G01 X-2.0214 Y0.6127  
G01 X-2.0286 Y0.6151  
G01 X-2.0354 Y0.6185  
G01 X-2.0416 Y0.6230  
G01 X-2.0470 Y0.6284  
G01 X-2.0485 Y0.6305  
G01 X-2.0900 Y0.6305  
G01 X-2.0913 Y0.6305  
G01 X-2.0940 Y0.6301  
G01 X-2.0966 Y0.6294  
G01 X-2.0991 Y0.6284  
G01 X-2.1014 Y0.6270  
G01 X-2.1035 Y0.6254  
G01 X-2.1054 Y0.6235  
G01 X-2.1070 Y0.6214  
G01 X-2.1084 Y0.6191  
G01 X-2.1094 Y0.6166  
G01 X-2.1101 Y0.6140  
G01 X-2.1105 Y0.6113  
G01 X-2.1105 Y0.6100  
G01 X-2.1105 Y0.2906  
G01 X-2.0975 Y0.2776  
G01 X-2.0975 Y0.2424  
G01 X-2.1224 Y0.2175  
G01 X-2.1576 Y0.2175  
G01 X-2.1825 Y0.2424  
G00 Z0.1000  
G00 X-2.3825 Y1.7224  
G01 Z-0.0070 F10    
G01 X-2.3825 Y1.7576  F20    
G01 X-2.3695 Y1.7706  
G01 X-2.3695 Y1.7800  
G01 X-2.3695 Y1.7813  
G01 X-2.3699 Y1.7840  
G01 X-2.3706 Y1.7866  
G01 X-2.3716 Y1.7891  
G01 X-2.3730 Y1.7914  
G01 X-2.3746 Y1.7935  
G01 X-2.3765 Y1.7954  
G01 X-2.3786 Y1.7970  
G01 X-2.3809 Y1.7984  
G01 X-2.3834 Y1.7994  
G01 X-2.3860 Y1.8001  
G01 X-2.3887 Y1.8005  
G01 X-2.3900 Y1.8005  
G01 X-2.5300 Y1.8005  
G01 X-2.5313 Y1.8005  
G01 X-2.5340 Y1.8001  
G01 X-2.5366 Y1.7994  
G01 X-2.5391 Y1.7984  
G01 X-2.5414 Y1.7970  
G01 X-2.5435 Y1.7954  
G01 X-2.5454 Y1.7935  
G01 X-2.5470 Y1.7914  
G01 X-2.5484 Y1.7891  
G01 X-2.5494 Y1.7866  
G01 X-2.5501 Y1.7840  
G01 X-2.5505 Y1.7813  
G01 X-2.5505 Y1.7800  
G01 X-2.5505 Y1.7648  
G01 X-2.5519 Y1.7545  
G01 X-2.5546 Y1.7444  
G01 X-2.5585 Y1.7348  
G01 X-2.5638 Y1.7257  
G01 X-2.5701 Y1.7175  
G01 X-2.5775 Y1.7101  
G01 X-2.5857 Y1.7038  
G01 X-2.5948 Y1.6985  
G01 X-2.6044 Y1.6946  
G01 X-2.6145 Y1.6919  
G01 X-2.6248 Y1.6905  
G01 X-2.6394 Y1.6905  
G01 X-2.6524 Y1.6775  
G01 X-2.6876 Y1.6775  
G01 X-2.7006 Y1.6905  
G01 X-2.7300 Y1.6905  
G01 X-2.7313 Y1.6905  
G01 X-2.7340 Y1.6901  
G01 X-2.7366 Y1.6894  
G01 X-2.7391 Y1.6884  
G01 X-2.7414 Y1.6870  
G01 X-2.7435 Y1.6854  
G01 X-2.7454 Y1.6835  
G01 X-2.7470 Y1.6814  
G01 X-2.7484 Y1.6791  
G01 X-2.7494 Y1.6766  
G01 X-2.7501 Y1.6740  
G01 X-2.7505 Y1.6713  
G01 X-2.7505 Y1.6700  
G01 X-2.7505 Y1.5950  
G01 X-2.7519 Y1.5852  
G01 X-2.7547 Y1.5757  
G01 X-2.7588 Y1.5666  
G01 X-2.7642 Y1.5582  
G01 X-2.7707 Y1.5507  
G01 X-2.7782 Y1.5442  
G01 X-2.7866 Y1.5388  
G01 X-2.7957 Y1.5347  
G01 X-2.8052 Y1.5319  
G01 X-2.8150 Y1.5305  
G01 X-2.9600 Y1.5305  
G01 X-2.9601 Y1.5305  
G01 X-2.9603 Y1.5304  
G01 X-2.9604 Y1.5303  
G01 X-2.9605 Y1.5302  
G01 X-2.9605 Y1.5300  
G01 X-2.9605 Y1.3725  
G01 X-2.9324 Y1.3725  
G01 X-2.9075 Y1.3476  
G01 X-2.9075 Y1.3124  
G01 X-2.9324 Y1.2875  
G01 X-2.9676 Y1.2875  
G01 X-2.9925 Y1.3124  
G01 X-2.9925 Y1.3149  
G01 X-2.9993 Y1.3207  
G01 X-3.0058 Y1.3282  
G01 X-3.0112 Y1.3366  
G01 X-3.0153 Y1.3457  
G01 X-3.0181 Y1.3552  
G01 X-3.0195 Y1.3650  
G01 X-3.0195 Y1.5347  
G01 X-3.0180 Y1.5439  
G01 X-3.0151 Y1.5528  
G01 X-3.0109 Y1.5612  
G01 X-3.0054 Y1.5688  
G01 X-2.9988 Y1.5754  
G01 X-2.9912 Y1.5809  
G01 X-2.9828 Y1.5851  
G01 X-2.9739 Y1.5880  
G01 X-2.9647 Y1.5895  
G01 X-2.8200 Y1.5895  
G01 X-2.8193 Y1.5895  
G01 X-2.8178 Y1.5897  
G01 X-2.8163 Y1.5902  
G01 X-2.8150 Y1.5908  
G01 X-2.8137 Y1.5916  
G01 X-2.8126 Y1.5926  
G01 X-2.8116 Y1.5937  
G01 X-2.8108 Y1.5950  
G01 X-2.8102 Y1.5963  
G01 X-2.8097 Y1.5978  
G01 X-2.8095 Y1.5993  
G01 X-2.8095 Y1.6000  
G01 X-2.8095 Y1.6752  
G01 X-2.8081 Y1.6855  
G01 X-2.8054 Y1.6956  
G01 X-2.8015 Y1.7052  
G01 X-2.7962 Y1.7143  
G01 X-2.7899 Y1.7225  
G01 X-2.7825 Y1.7299  
G01 X-2.7743 Y1.7362  
G01 X-2.7652 Y1.7415  
G01 X-2.7556 Y1.7454  
G01 X-2.7455 Y1.7481  
G01 X-2.7352 Y1.7495  
G01 X-2.7006 Y1.7495  
G01 X-2.6876 Y1.7625  
G01 X-2.6524 Y1.7625  
G01 X-2.6394 Y1.7495  
G01 X-2.6300 Y1.7495  
G01 X-2.6287 Y1.7495  
G01 X-2.6260 Y1.7499  
G01 X-2.6234 Y1.7506  
G01 X-2.6209 Y1.7516  
G01 X-2.6186 Y1.7530  
G01 X-2.6165 Y1.7546  
G01 X-2.6146 Y1.7565  
G01 X-2.6130 Y1.7586  
G01 X-2.6116 Y1.7609  
G01 X-2.6106 Y1.7634  
G01 X-2.6099 Y1.7660  
G01 X-2.6095 Y1.7687  
G01 X-2.6095 Y1.7700  
G01 X-2.6095 Y1.7852  
G01 X-2.6081 Y1.7955  
G01 X-2.6054 Y1.8056  
G01 X-2.6015 Y1.8152  
G01 X-2.5962 Y1.8243  
G01 X-2.5899 Y1.8325  
G01 X-2.5825 Y1.8399  
G01 X-2.5743 Y1.8462  
G01 X-2.5652 Y1.8515  
G01 X-2.5556 Y1.8554  
G01 X-2.5455 Y1.8581  
G01 X-2.5352 Y1.8595  
G01 X-2.3848 Y1.8595  
G01 X-2.3745 Y1.8581  
G01 X-2.3644 Y1.8554  
G01 X-2.3548 Y1.8515  
G01 X-2.3457 Y1.8462  
G01 X-2.3375 Y1.8399  
G01 X-2.3301 Y1.8325  
G01 X-2.3238 Y1.8243  
G01 X-2.3185 Y1.8152  
G01 X-2.3146 Y1.8056  
G01 X-2.3119 Y1.7955  
G01 X-2.3105 Y1.7852  
G01 X-2.3105 Y1.7706  
G01 X-2.3094 Y1.7695  
G01 X-2.2460 Y1.7695  
G01 X-2.2292 Y1.7863  
G01 X-2.1908 Y1.7863  
G01 X-2.1637 Y1.7592  
G01 X-2.1637 Y1.7208  
G01 X-2.1908 Y1.6937  
G01 X-2.2292 Y1.6937  
G01 X-2.2460 Y1.7105  
G01 X-2.3094 Y1.7105  
G01 X-2.3224 Y1.6975  
G01 X-2.3576 Y1.6975  
G01 X-2.3825 Y1.7224  
G00 Z0.1000  
G00 X-2.4576 Y1.7825  
G01 Z-0.0070 F10    
G01 X-2.4224 Y1.7825  F20    
G01 X-2.3975 Y1.7576  
G01 X-2.3975 Y1.7224  
G01 X-2.4224 Y1.6975  
G01 X-2.4576 Y1.6975  
G01 X-2.4704 Y1.7103  
G01 X-2.4705 Y1.7102  
G01 X-2.4705 Y1.7100  
G01 X-2.4705 Y1.6071  
G01 X-2.4716 Y1.6014  
G01 X-2.4739 Y1.5960  
G01 X-2.4771 Y1.5912  
G01 X-2.4812 Y1.5871  
G01 X-2.4860 Y1.5839  
G01 X-2.4905 Y1.5820  
G01 X-2.4905 Y1.2600  
G01 X-2.4905 Y1.2587  
G01 X-2.4901 Y1.2560  
G01 X-2.4894 Y1.2534  
G01 X-2.4884 Y1.2509  
G01 X-2.4870 Y1.2486  
G01 X-2.4854 Y1.2465  
G01 X-2.4835 Y1.2446  
G01 X-2.4814 Y1.2430  
G01 X-2.4791 Y1.2416  
G01 X-2.4766 Y1.2406  
G01 X-2.4740 Y1.2399  
G01 X-2.4713 Y1.2395  
G01 X-2.4700 Y1.2395  
G01 X-2.3476 Y1.2395  
G01 X-2.3447 Y1.2424  
G01 X-2.3393 Y1.2463  
G01 X-2.3333 Y1.2494  
G01 X-2.3270 Y1.2515  
G01 X-2.3203 Y1.2525  
G01 X-2.1997 Y1.2525  
G01 X-2.1930 Y1.2515  
G01 X-2.1867 Y1.2494  
G01 X-2.1807 Y1.2463  
G01 X-2.1753 Y1.2424  
G01 X-2.1706 Y1.2377  
G01 X-2.1667 Y1.2323  
G01 X-2.1636 Y1.2263  
G01 X-2.1615 Y1.2200  
G01 X-2.1605 Y1.2133  
G01 X-2.1605 Y1.2067  
G01 X-2.1615 Y1.2000  
G01 X-2.1636 Y1.1937  
G01 X-2.1667 Y1.1877  
G01 X-2.1706 Y1.1823  
G01 X-2.1753 Y1.1776  
G01 X-2.1807 Y1.1737  
G01 X-2.1867 Y1.1706  
G01 X-2.1930 Y1.1685  
G01 X-2.1997 Y1.1675  
G01 X-2.2305 Y1.1675  
G01 X-2.2305 Y1.1525  
G01 X-2.1997 Y1.1525  
G01 X-2.1930 Y1.1515  
G01 X-2.1867 Y1.1494  
G01 X-2.1807 Y1.1463  
G01 X-2.1753 Y1.1424  
G01 X-2.1706 Y1.1377  
G01 X-2.1667 Y1.1323  
G01 X-2.1636 Y1.1263  
G01 X-2.1615 Y1.1200  
G01 X-2.1605 Y1.1133  
G01 X-2.1605 Y1.1067  
G01 X-2.1615 Y1.1000  
G01 X-2.1636 Y1.0937  
G01 X-2.1667 Y1.0877  
G01 X-2.1706 Y1.0823  
G01 X-2.1753 Y1.0776  
G01 X-2.1807 Y1.0737  
G01 X-2.1867 Y1.0706  
G01 X-2.1930 Y1.0685  
G01 X-2.1997 Y1.0675  
G01 X-2.3203 Y1.0675  
G01 X-2.3270 Y1.0685  
G01 X-2.3333 Y1.0706  
G01 X-2.3393 Y1.0737  
G01 X-2.3447 Y1.0776  
G01 X-2.3494 Y1.0823  
G01 X-2.3533 Y1.0877  
G01 X-2.3564 Y1.0937  
G01 X-2.3585 Y1.1000  
G01 X-2.3595 Y1.1067  
G01 X-2.3595 Y1.1133  
G01 X-2.3585 Y1.1200  
G01 X-2.3564 Y1.1263  
G01 X-2.3533 Y1.1323  
G01 X-2.3494 Y1.1377  
G01 X-2.3447 Y1.1424  
G01 X-2.3393 Y1.1463  
G01 X-2.3333 Y1.1494  
G01 X-2.3270 Y1.1515  
G01 X-2.3203 Y1.1525  
G01 X-2.2895 Y1.1525  
G01 X-2.2895 Y1.1675  
G01 X-2.3203 Y1.1675  
G01 X-2.3270 Y1.1685  
G01 X-2.3333 Y1.1706  
G01 X-2.3393 Y1.1737  
G01 X-2.3447 Y1.1776  
G01 X-2.3476 Y1.1805  
G01 X-2.4752 Y1.1805  
G01 X-2.4855 Y1.1819  
G01 X-2.4956 Y1.1846  
G01 X-2.5052 Y1.1885  
G01 X-2.5143 Y1.1938  
G01 X-2.5225 Y1.2001  
G01 X-2.5299 Y1.2075  
G01 X-2.5362 Y1.2157  
G01 X-2.5415 Y1.2248  
G01 X-2.5454 Y1.2344  
G01 X-2.5481 Y1.2445  
G01 X-2.5495 Y1.2548  
G01 X-2.5495 Y1.4105  
G01 X-2.8633 Y1.4105  
G01 X-2.8642 Y1.4094  
G01 X-2.8694 Y1.4042  
G01 X-2.8754 Y1.3998  
G01 X-2.8820 Y1.3964  
G01 X-2.8890 Y1.3942  
G01 X-2.8963 Y1.3930  
G01 X-2.9037 Y1.3930  
G01 X-2.9110 Y1.3942  
G01 X-2.9180 Y1.3964  
G01 X-2.9246 Y1.3998  
G01 X-2.9306 Y1.4042  
G01 X-2.9358 Y1.4094  
G01 X-2.9402 Y1.4154  
G01 X-2.9436 Y1.4220  
G01 X-2.9458 Y1.4290  
G01 X-2.9470 Y1.4363  
G01 X-2.9470 Y1.4437  
G01 X-2.9458 Y1.4510  
G01 X-2.9436 Y1.4580  
G01 X-2.9402 Y1.4646  
G01 X-2.9358 Y1.4706  
G01 X-2.9306 Y1.4758  
G01 X-2.9246 Y1.4802  
G01 X-2.9180 Y1.4836  
G01 X-2.9110 Y1.4858  
G01 X-2.9037 Y1.4870  
G01 X-2.8963 Y1.4870  
G01 X-2.8890 Y1.4858  
G01 X-2.8820 Y1.4836  
G01 X-2.8754 Y1.4802  
G01 X-2.8694 Y1.4758  
G01 X-2.8642 Y1.4706  
G01 X-2.8633 Y1.4695  
G01 X-2.5495 Y1.4695  
G01 X-2.5495 Y1.5805  
G01 X-2.6294 Y1.5805  
G01 X-2.6424 Y1.5675  
G01 X-2.6776 Y1.5675  
G01 X-2.7025 Y1.5924  
G01 X-2.7025 Y1.6276  
G01 X-2.6776 Y1.6525  
G01 X-2.6424 Y1.6525  
G01 X-2.6294 Y1.6395  
G01 X-2.5295 Y1.6395  
G01 X-2.5295 Y1.7147  
G01 X-2.5280 Y1.7239  
G01 X-2.5251 Y1.7328  
G01 X-2.5209 Y1.7412  
G01 X-2.5154 Y1.7488  
G01 X-2.5088 Y1.7554  
G01 X-2.5012 Y1.7609  
G01 X-2.4928 Y1.7651  
G01 X-2.4839 Y1.7680  
G01 X-2.4747 Y1.7695  
G01 X-2.4706 Y1.7695  
G01 X-2.4576 Y1.7825  
G00 Z0.1000  
G00 X-1.9319 Y1.4355  
G01 Z-0.0070 F10    
G01 X-1.9319 Y1.4355  F20    
G01 X-1.9305 Y1.4252  
G01 X-1.9305 Y1.3525  
G01 X-1.8997 Y1.3525  
G01 X-1.8930 Y1.3515  
G01 X-1.8867 Y1.3494  
G01 X-1.8807 Y1.3463  
G01 X-1.8753 Y1.3424  
G01 X-1.8706 Y1.3377  
G01 X-1.8667 Y1.3323  
G01 X-1.8636 Y1.3263  
G01 X-1.8615 Y1.3200  
G01 X-1.8605 Y1.3133  
G01 X-1.8605 Y1.3067  
G01 X-1.8615 Y1.3000  
G01 X-1.8636 Y1.2937  
G01 X-1.8667 Y1.2877  
G01 X-1.8706 Y1.2823  
G01 X-1.8753 Y1.2776  
G01 X-1.8807 Y1.2737  
G01 X-1.8867 Y1.2706  
G01 X-1.8930 Y1.2685  
G01 X-1.8997 Y1.2675  
G01 X-2.0203 Y1.2675  
G01 X-2.0270 Y1.2685  
G01 X-2.0333 Y1.2706  
G01 X-2.0393 Y1.2737  
G01 X-2.0447 Y1.2776  
G01 X-2.0494 Y1.2823  
G01 X-2.0533 Y1.2877  
G01 X-2.0564 Y1.2937  
G01 X-2.0585 Y1.3000  
G01 X-2.0595 Y1.3067  
G01 X-2.0595 Y1.3133  
G01 X-2.0585 Y1.3200  
G01 X-2.0564 Y1.3263  
G01 X-2.0533 Y1.3323  
G01 X-2.0494 Y1.3377  
G01 X-2.0447 Y1.3424  
G01 X-2.0393 Y1.3463  
G01 X-2.0333 Y1.3494  
G01 X-2.0270 Y1.3515  
G01 X-2.0203 Y1.3525  
G01 X-1.9895 Y1.3525  
G01 X-1.9895 Y1.4200  
G01 X-1.9895 Y1.4213  
G01 X-1.9899 Y1.4240  
G01 X-1.9900 Y1.4245  
G01 X-2.0055 Y1.4400  
G01 X-2.0060 Y1.4401  
G01 X-2.0087 Y1.4405  
G01 X-2.0100 Y1.4405  
G01 X-2.1740 Y1.4405  
G01 X-2.1908 Y1.4237  
G01 X-2.2292 Y1.4237  
G01 X-2.2358 Y1.4303  
G01 X-2.2530 Y1.4246  
G01 X-2.2530 Y1.4205  
G01 X-2.2805 Y1.3930  
G01 X-2.3195 Y1.3930  
G01 X-2.3470 Y1.4205  
G01 X-2.3470 Y1.4595  
G01 X-2.3195 Y1.4870  
G01 X-2.2805 Y1.4870  
G01 X-2.2735 Y1.4799  
G01 X-2.2563 Y1.4857  
G01 X-2.2563 Y1.4892  
G01 X-2.2292 Y1.5163  
G01 X-2.1908 Y1.5163  
G01 X-2.1740 Y1.4995  
G01 X-2.0060 Y1.4995  
G01 X-1.9892 Y1.5163  
G01 X-1.9508 Y1.5163  
G01 X-1.9237 Y1.4892  
G01 X-1.9237 Y1.4508  
G01 X-1.9334 Y1.4411  
G01 X-1.9319 Y1.4355  
G00 Z0.1000  
G00 X-1.3752 Y0.4105  
G01 Z-0.0070 F10    
G01 X-1.3855 Y0.4119  F20    
G01 X-1.3956 Y0.4146  
G01 X-1.4052 Y0.4185  
G01 X-1.4143 Y0.4238  
G01 X-1.4225 Y0.4301  
G01 X-1.4299 Y0.4375  
G01 X-1.4362 Y0.4457  
G01 X-1.4415 Y0.4548  
G01 X-1.4424 Y0.4570  
G01 X-1.4454 Y0.4585  
G01 X-1.4516 Y0.4630  
G01 X-1.4570 Y0.4684  
G01 X-1.4615 Y0.4746  
G01 X-1.4649 Y0.4814  
G01 X-1.4673 Y0.4886  
G01 X-1.4685 Y0.4962  
G01 X-1.4685 Y0.5038  
G01 X-1.4673 Y0.5114  
G01 X-1.4649 Y0.5186  
G01 X-1.4615 Y0.5254  
G01 X-1.4595 Y0.5281  
G01 X-1.4595 Y0.6794  
G01 X-1.4725 Y0.6924  
G01 X-1.4725 Y0.7276  
G01 X-1.4476 Y0.7525  
G01 X-1.4124 Y0.7525  
G01 X-1.3875 Y0.7276  
G01 X-1.3875 Y0.6924  
G01 X-1.4005 Y0.6794  
G01 X-1.4005 Y0.5445  
G01 X-1.3946 Y0.5415  
G01 X-1.3884 Y0.5370  
G01 X-1.3830 Y0.5316  
G01 X-1.3785 Y0.5254  
G01 X-1.3751 Y0.5186  
G01 X-1.3727 Y0.5114  
G01 X-1.3715 Y0.5038  
G01 X-1.3715 Y0.4962  
G01 X-1.3727 Y0.4886  
G01 X-1.3751 Y0.4814  
G01 X-1.3785 Y0.4746  
G01 X-1.3802 Y0.4723  
G01 X-1.3791 Y0.4716  
G01 X-1.3766 Y0.4706  
G01 X-1.3740 Y0.4699  
G01 X-1.3713 Y0.4695  
G01 X-1.3700 Y0.4695  
G01 X-0.6100 Y0.4695  
G01 X-0.6087 Y0.4695  
G01 X-0.6060 Y0.4699  
G01 X-0.6034 Y0.4706  
G01 X-0.6009 Y0.4716  
G01 X-0.5986 Y0.4730  
G01 X-0.5965 Y0.4746  
G01 X-0.5946 Y0.4765  
G01 X-0.5930 Y0.4786  
G01 X-0.5916 Y0.4809  
G01 X-0.5906 Y0.4834  
G01 X-0.5899 Y0.4860  
G01 X-0.5895 Y0.4887  
G01 X-0.5895 Y0.4900  
G01 X-0.5895 Y0.8794  
G01 X-0.6025 Y0.8924  
G01 X-0.6025 Y0.9276  
G01 X-0.5776 Y0.9525  
G01 X-0.5424 Y0.9525  
G01 X-0.5175 Y0.9276  
G01 X-0.5175 Y0.8924  
G01 X-0.5305 Y0.8794  
G01 X-0.5305 Y0.4848  
G01 X-0.5319 Y0.4745  
G01 X-0.5346 Y0.4644  
G01 X-0.5385 Y0.4548  
G01 X-0.5438 Y0.4457  
G01 X-0.5501 Y0.4375  
G01 X-0.5575 Y0.4301  
G01 X-0.5657 Y0.4238  
G01 X-0.5748 Y0.4185  
G01 X-0.5844 Y0.4146  
G01 X-0.5945 Y0.4119  
G01 X-0.6048 Y0.4105  
G01 X-1.3729 Y0.4105  
G01 X-1.3752 Y0.4105  
G00 Z0.1000  
G00 X-0.4255 Y0.3034  
G01 Z-0.0070 F10    
G01 X-0.4255 Y0.2945  F20    
G01 X-0.4269 Y0.2835  
G01 X-0.4298 Y0.2728  
G01 X-0.4341 Y0.2625  
G01 X-0.4396 Y0.2530  
G01 X-0.4463 Y0.2442  
G01 X-0.4542 Y0.2363  
G01 X-0.4630 Y0.2296  
G01 X-0.4725 Y0.2241  
G01 X-0.4828 Y0.2198  
G01 X-0.4935 Y0.2169  
G01 X-0.5045 Y0.2155  
G01 X-1.0400 Y0.2155  
G01 X-1.0410 Y0.2155  
G01 X-1.0430 Y0.2152  
G01 X-1.0450 Y0.2147  
G01 X-1.0469 Y0.2139  
G01 X-1.0486 Y0.2129  
G01 X-1.0502 Y0.2117  
G01 X-1.0517 Y0.2102  
G01 X-1.0529 Y0.2086  
G01 X-1.0539 Y0.2069  
G01 X-1.0547 Y0.2050  
G01 X-1.0552 Y0.2030  
G01 X-1.0555 Y0.2010  
G01 X-1.0555 Y0.2000  
G01 X-1.0555 Y0.1445  
G01 X-1.0569 Y0.1335  
G01 X-1.0598 Y0.1228  
G01 X-1.0641 Y0.1125  
G01 X-1.0696 Y0.1030  
G01 X-1.0763 Y0.0942  
G01 X-1.0842 Y0.0863  
G01 X-1.0930 Y0.0796  
G01 X-1.1025 Y0.0741  
G01 X-1.1128 Y0.0698  
G01 X-1.1235 Y0.0669  
G01 X-1.1345 Y0.0655  
G01 X-1.6055 Y0.0655  
G01 X-1.6165 Y0.0669  
G01 X-1.6272 Y0.0698  
G01 X-1.6375 Y0.0741  
G01 X-1.6470 Y0.0796  
G01 X-1.6558 Y0.0863  
G01 X-1.6637 Y0.0942  
G01 X-1.6704 Y0.1030  
G01 X-1.6759 Y0.1125  
G01 X-1.6802 Y0.1228  
G01 X-1.6831 Y0.1335  
G01 X-1.6845 Y0.1445  
G01 X-1.6845 Y0.8655  
G01 X-1.6831 Y0.8765  
G01 X-1.6802 Y0.8872  
G01 X-1.6759 Y0.8975  
G01 X-1.6704 Y0.9070  
G01 X-1.6637 Y0.9158  
G01 X-1.6558 Y0.9237  
G01 X-1.6470 Y0.9304  
G01 X-1.6375 Y0.9359  
G01 X-1.6272 Y0.9402  
G01 X-1.6165 Y0.9431  
G01 X-1.6055 Y0.9445  
G01 X-1.3397 Y0.9445  
G01 X-1.3379 Y0.9462  
G01 X-1.3319 Y0.9506  
G01 X-1.3252 Y0.9540  
G01 X-1.3181 Y0.9563  
G01 X-1.3107 Y0.9575  
G01 X-1.1893 Y0.9575  
G01 X-1.1819 Y0.9563  
G01 X-1.1748 Y0.9540  
G01 X-1.1681 Y0.9506  
G01 X-1.1621 Y0.9462  
G01 X-1.1568 Y0.9409  
G01 X-1.1524 Y0.9349  
G01 X-1.1490 Y0.9282  
G01 X-1.1467 Y0.9211  
G01 X-1.1455 Y0.9137  
G01 X-1.1455 Y0.9063  
G01 X-1.1467 Y0.8989  
G01 X-1.1490 Y0.8918  
G01 X-1.1524 Y0.8851  
G01 X-1.1568 Y0.8791  
G01 X-1.1621 Y0.8738  
G01 X-1.1681 Y0.8694  
G01 X-1.1748 Y0.8660  
G01 X-1.1819 Y0.8637  
G01 X-1.1893 Y0.8625  
G01 X-1.3107 Y0.8625  
G01 X-1.3181 Y0.8637  
G01 X-1.3252 Y0.8660  
G01 X-1.3319 Y0.8694  
G01 X-1.3379 Y0.8738  
G01 X-1.3397 Y0.8755  
G01 X-1.6000 Y0.8755  
G01 X-1.6010 Y0.8755  
G01 X-1.6030 Y0.8752  
G01 X-1.6050 Y0.8747  
G01 X-1.6069 Y0.8739  
G01 X-1.6086 Y0.8729  
G01 X-1.6102 Y0.8717  
G01 X-1.6117 Y0.8702  
G01 X-1.6129 Y0.8686  
G01 X-1.6139 Y0.8669  
G01 X-1.6147 Y0.8650  
G01 X-1.6152 Y0.8630  
G01 X-1.6155 Y0.8610  
G01 X-1.6155 Y0.8600  
G01 X-1.6155 Y0.1500  
G01 X-1.6155 Y0.1490  
G01 X-1.6152 Y0.1470  
G01 X-1.6147 Y0.1450  
G01 X-1.6139 Y0.1431  
G01 X-1.6129 Y0.1414  
G01 X-1.6117 Y0.1398  
G01 X-1.6102 Y0.1383  
G01 X-1.6086 Y0.1371  
G01 X-1.6069 Y0.1361  
G01 X-1.6050 Y0.1353  
G01 X-1.6030 Y0.1348  
G01 X-1.6010 Y0.1345  
G01 X-1.6000 Y0.1345  
G01 X-1.1400 Y0.1345  
G01 X-1.1390 Y0.1345  
G01 X-1.1370 Y0.1348  
G01 X-1.1350 Y0.1353  
G01 X-1.1331 Y0.1361  
G01 X-1.1314 Y0.1371  
G01 X-1.1298 Y0.1383  
G01 X-1.1283 Y0.1398  
G01 X-1.1271 Y0.1414  
G01 X-1.1261 Y0.1431  
G01 X-1.1253 Y0.1450  
G01 X-1.1248 Y0.1470  
G01 X-1.1245 Y0.1490  
G01 X-1.1245 Y0.1500  
G01 X-1.1245 Y0.2055  
G01 X-1.1231 Y0.2165  
G01 X-1.1202 Y0.2272  
G01 X-1.1159 Y0.2375  
G01 X-1.1104 Y0.2470  
G01 X-1.1037 Y0.2558  
G01 X-1.0958 Y0.2637  
G01 X-1.0870 Y0.2704  
G01 X-1.0775 Y0.2759  
G01 X-1.0672 Y0.2802  
G01 X-1.0565 Y0.2831  
G01 X-1.0455 Y0.2845  
G01 X-0.5100 Y0.2845  
G01 X-0.5090 Y0.2845  
G01 X-0.5070 Y0.2848  
G01 X-0.5050 Y0.2853  
G01 X-0.5031 Y0.2861  
G01 X-0.5014 Y0.2871  
G01 X-0.4998 Y0.2883  
G01 X-0.4983 Y0.2898  
G01 X-0.4971 Y0.2914  
G01 X-0.4961 Y0.2931  
G01 X-0.4953 Y0.2950  
G01 X-0.4948 Y0.2970  
G01 X-0.4945 Y0.2990  
G01 X-0.4945 Y0.3000  
G01 X-0.4945 Y0.6655  
G01 X-0.4931 Y0.6765  
G01 X-0.4902 Y0.6872  
G01 X-0.4859 Y0.6975  
G01 X-0.4804 Y0.7070  
G01 X-0.4737 Y0.7158  
G01 X-0.4658 Y0.7237  
G01 X-0.4570 Y0.7304  
G01 X-0.4475 Y0.7359  
G01 X-0.4372 Y0.7402  
G01 X-0.4265 Y0.7431  
G01 X-0.4155 Y0.7445  
G01 X-0.3123 Y0.7445  
G01 X-0.3102 Y0.7474  
G01 X-0.3041 Y0.7535  
G01 X-0.2971 Y0.7586  
G01 X-0.2894 Y0.7625  
G01 X-0.2811 Y0.7652  
G01 X-0.2726 Y0.7666  
G01 X-0.1274 Y0.7666  
G01 X-0.1189 Y0.7652  
G01 X-0.1106 Y0.7625  
G01 X-0.1029 Y0.7586  
G01 X-0.0959 Y0.7535  
G01 X-0.0898 Y0.7474  
G01 X-0.0847 Y0.7404  
G01 X-0.0808 Y0.7327  
G01 X-0.0781 Y0.7245  
G01 X-0.0767 Y0.7159  
G01 X-0.0767 Y0.7072  
G01 X-0.0781 Y0.6987  
G01 X-0.0808 Y0.6905  
G01 X-0.0847 Y0.6827  
G01 X-0.0898 Y0.6757  
G01 X-0.0959 Y0.6696  
G01 X-0.1029 Y0.6645  
G01 X-0.1106 Y0.6606  
G01 X-0.1189 Y0.6579  
G01 X-0.1274 Y0.6566  
G01 X-0.2726 Y0.6566  
G01 X-0.2811 Y0.6579  
G01 X-0.2894 Y0.6606  
G01 X-0.2971 Y0.6645  
G01 X-0.3041 Y0.6696  
G01 X-0.3100 Y0.6755  
G01 X-0.4100 Y0.6755  
G01 X-0.4110 Y0.6755  
G01 X-0.4130 Y0.6752  
G01 X-0.4150 Y0.6747  
G01 X-0.4169 Y0.6739  
G01 X-0.4186 Y0.6729  
G01 X-0.4202 Y0.6717  
G01 X-0.4217 Y0.6702  
G01 X-0.4229 Y0.6686  
G01 X-0.4239 Y0.6669  
G01 X-0.4247 Y0.6650  
G01 X-0.4252 Y0.6630  
G01 X-0.4255 Y0.6610  
G01 X-0.4255 Y0.6600  
G01 X-0.4255 Y0.3034  
G00 Z0.1000  
G00 X-0.5934 Y1.4445  
G01 Z-0.0070 F10    
G01 X-0.5845 Y1.4445  F20    
G01 X-0.5735 Y1.4431  
G01 X-0.5628 Y1.4402  
G01 X-0.5525 Y1.4359  
G01 X-0.5430 Y1.4304  
G01 X-0.5342 Y1.4237  
G01 X-0.5263 Y1.4158  
G01 X-0.5196 Y1.4070  
G01 X-0.5141 Y1.3975  
G01 X-0.5098 Y1.3872  
G01 X-0.5069 Y1.3765  
G01 X-0.5055 Y1.3655  
G01 X-0.5055 Y1.3584  
G01 X-0.5055 Y1.3574  
G01 X-0.5052 Y1.3554  
G01 X-0.5047 Y1.3534  
G01 X-0.5039 Y1.3516  
G01 X-0.5029 Y1.3498  
G01 X-0.5017 Y1.3482  
G01 X-0.5002 Y1.3468  
G01 X-0.4986 Y1.3455  
G01 X-0.4969 Y1.3445  
G01 X-0.4950 Y1.3437  
G01 X-0.4930 Y1.3432  
G01 X-0.4910 Y1.3430  
G01 X-0.4900 Y1.3429  
G01 X-0.3112 Y1.3429  
G01 X-0.3102 Y1.3443  
G01 X-0.3041 Y1.3504  
G01 X-0.2971 Y1.3555  
G01 X-0.2894 Y1.3594  
G01 X-0.2811 Y1.3621  
G01 X-0.2726 Y1.3634  
G01 X-0.1274 Y1.3634  
G01 X-0.1189 Y1.3621  
G01 X-0.1106 Y1.3594  
G01 X-0.1029 Y1.3555  
G01 X-0.0959 Y1.3504  
G01 X-0.0898 Y1.3443  
G01 X-0.0847 Y1.3373  
G01 X-0.0808 Y1.3295  
G01 X-0.0781 Y1.3213  
G01 X-0.0767 Y1.3128  
G01 X-0.0767 Y1.3041  
G01 X-0.0781 Y1.2955  
G01 X-0.0808 Y1.2873  
G01 X-0.0847 Y1.2796  
G01 X-0.0898 Y1.2726  
G01 X-0.0959 Y1.2665  
G01 X-0.1029 Y1.2614  
G01 X-0.1106 Y1.2575  
G01 X-0.1189 Y1.2548  
G01 X-0.1274 Y1.2534  
G01 X-0.2726 Y1.2534  
G01 X-0.2811 Y1.2548  
G01 X-0.2894 Y1.2575  
G01 X-0.2971 Y1.2614  
G01 X-0.3041 Y1.2665  
G01 X-0.3102 Y1.2726  
G01 X-0.3112 Y1.2739  
G01 X-0.4955 Y1.2739  
G01 X-0.5065 Y1.2754  
G01 X-0.5172 Y1.2782  
G01 X-0.5275 Y1.2825  
G01 X-0.5370 Y1.2880  
G01 X-0.5458 Y1.2948  
G01 X-0.5537 Y1.3026  
G01 X-0.5604 Y1.3114  
G01 X-0.5659 Y1.3210  
G01 X-0.5702 Y1.3312  
G01 X-0.5731 Y1.3419  
G01 X-0.5745 Y1.3529  
G01 X-0.5745 Y1.3600  
G01 X-0.5745 Y1.3610  
G01 X-0.5748 Y1.3630  
G01 X-0.5753 Y1.3650  
G01 X-0.5761 Y1.3669  
G01 X-0.5771 Y1.3686  
G01 X-0.5783 Y1.3702  
G01 X-0.5798 Y1.3717  
G01 X-0.5814 Y1.3729  
G01 X-0.5831 Y1.3739  
G01 X-0.5850 Y1.3747  
G01 X-0.5870 Y1.3752  
G01 X-0.5890 Y1.3755  
G01 X-0.5900 Y1.3755  
G01 X-0.8603 Y1.3755  
G01 X-0.8621 Y1.3738  
G01 X-0.8681 Y1.3694  
G01 X-0.8748 Y1.3660  
G01 X-0.8819 Y1.3637  
G01 X-0.8893 Y1.3625  
G01 X-1.0107 Y1.3625  
G01 X-1.0181 Y1.3637  
G01 X-1.0252 Y1.3660  
G01 X-1.0319 Y1.3694  
G01 X-1.0379 Y1.3738  
G01 X-1.0432 Y1.3791  
G01 X-1.0476 Y1.3851  
G01 X-1.0510 Y1.3918  
G01 X-1.0533 Y1.3989  
G01 X-1.0545 Y1.4063  
G01 X-1.0545 Y1.4137  
G01 X-1.0533 Y1.4211  
G01 X-1.0510 Y1.4282  
G01 X-1.0476 Y1.4349  
G01 X-1.0432 Y1.4409  
G01 X-1.0379 Y1.4462  
G01 X-1.0319 Y1.4506  
G01 X-1.0252 Y1.4540  
G01 X-1.0181 Y1.4563  
G01 X-1.0107 Y1.4575  
G01 X-0.8893 Y1.4575  
G01 X-0.8819 Y1.4563  
G01 X-0.8748 Y1.4540  
G01 X-0.8681 Y1.4506  
G01 X-0.8621 Y1.4462  
G01 X-0.8603 Y1.4445  
G01 X-0.5934 Y1.4445  
G00 Z0.1000  
G00 X-2.3645 Y0.7766  
G01 Z-0.0070 F10    
G01 X-2.3645 Y0.7855  F20    
G01 X-2.3631 Y0.7965  
G01 X-2.3602 Y0.8072  
G01 X-2.3559 Y0.8175  
G01 X-2.3504 Y0.8270  
G01 X-2.3437 Y0.8358  
G01 X-2.3358 Y0.8437  
G01 X-2.3270 Y0.8504  
G01 X-2.3175 Y0.8559  
G01 X-2.3072 Y0.8602  
G01 X-2.2965 Y0.8631  
G01 X-2.2855 Y0.8645  
G01 X-1.8600 Y0.8645  
G01 X-1.8590 Y0.8645  
G01 X-1.8570 Y0.8648  
G01 X-1.8550 Y0.8653  
G01 X-1.8531 Y0.8661  
G01 X-1.8514 Y0.8671  
G01 X-1.8498 Y0.8683  
G01 X-1.8483 Y0.8698  
G01 X-1.8471 Y0.8714  
G01 X-1.8461 Y0.8731  
G01 X-1.8453 Y0.8750  
G01 X-1.8448 Y0.8770  
G01 X-1.8445 Y0.8790  
G01 X-1.8445 Y0.8800  
G01 X-1.8445 Y1.0755  
G01 X-1.8703 Y1.0755  
G01 X-1.8721 Y1.0738  
G01 X-1.8781 Y1.0694  
G01 X-1.8848 Y1.0660  
G01 X-1.8919 Y1.0637  
G01 X-1.8993 Y1.0625  
G01 X-2.0207 Y1.0625  
G01 X-2.0281 Y1.0637  
G01 X-2.0352 Y1.0660  
G01 X-2.0419 Y1.0694  
G01 X-2.0479 Y1.0738  
G01 X-2.0532 Y1.0791  
G01 X-2.0576 Y1.0851  
G01 X-2.0610 Y1.0918  
G01 X-2.0633 Y1.0989  
G01 X-2.0645 Y1.1063  
G01 X-2.0645 Y1.1137  
G01 X-2.0633 Y1.1211  
G01 X-2.0610 Y1.1282  
G01 X-2.0576 Y1.1349  
G01 X-2.0532 Y1.1409  
G01 X-2.0479 Y1.1462  
G01 X-2.0419 Y1.1506  
G01 X-2.0352 Y1.1540  
G01 X-2.0281 Y1.1563  
G01 X-2.0207 Y1.1575  
G01 X-1.8993 Y1.1575  
G01 X-1.8919 Y1.1563  
G01 X-1.8848 Y1.1540  
G01 X-1.8781 Y1.1506  
G01 X-1.8721 Y1.1462  
G01 X-1.8703 Y1.1445  
G01 X-1.3397 Y1.1445  
G01 X-1.3379 Y1.1462  
G01 X-1.3319 Y1.1506  
G01 X-1.3252 Y1.1540  
G01 X-1.3181 Y1.1563  
G01 X-1.3107 Y1.1575  
G01 X-1.1893 Y1.1575  
G01 X-1.1819 Y1.1563  
G01 X-1.1748 Y1.1540  
G01 X-1.1681 Y1.1506  
G01 X-1.1621 Y1.1462  
G01 X-1.1568 Y1.1409  
G01 X-1.1524 Y1.1349  
G01 X-1.1490 Y1.1282  
G01 X-1.1467 Y1.1211  
G01 X-1.1455 Y1.1137  
G01 X-1.1455 Y1.1063  
G01 X-1.1467 Y1.0989  
G01 X-1.1490 Y1.0918  
G01 X-1.1524 Y1.0851  
G01 X-1.1568 Y1.0791  
G01 X-1.1621 Y1.0738  
G01 X-1.1681 Y1.0694  
G01 X-1.1748 Y1.0660  
G01 X-1.1819 Y1.0637  
G01 X-1.1893 Y1.0625  
G01 X-1.3107 Y1.0625  
G01 X-1.3181 Y1.0637  
G01 X-1.3252 Y1.0660  
G01 X-1.3319 Y1.0694  
G01 X-1.3379 Y1.0738  
G01 X-1.3397 Y1.0755  
G01 X-1.7755 Y1.0755  
G01 X-1.7755 Y0.8745  
G01 X-1.7769 Y0.8635  
G01 X-1.7798 Y0.8528  
G01 X-1.7841 Y0.8425  
G01 X-1.7896 Y0.8330  
G01 X-1.7963 Y0.8242  
G01 X-1.8042 Y0.8163  
G01 X-1.8130 Y0.8096  
G01 X-1.8225 Y0.8041  
G01 X-1.8328 Y0.7998  
G01 X-1.8435 Y0.7969  
G01 X-1.8545 Y0.7955  
G01 X-2.2800 Y0.7955  
G01 X-2.2810 Y0.7955  
G01 X-2.2830 Y0.7952  
G01 X-2.2850 Y0.7947  
G01 X-2.2869 Y0.7939  
G01 X-2.2886 Y0.7929  
G01 X-2.2902 Y0.7917  
G01 X-2.2917 Y0.7902  
G01 X-2.2929 Y0.7886  
G01 X-2.2939 Y0.7869  
G01 X-2.2947 Y0.7850  
G01 X-2.2952 Y0.7830  
G01 X-2.2955 Y0.7810  
G01 X-2.2955 Y0.7800  
G01 X-2.2955 Y0.7557  
G01 X-2.2968 Y0.7472  
G01 X-2.2995 Y0.7391  
G01 X-2.3034 Y0.7314  
G01 X-2.3084 Y0.7245  
G01 X-2.3145 Y0.7184  
G01 X-2.3214 Y0.7134  
G01 X-2.3291 Y0.7095  
G01 X-2.3372 Y0.7068  
G01 X-2.3457 Y0.7055  
G01 X-2.6473 Y0.7055  
G01 X-2.6503 Y0.7025  
G01 X-2.6897 Y0.7025  
G01 X-2.7027 Y0.7155  
G01 X-2.8077 Y0.7155  
G01 X-2.8098 Y0.7126  
G01 X-2.8159 Y0.7065  
G01 X-2.8229 Y0.7014  
G01 X-2.8306 Y0.6975  
G01 X-2.8389 Y0.6948  
G01 X-2.8474 Y0.6934  
G01 X-2.9926 Y0.6934  
G01 X-3.0011 Y0.6948  
G01 X-3.0094 Y0.6975  
G01 X-3.0171 Y0.7014  
G01 X-3.0241 Y0.7065  
G01 X-3.0302 Y0.7126  
G01 X-3.0353 Y0.7196  
G01 X-3.0392 Y0.7273  
G01 X-3.0419 Y0.7355  
G01 X-3.0432 Y0.7441  
G01 X-3.0432 Y0.7528  
G01 X-3.0419 Y0.7613  
G01 X-3.0392 Y0.7695  
G01 X-3.0353 Y0.7773  
G01 X-3.0302 Y0.7843  
G01 X-3.0241 Y0.7904  
G01 X-3.0171 Y0.7955  
G01 X-3.0094 Y0.7994  
G01 X-3.0011 Y0.8021  
G01 X-2.9926 Y0.8034  
G01 X-2.8474 Y0.8034  
G01 X-2.8389 Y0.8021  
G01 X-2.8306 Y0.7994  
G01 X-2.8229 Y0.7955  
G01 X-2.8159 Y0.7904  
G01 X-2.8100 Y0.7845  
G01 X-2.7027 Y0.7845  
G01 X-2.6897 Y0.7975  
G01 X-2.6503 Y0.7975  
G01 X-2.6273 Y0.7745  
G01 X-2.3645 Y0.7745  
G01 X-2.3645 Y0.7766  
G00 Z0.1000  
G00 X-2.1745 Y0.6155  
G01 Z-0.0070 F10    
G01 X-2.1745 Y0.6155  F20    
G01 X-2.1731 Y0.6265  
G01 X-2.1702 Y0.6372  
G01 X-2.1659 Y0.6475  
G01 X-2.1604 Y0.6570  
G01 X-2.1537 Y0.6658  
G01 X-2.1458 Y0.6737  
G01 X-2.1370 Y0.6804  
G01 X-2.1275 Y0.6859  
G01 X-2.1172 Y0.6902  
G01 X-2.1065 Y0.6931  
G01 X-2.0955 Y0.6945  
G01 X-2.0511 Y0.6945  
G01 X-2.0508 Y0.6949  
G01 X-2.0449 Y0.7008  
G01 X-2.0380 Y0.7058  
G01 X-2.0305 Y0.7096  
G01 X-2.0225 Y0.7122  
G01 X-2.0142 Y0.7135  
G01 X-2.0058 Y0.7135  
G01 X-1.9975 Y0.7122  
G01 X-1.9895 Y0.7096  
G01 X-1.9820 Y0.7058  
G01 X-1.9751 Y0.7008  
G01 X-1.9692 Y0.6949  
G01 X-1.9689 Y0.6945  
G01 X-1.7827 Y0.6945  
G01 X-1.7697 Y0.7075  
G01 X-1.7303 Y0.7075  
G01 X-1.7025 Y0.6797  
G01 X-1.7025 Y0.6403  
G01 X-1.7303 Y0.6125  
G01 X-1.7697 Y0.6125  
G01 X-1.7827 Y0.6255  
G01 X-1.9689 Y0.6255  
G01 X-1.9692 Y0.6251  
G01 X-1.9751 Y0.6192  
G01 X-1.9820 Y0.6142  
G01 X-1.9895 Y0.6104  
G01 X-1.9975 Y0.6078  
G01 X-2.0058 Y0.6065  
G01 X-2.0142 Y0.6065  
G01 X-2.0225 Y0.6078  
G01 X-2.0305 Y0.6104  
G01 X-2.0380 Y0.6142  
G01 X-2.0449 Y0.6192  
G01 X-2.0508 Y0.6251  
G01 X-2.0511 Y0.6255  
G01 X-2.0900 Y0.6255  
G01 X-2.0910 Y0.6255  
G01 X-2.0930 Y0.6252  
G01 X-2.0950 Y0.6247  
G01 X-2.0969 Y0.6239  
G01 X-2.0986 Y0.6229  
G01 X-2.1002 Y0.6217  
G01 X-2.1017 Y0.6202  
G01 X-2.1029 Y0.6186  
G01 X-2.1039 Y0.6169  
G01 X-2.1047 Y0.6150  
G01 X-2.1052 Y0.6130  
G01 X-2.1055 Y0.6110  
G01 X-2.1055 Y0.6100  
G01 X-2.1055 Y0.2927  
G01 X-2.0925 Y0.2797  
G01 X-2.0925 Y0.2403  
G01 X-2.1203 Y0.2125  
G01 X-2.1597 Y0.2125  
G01 X-2.1875 Y0.2403  
G01 X-2.1875 Y0.2797  
G01 X-2.1745 Y0.2927  
G01 X-2.1745 Y0.6134  
G01 X-2.1745 Y0.6155  
G00 Z0.1000  
G00 X-3.1045 Y1.5966  
G01 Z-0.0070 F10    
G01 X-3.1045 Y1.6055  F20    
G01 X-3.1031 Y1.6165  
G01 X-3.1002 Y1.6272  
G01 X-3.0959 Y1.6375  
G01 X-3.0904 Y1.6470  
G01 X-3.0837 Y1.6558  
G01 X-3.0758 Y1.6637  
G01 X-3.0670 Y1.6704  
G01 X-3.0575 Y1.6759  
G01 X-3.0472 Y1.6802  
G01 X-3.0365 Y1.6831  
G01 X-3.0255 Y1.6845  
G01 X-2.9045 Y1.6845  
G01 X-2.9045 Y1.7755  
G01 X-2.9031 Y1.7865  
G01 X-2.9002 Y1.7972  
G01 X-2.8959 Y1.8075  
G01 X-2.8904 Y1.8170  
G01 X-2.8837 Y1.8258  
G01 X-2.8758 Y1.8337  
G01 X-2.8670 Y1.8404  
G01 X-2.8575 Y1.8459  
G01 X-2.8472 Y1.8502  
G01 X-2.8365 Y1.8531  
G01 X-2.8255 Y1.8545  
G01 X-2.7027 Y1.8545  
G01 X-2.6897 Y1.8675  
G01 X-2.6503 Y1.8675  
G01 X-2.6225 Y1.8397  
G01 X-2.6225 Y1.8003  
G01 X-2.6503 Y1.7725  
G01 X-2.6897 Y1.7725  
G01 X-2.7027 Y1.7855  
G01 X-2.8200 Y1.7855  
G01 X-2.8210 Y1.7855  
G01 X-2.8230 Y1.7852  
G01 X-2.8250 Y1.7847  
G01 X-2.8269 Y1.7839  
G01 X-2.8286 Y1.7829  
G01 X-2.8302 Y1.7817  
G01 X-2.8317 Y1.7802  
G01 X-2.8329 Y1.7786  
G01 X-2.8339 Y1.7769  
G01 X-2.8347 Y1.7750  
G01 X-2.8352 Y1.7730  
G01 X-2.8355 Y1.7710  
G01 X-2.8355 Y1.7700  
G01 X-2.8355 Y1.6754  
G01 X-2.8368 Y1.6663  
G01 X-2.8394 Y1.6574  
G01 X-2.8432 Y1.6490  
G01 X-2.8482 Y1.6412  
G01 X-2.8543 Y1.6343  
G01 X-2.8612 Y1.6282  
G01 X-2.8690 Y1.6232  
G01 X-2.8774 Y1.6194  
G01 X-2.8863 Y1.6168  
G01 X-2.8954 Y1.6155  
G01 X-3.0200 Y1.6155  
G01 X-3.0210 Y1.6155  
G01 X-3.0230 Y1.6152  
G01 X-3.0250 Y1.6147  
G01 X-3.0269 Y1.6139  
G01 X-3.0286 Y1.6129  
G01 X-3.0302 Y1.6117  
G01 X-3.0317 Y1.6102  
G01 X-3.0329 Y1.6086  
G01 X-3.0339 Y1.6069  
G01 X-3.0347 Y1.6050  
G01 X-3.0352 Y1.6030  
G01 X-3.0355 Y1.6010  
G01 X-3.0355 Y1.6000  
G01 X-3.0355 Y1.2900  
G01 X-3.0355 Y1.2890  
G01 X-3.0352 Y1.2870  
G01 X-3.0347 Y1.2850  
G01 X-3.0339 Y1.2831  
G01 X-3.0329 Y1.2814  
G01 X-3.0317 Y1.2798  
G01 X-3.0302 Y1.2783  
G01 X-3.0286 Y1.2771  
G01 X-3.0269 Y1.2761  
G01 X-3.0250 Y1.2753  
G01 X-3.0230 Y1.2748  
G01 X-3.0210 Y1.2745  
G01 X-3.0200 Y1.2745  
G01 X-2.7200 Y1.2745  
G01 X-2.7166 Y1.2745  
G01 X-2.7133 Y1.2738  
G01 X-2.6897 Y1.2975  
G01 X-2.6503 Y1.2975  
G01 X-2.6225 Y1.2697  
G01 X-2.6225 Y1.2303  
G01 X-2.6503 Y1.2025  
G01 X-2.6794 Y1.2025  
G01 X-2.6861 Y1.2006  
G01 X-2.6961 Y1.1994  
G01 X-2.7062 Y1.1995  
G01 X-2.7162 Y1.2011  
G01 X-2.7258 Y1.2041  
G01 X-2.7287 Y1.2055  
G01 X-3.0255 Y1.2055  
G01 X-3.0365 Y1.2069  
G01 X-3.0472 Y1.2098  
G01 X-3.0575 Y1.2141  
G01 X-3.0670 Y1.2196  
G01 X-3.0758 Y1.2263  
G01 X-3.0837 Y1.2342  
G01 X-3.0904 Y1.2430  
G01 X-3.0959 Y1.2525  
G01 X-3.1002 Y1.2628  
G01 X-3.1031 Y1.2735  
G01 X-3.1045 Y1.2845  
G01 X-3.1045 Y1.5966  
G00 Z0.1000  
G00 X-0.5666 Y1.5655  
G01 Z-0.0070 F10    
G01 X-0.5755 Y1.5655  F20    
G01 X-0.5865 Y1.5669  
G01 X-0.5972 Y1.5698  
G01 X-0.6075 Y1.5741  
G01 X-0.6170 Y1.5796  
G01 X-0.6258 Y1.5863  
G01 X-0.6337 Y1.5942  
G01 X-0.6404 Y1.6030  
G01 X-0.6459 Y1.6125  
G01 X-0.6502 Y1.6228  
G01 X-0.6531 Y1.6335  
G01 X-0.6545 Y1.6445  
G01 X-0.6545 Y1.7200  
G01 X-0.6545 Y1.7204  
G01 X-0.6546 Y1.7212  
G01 X-0.6548 Y1.7219  
G01 X-0.6552 Y1.7226  
G01 X-0.6556 Y1.7233  
G01 X-0.6561 Y1.7239  
G01 X-0.6567 Y1.7244  
G01 X-0.6574 Y1.7248  
G01 X-0.6581 Y1.7252  
G01 X-0.6588 Y1.7254  
G01 X-0.6596 Y1.7255  
G01 X-0.6600 Y1.7255  
G01 X-1.3155 Y1.7255  
G01 X-1.3265 Y1.7269  
G01 X-1.3372 Y1.7298  
G01 X-1.3475 Y1.7341  
G01 X-1.3570 Y1.7396  
G01 X-1.3658 Y1.7463  
G01 X-1.3737 Y1.7542  
G01 X-1.3804 Y1.7630  
G01 X-1.3859 Y1.7725  
G01 X-1.3902 Y1.7828  
G01 X-1.3931 Y1.7935  
G01 X-1.3945 Y1.8045  
G01 X-1.3945 Y1.8210  
G01 X-1.4120 Y1.8385  
G01 X-1.4120 Y1.8815  
G01 X-1.3945 Y1.8990  
G01 X-1.3945 Y1.9600  
G01 X-1.3945 Y1.9610  
G01 X-1.3948 Y1.9630  
G01 X-1.3953 Y1.9650  
G01 X-1.3961 Y1.9669  
G01 X-1.3971 Y1.9686  
G01 X-1.3983 Y1.9702  
G01 X-1.3998 Y1.9717  
G01 X-1.4014 Y1.9729  
G01 X-1.4031 Y1.9739  
G01 X-1.4050 Y1.9747  
G01 X-1.4070 Y1.9752  
G01 X-1.4090 Y1.9755  
G01 X-1.4100 Y1.9755  
G01 X-1.5700 Y1.9755  
G01 X-1.5710 Y1.9755  
G01 X-1.5730 Y1.9752  
G01 X-1.5750 Y1.9747  
G01 X-1.5769 Y1.9739  
G01 X-1.5786 Y1.9729  
G01 X-1.5802 Y1.9717  
G01 X-1.5817 Y1.9702  
G01 X-1.5829 Y1.9686  
G01 X-1.5839 Y1.9669  
G01 X-1.5847 Y1.9650  
G01 X-1.5852 Y1.9630  
G01 X-1.5855 Y1.9610  
G01 X-1.5855 Y1.9600  
G01 X-1.5855 Y1.6300  
G01 X-1.5855 Y1.6290  
G01 X-1.5852 Y1.6270  
G01 X-1.5847 Y1.6250  
G01 X-1.5839 Y1.6231  
G01 X-1.5829 Y1.6214  
G01 X-1.5817 Y1.6198  
G01 X-1.5802 Y1.6183  
G01 X-1.5786 Y1.6171  
G01 X-1.5769 Y1.6161  
G01 X-1.5750 Y1.6153  
G01 X-1.5730 Y1.6148  
G01 X-1.5710 Y1.6145  
G01 X-1.5700 Y1.6145  
G01 X-1.1445 Y1.6145  
G01 X-1.1335 Y1.6131  
G01 X-1.1228 Y1.6102  
G01 X-1.1125 Y1.6059  
G01 X-1.1030 Y1.6004  
G01 X-1.0942 Y1.5937  
G01 X-1.0863 Y1.5858  
G01 X-1.0796 Y1.5770  
G01 X-1.0741 Y1.5675  
G01 X-1.0698 Y1.5572  
G01 X-1.0669 Y1.5465  
G01 X-1.0655 Y1.5355  
G01 X-1.0655 Y0.8600  
G01 X-1.0655 Y0.8590  
G01 X-1.0652 Y0.8570  
G01 X-1.0647 Y0.8550  
G01 X-1.0639 Y0.8531  
G01 X-1.0629 Y0.8514  
G01 X-1.0617 Y0.8498  
G01 X-1.0602 Y0.8483  
G01 X-1.0586 Y0.8471  
G01 X-1.0569 Y0.8461  
G01 X-1.0550 Y0.8453  
G01 X-1.0530 Y0.8448  
G01 X-1.0510 Y0.8445  
G01 X-1.0500 Y0.8445  
G01 X-1.0397 Y0.8445  
G01 X-1.0379 Y0.8462  
G01 X-1.0319 Y0.8506  
G01 X-1.0252 Y0.8540  
G01 X-1.0181 Y0.8563  
G01 X-1.0107 Y0.8575  
G01 X-0.8893 Y0.8575  
G01 X-0.8819 Y0.8563  
G01 X-0.8748 Y0.8540  
G01 X-0.8681 Y0.8506  
G01 X-0.8621 Y0.8462  
G01 X-0.8568 Y0.8409  
G01 X-0.8524 Y0.8349  
G01 X-0.8490 Y0.8282  
G01 X-0.8467 Y0.8211  
G01 X-0.8455 Y0.8137  
G01 X-0.8455 Y0.8063  
G01 X-0.8467 Y0.7989  
G01 X-0.8490 Y0.7918  
G01 X-0.8524 Y0.7851  
G01 X-0.8568 Y0.7791  
G01 X-0.8621 Y0.7738  
G01 X-0.8681 Y0.7694  
G01 X-0.8748 Y0.7660  
G01 X-0.8819 Y0.7637  
G01 X-0.8893 Y0.7625  
G01 X-1.0107 Y0.7625  
G01 X-1.0181 Y0.7637  
G01 X-1.0252 Y0.7660  
G01 X-1.0319 Y0.7694  
G01 X-1.0379 Y0.7738  
G01 X-1.0397 Y0.7755  
G01 X-1.0555 Y0.7755  
G01 X-1.0665 Y0.7769  
G01 X-1.0772 Y0.7798  
G01 X-1.0875 Y0.7841  
G01 X-1.0970 Y0.7896  
G01 X-1.1058 Y0.7963  
G01 X-1.1137 Y0.8042  
G01 X-1.1204 Y0.8130  
G01 X-1.1259 Y0.8225  
G01 X-1.1302 Y0.8328  
G01 X-1.1331 Y0.8435  
G01 X-1.1345 Y0.8545  
G01 X-1.1345 Y1.5300  
G01 X-1.1345 Y1.5310  
G01 X-1.1348 Y1.5330  
G01 X-1.1353 Y1.5350  
G01 X-1.1361 Y1.5369  
G01 X-1.1371 Y1.5386  
G01 X-1.1383 Y1.5402  
G01 X-1.1398 Y1.5417  
G01 X-1.1414 Y1.5429  
G01 X-1.1431 Y1.5439  
G01 X-1.1450 Y1.5447  
G01 X-1.1470 Y1.5452  
G01 X-1.1490 Y1.5455  
G01 X-1.1500 Y1.5455  
G01 X-1.5755 Y1.5455  
G01 X-1.5865 Y1.5469  
G01 X-1.5972 Y1.5498  
G01 X-1.6075 Y1.5541  
G01 X-1.6170 Y1.5596  
G01 X-1.6258 Y1.5663  
G01 X-1.6337 Y1.5742  
G01 X-1.6404 Y1.5830  
G01 X-1.6459 Y1.5925  
G01 X-1.6502 Y1.6028  
G01 X-1.6531 Y1.6135  
G01 X-1.6545 Y1.6245  
G01 X-1.6545 Y1.7555  
G01 X-1.9319 Y1.7555  
G01 X-1.9487 Y1.7387  
G01 X-1.9913 Y1.7387  
G01 X-2.0213 Y1.7687  
G01 X-2.0213 Y1.8113  
G01 X-1.9913 Y1.8413  
G01 X-1.9487 Y1.8413  
G01 X-1.9319 Y1.8245  
G01 X-1.6545 Y1.8245  
G01 X-1.6545 Y1.9655  
G01 X-1.6531 Y1.9765  
G01 X-1.6502 Y1.9872  
G01 X-1.6459 Y1.9975  
G01 X-1.6404 Y2.0070  
G01 X-1.6337 Y2.0158  
G01 X-1.6258 Y2.0237  
G01 X-1.6170 Y2.0304  
G01 X-1.6075 Y2.0359  
G01 X-1.5972 Y2.0402  
G01 X-1.5865 Y2.0431  
